;Generated from temp.svg 3c47ad132c924e4163598e56cb2f44d2ca1eb7ab
; gc_nexgen gc_options: beamOS:0.12.1a2.post30.dev0+g075cbf2a on 20a6a61ccbaf, gc_nextgen:0.1, enabled:true, precision:0.05, optimize_travel:true, small_paths_first:true, clip_working_area:true, clipRect:0,0,500,390, userAgent:Mozilla/5.0 (X11; Linux x86_64) AppleWebKit/537.36 (KHTML, like Gecko) Chrome/100.0.4896.75 Safari/537.36
; created:2023-01-12 16:37:12
; laser params: {u'#000000': {u'passes': 2, u'feedrate': 200, u'progressive': False, u'color': u'#000000', u'intensity': 1300, u'intensity_user': 100, u'cut_compressor': 100, 'mpr': 13.0, 'svgDPI': 90, u'engrave': False, u'pierce_time': 0, 'laserhead_model_id': None}, u'#010202': {u'passes': 2, u'feedrate': 200, u'progressive': False, u'color': u'#010202', u'intensity': 1300, u'intensity_user': 100, u'cut_compressor': 100, 'mpr': 13.0, 'svgDPI': 90, u'engrave': False, u'pierce_time': 0, 'laserhead_model_id': None}, u'#e52424': {u'passes': 2, u'feedrate': 200, u'progressive': False, u'color': u'#e52424', u'intensity': 1300, u'intensity_user': 100, u'cut_compressor': 100, 'mpr': 13.0, 'svgDPI': 90, u'engrave': False, u'pierce_time': 0, 'laserhead_model_id': None}}

; speedup cooling fan
M3S0
G4P0.5
M5
; end speedup cooling fan

; gcode_before_job - color: #010202
M100P100 ; mrbeam_compressor: 100
G4P0.2

; Layer:compSvg, outline of:pathSlctbcdvnnc, stroke:#010202, {u'passes': 2, u'feedrate': 200, u'progressive': False, u'color': u'#010202', u'intensity': 1300, u'intensity_user': 100, u'cut_compressor': 100, 'mpr': 13.0, 'svgDPI': 90, u'engrave': False, u'pierce_time': 0, 'laserhead_model_id': None}
; pass:1/2
;_gc_nextgen_svg_id:pathSlctbcdvnku,node:path,mb:color:#010202,mb:id:pathSlctbcdvnku,mb:clone_of:line491_5_,clip_working_area_clipped:false
G0X314.86Y252.54
F200;#010202
; gcode_before_path_color
M3S0
G4P0
M03 S1300 ; color: #010202

G1X315.48Y250.80
M05

; pass:2/2
;_gc_nextgen_svg_id:pathSlctbcdvnku,node:path,mb:color:#010202,mb:id:pathSlctbcdvnku,mb:clone_of:line491_5_,clip_working_area_clipped:false
G0X314.86Y252.54
F200;#010202
; gcode_before_path_color
M3S0
G4P0
M03 S1300 ; color: #010202

G1X315.48Y250.80
M05

; Layer:compSvg, outline of:pathSlctbcdvnnc, stroke:#010202, {u'passes': 2, u'feedrate': 200, u'progressive': False, u'color': u'#010202', u'intensity': 1300, u'intensity_user': 100, u'cut_compressor': 100, 'mpr': 13.0, 'svgDPI': 90, u'engrave': False, u'pierce_time': 0, 'laserhead_model_id': None}
; pass:1/2
;_gc_nextgen_svg_id:pathSlctbcdvnkv,node:path,mb:color:#010202,mb:id:pathSlctbcdvnkv,mb:clone_of:line493_5_,clip_working_area_clipped:false
G0X315.94Y252.92
F200;#010202
; gcode_before_path_color
M3S0
G4P0
M03 S1300 ; color: #010202

G1X316.55Y251.18
M05

; pass:2/2
;_gc_nextgen_svg_id:pathSlctbcdvnkv,node:path,mb:color:#010202,mb:id:pathSlctbcdvnkv,mb:clone_of:line493_5_,clip_working_area_clipped:false
G0X315.94Y252.92
F200;#010202
; gcode_before_path_color
M3S0
G4P0
M03 S1300 ; color: #010202

G1X316.55Y251.18
M05

; Layer:compSvg, outline of:pathSlctbcdvnnc, stroke:#010202, {u'passes': 2, u'feedrate': 200, u'progressive': False, u'color': u'#010202', u'intensity': 1300, u'intensity_user': 100, u'cut_compressor': 100, 'mpr': 13.0, 'svgDPI': 90, u'engrave': False, u'pierce_time': 0, 'laserhead_model_id': None}
; pass:1/2
;_gc_nextgen_svg_id:pathSlctbcdvnkx,node:path,mb:color:#010202,mb:id:pathSlctbcdvnkx,mb:clone_of:line497_5_,clip_working_area_clipped:false
G0X318.09Y253.69
F200;#010202
; gcode_before_path_color
M3S0
G4P0
M03 S1300 ; color: #010202

G1X318.71Y251.94
M05

; pass:2/2
;_gc_nextgen_svg_id:pathSlctbcdvnkx,node:path,mb:color:#010202,mb:id:pathSlctbcdvnkx,mb:clone_of:line497_5_,clip_working_area_clipped:false
G0X318.09Y253.69
F200;#010202
; gcode_before_path_color
M3S0
G4P0
M03 S1300 ; color: #010202

G1X318.71Y251.94
M05

; Layer:compSvg, outline of:pathSlctbcdvnnc, stroke:#010202, {u'passes': 2, u'feedrate': 200, u'progressive': False, u'color': u'#010202', u'intensity': 1300, u'intensity_user': 100, u'cut_compressor': 100, 'mpr': 13.0, 'svgDPI': 90, u'engrave': False, u'pierce_time': 0, 'laserhead_model_id': None}
; pass:1/2
;_gc_nextgen_svg_id:pathSlctbcdvnky,node:path,mb:color:#010202,mb:id:pathSlctbcdvnky,mb:clone_of:line499_5_,clip_working_area_clipped:false
G0X319.17Y254.07
F200;#010202
; gcode_before_path_color
M3S0
G4P0
M03 S1300 ; color: #010202

G1X319.79Y252.32
M05

; pass:2/2
;_gc_nextgen_svg_id:pathSlctbcdvnky,node:path,mb:color:#010202,mb:id:pathSlctbcdvnky,mb:clone_of:line499_5_,clip_working_area_clipped:false
G0X319.17Y254.07
F200;#010202
; gcode_before_path_color
M3S0
G4P0
M03 S1300 ; color: #010202

G1X319.79Y252.32
M05

; Layer:compSvg, outline of:pathSlctbcdvnnc, stroke:#010202, {u'passes': 2, u'feedrate': 200, u'progressive': False, u'color': u'#010202', u'intensity': 1300, u'intensity_user': 100, u'cut_compressor': 100, 'mpr': 13.0, 'svgDPI': 90, u'engrave': False, u'pierce_time': 0, 'laserhead_model_id': None}
; pass:1/2
;_gc_nextgen_svg_id:pathSlctbcdvnkz,node:path,mb:color:#010202,mb:id:pathSlctbcdvnkz,mb:clone_of:line501_5_,clip_working_area_clipped:false
G0X320.25Y254.45
F200;#010202
; gcode_before_path_color
M3S0
G4P0
M03 S1300 ; color: #010202

G1X320.87Y252.71
M05

; pass:2/2
;_gc_nextgen_svg_id:pathSlctbcdvnkz,node:path,mb:color:#010202,mb:id:pathSlctbcdvnkz,mb:clone_of:line501_5_,clip_working_area_clipped:false
G0X320.25Y254.45
F200;#010202
; gcode_before_path_color
M3S0
G4P0
M03 S1300 ; color: #010202

G1X320.87Y252.71
M05

; Layer:compSvg, outline of:pathSlctbcdvnnc, stroke:#010202, {u'passes': 2, u'feedrate': 200, u'progressive': False, u'color': u'#010202', u'intensity': 1300, u'intensity_user': 100, u'cut_compressor': 100, 'mpr': 13.0, 'svgDPI': 90, u'engrave': False, u'pierce_time': 0, 'laserhead_model_id': None}
; pass:1/2
;_gc_nextgen_svg_id:pathSlctbcdvnkk,node:path,mb:color:#010202,mb:id:pathSlctbcdvnkk,mb:clone_of:line471_6_,clip_working_area_clipped:false
G0X321.33Y254.83
F200;#010202
; gcode_before_path_color
M3S0
G4P0
M03 S1300 ; color: #010202

G1X321.95Y253.09
M05

; pass:2/2
;_gc_nextgen_svg_id:pathSlctbcdvnkk,node:path,mb:color:#010202,mb:id:pathSlctbcdvnkk,mb:clone_of:line471_6_,clip_working_area_clipped:false
G0X321.33Y254.83
F200;#010202
; gcode_before_path_color
M3S0
G4P0
M03 S1300 ; color: #010202

G1X321.95Y253.09
M05

; Layer:compSvg, outline of:pathSlctbcdvnnc, stroke:#010202, {u'passes': 2, u'feedrate': 200, u'progressive': False, u'color': u'#010202', u'intensity': 1300, u'intensity_user': 100, u'cut_compressor': 100, 'mpr': 13.0, 'svgDPI': 90, u'engrave': False, u'pierce_time': 0, 'laserhead_model_id': None}
; pass:1/2
;_gc_nextgen_svg_id:pathSlctbcdvnkm,node:path,mb:color:#010202,mb:id:pathSlctbcdvnkm,mb:clone_of:line475_6_,clip_working_area_clipped:false
G0X323.48Y255.60
F200;#010202
; gcode_before_path_color
M3S0
G4P0
M03 S1300 ; color: #010202

G1X324.10Y253.85
M05

; pass:2/2
;_gc_nextgen_svg_id:pathSlctbcdvnkm,node:path,mb:color:#010202,mb:id:pathSlctbcdvnkm,mb:clone_of:line475_6_,clip_working_area_clipped:false
G0X323.48Y255.60
F200;#010202
; gcode_before_path_color
M3S0
G4P0
M03 S1300 ; color: #010202

G1X324.10Y253.85
M05

; Layer:compSvg, outline of:pathSlctbcdvnnc, stroke:#010202, {u'passes': 2, u'feedrate': 200, u'progressive': False, u'color': u'#010202', u'intensity': 1300, u'intensity_user': 100, u'cut_compressor': 100, 'mpr': 13.0, 'svgDPI': 90, u'engrave': False, u'pierce_time': 0, 'laserhead_model_id': None}
; pass:1/2
;_gc_nextgen_svg_id:pathSlctbcdvnkn,node:path,mb:color:#010202,mb:id:pathSlctbcdvnkn,mb:clone_of:line477_6_,clip_working_area_clipped:false
G0X324.56Y255.98
F200;#010202
; gcode_before_path_color
M3S0
G4P0
M03 S1300 ; color: #010202

G1X325.18Y254.23
M05

; pass:2/2
;_gc_nextgen_svg_id:pathSlctbcdvnkn,node:path,mb:color:#010202,mb:id:pathSlctbcdvnkn,mb:clone_of:line477_6_,clip_working_area_clipped:false
G0X324.56Y255.98
F200;#010202
; gcode_before_path_color
M3S0
G4P0
M03 S1300 ; color: #010202

G1X325.18Y254.23
M05

; Layer:compSvg, outline of:pathSlctbcdvnnc, stroke:#010202, {u'passes': 2, u'feedrate': 200, u'progressive': False, u'color': u'#010202', u'intensity': 1300, u'intensity_user': 100, u'cut_compressor': 100, 'mpr': 13.0, 'svgDPI': 90, u'engrave': False, u'pierce_time': 0, 'laserhead_model_id': None}
; pass:1/2
;_gc_nextgen_svg_id:pathSlctbcdvnko,node:path,mb:color:#010202,mb:id:pathSlctbcdvnko,mb:clone_of:line479_6_,clip_working_area_clipped:false
G0X325.64Y256.36
F200;#010202
; gcode_before_path_color
M3S0
G4P0
M03 S1300 ; color: #010202

G1X326.26Y254.62
M05

; pass:2/2
;_gc_nextgen_svg_id:pathSlctbcdvnko,node:path,mb:color:#010202,mb:id:pathSlctbcdvnko,mb:clone_of:line479_6_,clip_working_area_clipped:false
G0X325.64Y256.36
F200;#010202
; gcode_before_path_color
M3S0
G4P0
M03 S1300 ; color: #010202

G1X326.26Y254.62
M05

; Layer:compSvg, outline of:pathSlctbcdvnnc, stroke:#010202, {u'passes': 2, u'feedrate': 200, u'progressive': False, u'color': u'#010202', u'intensity': 1300, u'intensity_user': 100, u'cut_compressor': 100, 'mpr': 13.0, 'svgDPI': 90, u'engrave': False, u'pierce_time': 0, 'laserhead_model_id': None}
; pass:1/2
;_gc_nextgen_svg_id:pathSlctbcdvnkp,node:path,mb:color:#010202,mb:id:pathSlctbcdvnkp,mb:clone_of:line481_6_,clip_working_area_clipped:false
G0X326.72Y256.74
F200;#010202
; gcode_before_path_color
M3S0
G4P0
M03 S1300 ; color: #010202

G1X327.34Y255.00
M05

; pass:2/2
;_gc_nextgen_svg_id:pathSlctbcdvnkp,node:path,mb:color:#010202,mb:id:pathSlctbcdvnkp,mb:clone_of:line481_6_,clip_working_area_clipped:false
G0X326.72Y256.74
F200;#010202
; gcode_before_path_color
M3S0
G4P0
M03 S1300 ; color: #010202

G1X327.34Y255.00
M05

; Layer:compSvg, outline of:pathSlctbcdvnnc, stroke:#010202, {u'passes': 2, u'feedrate': 200, u'progressive': False, u'color': u'#010202', u'intensity': 1300, u'intensity_user': 100, u'cut_compressor': 100, 'mpr': 13.0, 'svgDPI': 90, u'engrave': False, u'pierce_time': 0, 'laserhead_model_id': None}
; pass:1/2
;_gc_nextgen_svg_id:pathSlctbcdvnkr,node:path,mb:color:#010202,mb:id:pathSlctbcdvnkr,mb:clone_of:line485_6_,clip_working_area_clipped:false
G0X328.88Y257.51
F200;#010202
; gcode_before_path_color
M3S0
G4P0
M03 S1300 ; color: #010202

G1X329.49Y255.76
M05

; pass:2/2
;_gc_nextgen_svg_id:pathSlctbcdvnkr,node:path,mb:color:#010202,mb:id:pathSlctbcdvnkr,mb:clone_of:line485_6_,clip_working_area_clipped:false
G0X328.88Y257.51
F200;#010202
; gcode_before_path_color
M3S0
G4P0
M03 S1300 ; color: #010202

G1X329.49Y255.76
M05

; Layer:compSvg, outline of:pathSlctbcdvnnc, stroke:#010202, {u'passes': 2, u'feedrate': 200, u'progressive': False, u'color': u'#010202', u'intensity': 1300, u'intensity_user': 100, u'cut_compressor': 100, 'mpr': 13.0, 'svgDPI': 90, u'engrave': False, u'pierce_time': 0, 'laserhead_model_id': None}
; pass:1/2
;_gc_nextgen_svg_id:pathSlctbcdvnks,node:path,mb:color:#010202,mb:id:pathSlctbcdvnks,mb:clone_of:line487_6_,clip_working_area_clipped:false
G0X329.95Y257.89
F200;#010202
; gcode_before_path_color
M3S0
G4P0
M03 S1300 ; color: #010202

G1X330.57Y256.14
M05

; pass:2/2
;_gc_nextgen_svg_id:pathSlctbcdvnks,node:path,mb:color:#010202,mb:id:pathSlctbcdvnks,mb:clone_of:line487_6_,clip_working_area_clipped:false
G0X329.95Y257.89
F200;#010202
; gcode_before_path_color
M3S0
G4P0
M03 S1300 ; color: #010202

G1X330.57Y256.14
M05

; Layer:compSvg, outline of:pathSlctbcdvnnc, stroke:#010202, {u'passes': 2, u'feedrate': 200, u'progressive': False, u'color': u'#010202', u'intensity': 1300, u'intensity_user': 100, u'cut_compressor': 100, 'mpr': 13.0, 'svgDPI': 90, u'engrave': False, u'pierce_time': 0, 'laserhead_model_id': None}
; pass:1/2
;_gc_nextgen_svg_id:pathSlctbcdvnkt,node:path,mb:color:#010202,mb:id:pathSlctbcdvnkt,mb:clone_of:line489_6_,clip_working_area_clipped:false
G0X331.03Y258.27
F200;#010202
; gcode_before_path_color
M3S0
G4P0
M03 S1300 ; color: #010202

G1X331.65Y256.52
M05

; pass:2/2
;_gc_nextgen_svg_id:pathSlctbcdvnkt,node:path,mb:color:#010202,mb:id:pathSlctbcdvnkt,mb:clone_of:line489_6_,clip_working_area_clipped:false
G0X331.03Y258.27
F200;#010202
; gcode_before_path_color
M3S0
G4P0
M03 S1300 ; color: #010202

G1X331.65Y256.52
M05

; Layer:compSvg, outline of:pathSlctbcdvnnc, stroke:#010202, {u'passes': 2, u'feedrate': 200, u'progressive': False, u'color': u'#010202', u'intensity': 1300, u'intensity_user': 100, u'cut_compressor': 100, 'mpr': 13.0, 'svgDPI': 90, u'engrave': False, u'pierce_time': 0, 'laserhead_model_id': None}
; pass:1/2
;_gc_nextgen_svg_id:pathSlctbcdvnka,node:path,mb:color:#010202,mb:id:pathSlctbcdvnka,mb:clone_of:line451_6_,clip_working_area_clipped:false
G0X332.11Y258.65
F200;#010202
; gcode_before_path_color
M3S0
G4P0
M03 S1300 ; color: #010202

G1X332.73Y256.91
M05

; pass:2/2
;_gc_nextgen_svg_id:pathSlctbcdvnka,node:path,mb:color:#010202,mb:id:pathSlctbcdvnka,mb:clone_of:line451_6_,clip_working_area_clipped:false
G0X332.11Y258.65
F200;#010202
; gcode_before_path_color
M3S0
G4P0
M03 S1300 ; color: #010202

G1X332.73Y256.91
M05

; Layer:compSvg, outline of:pathSlctbcdvnnc, stroke:#010202, {u'passes': 2, u'feedrate': 200, u'progressive': False, u'color': u'#010202', u'intensity': 1300, u'intensity_user': 100, u'cut_compressor': 100, 'mpr': 13.0, 'svgDPI': 90, u'engrave': False, u'pierce_time': 0, 'laserhead_model_id': None}
; pass:1/2
;_gc_nextgen_svg_id:pathSlctbcdvnkc,node:path,mb:color:#010202,mb:id:pathSlctbcdvnkc,mb:clone_of:line455_6_,clip_working_area_clipped:false
G0X334.27Y259.41
F200;#010202
; gcode_before_path_color
M3S0
G4P0
M03 S1300 ; color: #010202

G1X334.88Y257.67
M05

; pass:2/2
;_gc_nextgen_svg_id:pathSlctbcdvnkc,node:path,mb:color:#010202,mb:id:pathSlctbcdvnkc,mb:clone_of:line455_6_,clip_working_area_clipped:false
G0X334.27Y259.41
F200;#010202
; gcode_before_path_color
M3S0
G4P0
M03 S1300 ; color: #010202

G1X334.88Y257.67
M05

; Layer:compSvg, outline of:pathSlctbcdvnnc, stroke:#010202, {u'passes': 2, u'feedrate': 200, u'progressive': False, u'color': u'#010202', u'intensity': 1300, u'intensity_user': 100, u'cut_compressor': 100, 'mpr': 13.0, 'svgDPI': 90, u'engrave': False, u'pierce_time': 0, 'laserhead_model_id': None}
; pass:1/2
;_gc_nextgen_svg_id:pathSlctbcdvnkd,node:path,mb:color:#010202,mb:id:pathSlctbcdvnkd,mb:clone_of:line457_6_,clip_working_area_clipped:false
G0X335.34Y259.80
F200;#010202
; gcode_before_path_color
M3S0
G4P0
M03 S1300 ; color: #010202

G1X335.96Y258.05
M05

; pass:2/2
;_gc_nextgen_svg_id:pathSlctbcdvnkd,node:path,mb:color:#010202,mb:id:pathSlctbcdvnkd,mb:clone_of:line457_6_,clip_working_area_clipped:false
G0X335.34Y259.80
F200;#010202
; gcode_before_path_color
M3S0
G4P0
M03 S1300 ; color: #010202

G1X335.96Y258.05
M05

; Layer:compSvg, outline of:pathSlctbcdvnnc, stroke:#010202, {u'passes': 2, u'feedrate': 200, u'progressive': False, u'color': u'#010202', u'intensity': 1300, u'intensity_user': 100, u'cut_compressor': 100, 'mpr': 13.0, 'svgDPI': 90, u'engrave': False, u'pierce_time': 0, 'laserhead_model_id': None}
; pass:1/2
;_gc_nextgen_svg_id:pathSlctbcdvnke,node:path,mb:color:#010202,mb:id:pathSlctbcdvnke,mb:clone_of:line459_6_,clip_working_area_clipped:false
G0X336.42Y260.18
F200;#010202
; gcode_before_path_color
M3S0
G4P0
M03 S1300 ; color: #010202

G1X337.04Y258.43
M05

; pass:2/2
;_gc_nextgen_svg_id:pathSlctbcdvnke,node:path,mb:color:#010202,mb:id:pathSlctbcdvnke,mb:clone_of:line459_6_,clip_working_area_clipped:false
G0X336.42Y260.18
F200;#010202
; gcode_before_path_color
M3S0
G4P0
M03 S1300 ; color: #010202

G1X337.04Y258.43
M05

; Layer:compSvg, outline of:pathSlctbcdvnnc, stroke:#010202, {u'passes': 2, u'feedrate': 200, u'progressive': False, u'color': u'#010202', u'intensity': 1300, u'intensity_user': 100, u'cut_compressor': 100, 'mpr': 13.0, 'svgDPI': 90, u'engrave': False, u'pierce_time': 0, 'laserhead_model_id': None}
; pass:1/2
;_gc_nextgen_svg_id:pathSlctbcdvnkf,node:path,mb:color:#010202,mb:id:pathSlctbcdvnkf,mb:clone_of:line461_6_,clip_working_area_clipped:false
G0X337.50Y260.56
F200;#010202
; gcode_before_path_color
M3S0
G4P0
M03 S1300 ; color: #010202

G1X338.12Y258.82
M05

; pass:2/2
;_gc_nextgen_svg_id:pathSlctbcdvnkf,node:path,mb:color:#010202,mb:id:pathSlctbcdvnkf,mb:clone_of:line461_6_,clip_working_area_clipped:false
G0X337.50Y260.56
F200;#010202
; gcode_before_path_color
M3S0
G4P0
M03 S1300 ; color: #010202

G1X338.12Y258.82
M05

; Layer:compSvg, outline of:pathSlctbcdvnnc, stroke:#010202, {u'passes': 2, u'feedrate': 200, u'progressive': False, u'color': u'#010202', u'intensity': 1300, u'intensity_user': 100, u'cut_compressor': 100, 'mpr': 13.0, 'svgDPI': 90, u'engrave': False, u'pierce_time': 0, 'laserhead_model_id': None}
; pass:1/2
;_gc_nextgen_svg_id:pathSlctbcdvnkh,node:path,mb:color:#010202,mb:id:pathSlctbcdvnkh,mb:clone_of:line465_6_,clip_working_area_clipped:false
G0X339.66Y261.32
F200;#010202
; gcode_before_path_color
M3S0
G4P0
M03 S1300 ; color: #010202

G1X340.28Y259.58
M05

; pass:2/2
;_gc_nextgen_svg_id:pathSlctbcdvnkh,node:path,mb:color:#010202,mb:id:pathSlctbcdvnkh,mb:clone_of:line465_6_,clip_working_area_clipped:false
G0X339.66Y261.32
F200;#010202
; gcode_before_path_color
M3S0
G4P0
M03 S1300 ; color: #010202

G1X340.28Y259.58
M05

; Layer:compSvg, outline of:pathSlctbcdvnnc, stroke:#010202, {u'passes': 2, u'feedrate': 200, u'progressive': False, u'color': u'#010202', u'intensity': 1300, u'intensity_user': 100, u'cut_compressor': 100, 'mpr': 13.0, 'svgDPI': 90, u'engrave': False, u'pierce_time': 0, 'laserhead_model_id': None}
; pass:1/2
;_gc_nextgen_svg_id:pathSlctbcdvnki,node:path,mb:color:#010202,mb:id:pathSlctbcdvnki,mb:clone_of:line467_6_,clip_working_area_clipped:false
G0X340.74Y261.71
F200;#010202
; gcode_before_path_color
M3S0
G4P0
M03 S1300 ; color: #010202

G1X341.35Y259.96
M05

; pass:2/2
;_gc_nextgen_svg_id:pathSlctbcdvnki,node:path,mb:color:#010202,mb:id:pathSlctbcdvnki,mb:clone_of:line467_6_,clip_working_area_clipped:false
G0X340.74Y261.71
F200;#010202
; gcode_before_path_color
M3S0
G4P0
M03 S1300 ; color: #010202

G1X341.35Y259.96
M05

; Layer:compSvg, outline of:pathSlctbcdvnnc, stroke:#010202, {u'passes': 2, u'feedrate': 200, u'progressive': False, u'color': u'#010202', u'intensity': 1300, u'intensity_user': 100, u'cut_compressor': 100, 'mpr': 13.0, 'svgDPI': 90, u'engrave': False, u'pierce_time': 0, 'laserhead_model_id': None}
; pass:1/2
;_gc_nextgen_svg_id:pathSlctbcdvnkj,node:path,mb:color:#010202,mb:id:pathSlctbcdvnkj,mb:clone_of:line469_6_,clip_working_area_clipped:false
G0X341.81Y262.09
F200;#010202
; gcode_before_path_color
M3S0
G4P0
M03 S1300 ; color: #010202

G1X342.43Y260.34
M05

; pass:2/2
;_gc_nextgen_svg_id:pathSlctbcdvnkj,node:path,mb:color:#010202,mb:id:pathSlctbcdvnkj,mb:clone_of:line469_6_,clip_working_area_clipped:false
G0X341.81Y262.09
F200;#010202
; gcode_before_path_color
M3S0
G4P0
M03 S1300 ; color: #010202

G1X342.43Y260.34
M05

; Layer:compSvg, outline of:pathSlctbcdvnnc, stroke:#010202, {u'passes': 2, u'feedrate': 200, u'progressive': False, u'color': u'#010202', u'intensity': 1300, u'intensity_user': 100, u'cut_compressor': 100, 'mpr': 13.0, 'svgDPI': 90, u'engrave': False, u'pierce_time': 0, 'laserhead_model_id': None}
; pass:1/2
;_gc_nextgen_svg_id:pathSlctbcdvnjz,node:path,mb:color:#010202,mb:id:pathSlctbcdvnjz,mb:clone_of:line429_6_,clip_working_area_clipped:false
G0X342.89Y262.47
F200;#010202
; gcode_before_path_color
M3S0
G4P0
M03 S1300 ; color: #010202

G1X343.51Y260.72
M05

; pass:2/2
;_gc_nextgen_svg_id:pathSlctbcdvnjz,node:path,mb:color:#010202,mb:id:pathSlctbcdvnjz,mb:clone_of:line429_6_,clip_working_area_clipped:false
G0X342.89Y262.47
F200;#010202
; gcode_before_path_color
M3S0
G4P0
M03 S1300 ; color: #010202

G1X343.51Y260.72
M05

; Layer:compSvg, outline of:pathSlctbcdvnnc, stroke:#010202, {u'passes': 2, u'feedrate': 200, u'progressive': False, u'color': u'#010202', u'intensity': 1300, u'intensity_user': 100, u'cut_compressor': 100, 'mpr': 13.0, 'svgDPI': 90, u'engrave': False, u'pierce_time': 0, 'laserhead_model_id': None}
; pass:1/2
;_gc_nextgen_svg_id:pathSlctbcdvnk1,node:path,mb:color:#010202,mb:id:pathSlctbcdvnk1,mb:clone_of:line433_6_,clip_working_area_clipped:false
G0X345.05Y263.23
F200;#010202
; gcode_before_path_color
M3S0
G4P0
M03 S1300 ; color: #010202

G1X345.67Y261.49
M05

; pass:2/2
;_gc_nextgen_svg_id:pathSlctbcdvnk1,node:path,mb:color:#010202,mb:id:pathSlctbcdvnk1,mb:clone_of:line433_6_,clip_working_area_clipped:false
G0X345.05Y263.23
F200;#010202
; gcode_before_path_color
M3S0
G4P0
M03 S1300 ; color: #010202

G1X345.67Y261.49
M05

; Layer:compSvg, outline of:pathSlctbcdvnnc, stroke:#010202, {u'passes': 2, u'feedrate': 200, u'progressive': False, u'color': u'#010202', u'intensity': 1300, u'intensity_user': 100, u'cut_compressor': 100, 'mpr': 13.0, 'svgDPI': 90, u'engrave': False, u'pierce_time': 0, 'laserhead_model_id': None}
; pass:1/2
;_gc_nextgen_svg_id:pathSlctbcdvnk2,node:path,mb:color:#010202,mb:id:pathSlctbcdvnk2,mb:clone_of:line435_6_,clip_working_area_clipped:false
G0X346.13Y263.61
F200;#010202
; gcode_before_path_color
M3S0
G4P0
M03 S1300 ; color: #010202

G1X346.75Y261.87
M05

; pass:2/2
;_gc_nextgen_svg_id:pathSlctbcdvnk2,node:path,mb:color:#010202,mb:id:pathSlctbcdvnk2,mb:clone_of:line435_6_,clip_working_area_clipped:false
G0X346.13Y263.61
F200;#010202
; gcode_before_path_color
M3S0
G4P0
M03 S1300 ; color: #010202

G1X346.75Y261.87
M05

; Layer:compSvg, outline of:pathSlctbcdvnnc, stroke:#010202, {u'passes': 2, u'feedrate': 200, u'progressive': False, u'color': u'#010202', u'intensity': 1300, u'intensity_user': 100, u'cut_compressor': 100, 'mpr': 13.0, 'svgDPI': 90, u'engrave': False, u'pierce_time': 0, 'laserhead_model_id': None}
; pass:1/2
;_gc_nextgen_svg_id:pathSlctbcdvnk3,node:path,mb:color:#010202,mb:id:pathSlctbcdvnk3,mb:clone_of:line437_6_,clip_working_area_clipped:false
G0X347.21Y264.00
F200;#010202
; gcode_before_path_color
M3S0
G4P0
M03 S1300 ; color: #010202

G1X347.82Y262.25
M05

; pass:2/2
;_gc_nextgen_svg_id:pathSlctbcdvnk3,node:path,mb:color:#010202,mb:id:pathSlctbcdvnk3,mb:clone_of:line437_6_,clip_working_area_clipped:false
G0X347.21Y264.00
F200;#010202
; gcode_before_path_color
M3S0
G4P0
M03 S1300 ; color: #010202

G1X347.82Y262.25
M05

; Layer:compSvg, outline of:pathSlctbcdvnnc, stroke:#010202, {u'passes': 2, u'feedrate': 200, u'progressive': False, u'color': u'#010202', u'intensity': 1300, u'intensity_user': 100, u'cut_compressor': 100, 'mpr': 13.0, 'svgDPI': 90, u'engrave': False, u'pierce_time': 0, 'laserhead_model_id': None}
; pass:1/2
;_gc_nextgen_svg_id:pathSlctbcdvnk4,node:path,mb:color:#010202,mb:id:pathSlctbcdvnk4,mb:clone_of:line439_6_,clip_working_area_clipped:false
G0X348.28Y264.38
F200;#010202
; gcode_before_path_color
M3S0
G4P0
M03 S1300 ; color: #010202

G1X348.90Y262.63
M05

; pass:2/2
;_gc_nextgen_svg_id:pathSlctbcdvnk4,node:path,mb:color:#010202,mb:id:pathSlctbcdvnk4,mb:clone_of:line439_6_,clip_working_area_clipped:false
G0X348.28Y264.38
F200;#010202
; gcode_before_path_color
M3S0
G4P0
M03 S1300 ; color: #010202

G1X348.90Y262.63
M05

; Layer:compSvg, outline of:pathSlctbcdvnnc, stroke:#010202, {u'passes': 2, u'feedrate': 200, u'progressive': False, u'color': u'#010202', u'intensity': 1300, u'intensity_user': 100, u'cut_compressor': 100, 'mpr': 13.0, 'svgDPI': 90, u'engrave': False, u'pierce_time': 0, 'laserhead_model_id': None}
; pass:1/2
;_gc_nextgen_svg_id:pathSlctbcdvnk7,node:path,mb:color:#010202,mb:id:pathSlctbcdvnk7,mb:clone_of:line445_6_,clip_working_area_clipped:false
G0X350.44Y265.14
F200;#010202
; gcode_before_path_color
M3S0
G4P0
M03 S1300 ; color: #010202

G1X351.06Y263.40
M05

; pass:2/2
;_gc_nextgen_svg_id:pathSlctbcdvnk7,node:path,mb:color:#010202,mb:id:pathSlctbcdvnk7,mb:clone_of:line445_6_,clip_working_area_clipped:false
G0X350.44Y265.14
F200;#010202
; gcode_before_path_color
M3S0
G4P0
M03 S1300 ; color: #010202

G1X351.06Y263.40
M05

; Layer:compSvg, outline of:pathSlctbcdvnnc, stroke:#010202, {u'passes': 2, u'feedrate': 200, u'progressive': False, u'color': u'#010202', u'intensity': 1300, u'intensity_user': 100, u'cut_compressor': 100, 'mpr': 13.0, 'svgDPI': 90, u'engrave': False, u'pierce_time': 0, 'laserhead_model_id': None}
; pass:1/2
;_gc_nextgen_svg_id:pathSlctbcdvnk8,node:path,mb:color:#010202,mb:id:pathSlctbcdvnk8,mb:clone_of:line447_6_,clip_working_area_clipped:false
G0X351.52Y265.52
F200;#010202
; gcode_before_path_color
M3S0
G4P0
M03 S1300 ; color: #010202

G1X352.14Y263.78
M05

; pass:2/2
;_gc_nextgen_svg_id:pathSlctbcdvnk8,node:path,mb:color:#010202,mb:id:pathSlctbcdvnk8,mb:clone_of:line447_6_,clip_working_area_clipped:false
G0X351.52Y265.52
F200;#010202
; gcode_before_path_color
M3S0
G4P0
M03 S1300 ; color: #010202

G1X352.14Y263.78
M05

; Layer:compSvg, outline of:pathSlctbcdvnnc, stroke:#010202, {u'passes': 2, u'feedrate': 200, u'progressive': False, u'color': u'#010202', u'intensity': 1300, u'intensity_user': 100, u'cut_compressor': 100, 'mpr': 13.0, 'svgDPI': 90, u'engrave': False, u'pierce_time': 0, 'laserhead_model_id': None}
; pass:1/2
;_gc_nextgen_svg_id:pathSlctbcdvnk9,node:path,mb:color:#010202,mb:id:pathSlctbcdvnk9,mb:clone_of:line449_6_,clip_working_area_clipped:false
G0X352.60Y265.91
F200;#010202
; gcode_before_path_color
M3S0
G4P0
M03 S1300 ; color: #010202

G1X353.22Y264.16
M05

; pass:2/2
;_gc_nextgen_svg_id:pathSlctbcdvnk9,node:path,mb:color:#010202,mb:id:pathSlctbcdvnk9,mb:clone_of:line449_6_,clip_working_area_clipped:false
G0X352.60Y265.91
F200;#010202
; gcode_before_path_color
M3S0
G4P0
M03 S1300 ; color: #010202

G1X353.22Y264.16
M05

; Layer:compSvg, outline of:pathSlctbcdvnnc, stroke:#010202, {u'passes': 2, u'feedrate': 200, u'progressive': False, u'color': u'#010202', u'intensity': 1300, u'intensity_user': 100, u'cut_compressor': 100, 'mpr': 13.0, 'svgDPI': 90, u'engrave': False, u'pierce_time': 0, 'laserhead_model_id': None}
; pass:1/2
;_gc_nextgen_svg_id:pathSlctbcdvnk6,node:path,mb:color:#010202,mb:id:pathSlctbcdvnk6,mb:clone_of:line443_6_,clip_working_area_clipped:false
G0X353.68Y266.29
F200;#010202
; gcode_before_path_color
M3S0
G4P0
M03 S1300 ; color: #010202

G1X354.29Y264.54
M05

; pass:2/2
;_gc_nextgen_svg_id:pathSlctbcdvnk6,node:path,mb:color:#010202,mb:id:pathSlctbcdvnk6,mb:clone_of:line443_6_,clip_working_area_clipped:false
G0X353.68Y266.29
F200;#010202
; gcode_before_path_color
M3S0
G4P0
M03 S1300 ; color: #010202

G1X354.29Y264.54
M05

; Layer:compSvg, outline of:pathSlctbcdvnnc, stroke:#010202, {u'passes': 2, u'feedrate': 200, u'progressive': False, u'color': u'#010202', u'intensity': 1300, u'intensity_user': 100, u'cut_compressor': 100, 'mpr': 13.0, 'svgDPI': 90, u'engrave': False, u'pierce_time': 0, 'laserhead_model_id': None}
; pass:1/2
;_gc_nextgen_svg_id:pathSlctbcdvnk5,node:path,mb:color:#010202,mb:id:pathSlctbcdvnk5,mb:clone_of:line441_6_,clip_working_area_clipped:false
G0X348.77Y266.44
F200;#010202
; gcode_before_path_color
M3S0
G4P0
M03 S1300 ; color: #010202

G1X349.98Y263.02
M05

; pass:2/2
;_gc_nextgen_svg_id:pathSlctbcdvnk5,node:path,mb:color:#010202,mb:id:pathSlctbcdvnk5,mb:clone_of:line441_6_,clip_working_area_clipped:false
G0X348.77Y266.44
F200;#010202
; gcode_before_path_color
M3S0
G4P0
M03 S1300 ; color: #010202

G1X349.98Y263.02
M05

; Layer:compSvg, outline of:pathSlctbcdvnnc, stroke:#010202, {u'passes': 2, u'feedrate': 200, u'progressive': False, u'color': u'#010202', u'intensity': 1300, u'intensity_user': 100, u'cut_compressor': 100, 'mpr': 13.0, 'svgDPI': 90, u'engrave': False, u'pierce_time': 0, 'laserhead_model_id': None}
; pass:1/2
;_gc_nextgen_svg_id:pathSlctbcdvnk0,node:path,mb:color:#010202,mb:id:pathSlctbcdvnk0,mb:clone_of:line431_6_,clip_working_area_clipped:false
G0X343.38Y264.53
F200;#010202
; gcode_before_path_color
M3S0
G4P0
M03 S1300 ; color: #010202

G1X344.59Y261.11
M05

; pass:2/2
;_gc_nextgen_svg_id:pathSlctbcdvnk0,node:path,mb:color:#010202,mb:id:pathSlctbcdvnk0,mb:clone_of:line431_6_,clip_working_area_clipped:false
G0X343.38Y264.53
F200;#010202
; gcode_before_path_color
M3S0
G4P0
M03 S1300 ; color: #010202

G1X344.59Y261.11
M05

; Layer:compSvg, outline of:pathSlctbcdvnnc, stroke:#010202, {u'passes': 2, u'feedrate': 200, u'progressive': False, u'color': u'#010202', u'intensity': 1300, u'intensity_user': 100, u'cut_compressor': 100, 'mpr': 13.0, 'svgDPI': 90, u'engrave': False, u'pierce_time': 0, 'laserhead_model_id': None}
; pass:1/2
;_gc_nextgen_svg_id:pathSlctbcdvnkg,node:path,mb:color:#010202,mb:id:pathSlctbcdvnkg,mb:clone_of:line463_6_,clip_working_area_clipped:false
G0X337.99Y262.62
F200;#010202
; gcode_before_path_color
M3S0
G4P0
M03 S1300 ; color: #010202

G1X339.20Y259.20
M05

; pass:2/2
;_gc_nextgen_svg_id:pathSlctbcdvnkg,node:path,mb:color:#010202,mb:id:pathSlctbcdvnkg,mb:clone_of:line463_6_,clip_working_area_clipped:false
G0X337.99Y262.62
F200;#010202
; gcode_before_path_color
M3S0
G4P0
M03 S1300 ; color: #010202

G1X339.20Y259.20
M05

; Layer:compSvg, outline of:pathSlctbcdvnnc, stroke:#010202, {u'passes': 2, u'feedrate': 200, u'progressive': False, u'color': u'#010202', u'intensity': 1300, u'intensity_user': 100, u'cut_compressor': 100, 'mpr': 13.0, 'svgDPI': 90, u'engrave': False, u'pierce_time': 0, 'laserhead_model_id': None}
; pass:1/2
;_gc_nextgen_svg_id:pathSlctbcdvnkb,node:path,mb:color:#010202,mb:id:pathSlctbcdvnkb,mb:clone_of:line453_6_,clip_working_area_clipped:false
G0X332.59Y260.71
F200;#010202
; gcode_before_path_color
M3S0
G4P0
M03 S1300 ; color: #010202

G1X333.81Y257.29
M05

; pass:2/2
;_gc_nextgen_svg_id:pathSlctbcdvnkb,node:path,mb:color:#010202,mb:id:pathSlctbcdvnkb,mb:clone_of:line453_6_,clip_working_area_clipped:false
G0X332.59Y260.71
F200;#010202
; gcode_before_path_color
M3S0
G4P0
M03 S1300 ; color: #010202

G1X333.81Y257.29
M05

; Layer:compSvg, outline of:pathSlctbcdvnnc, stroke:#010202, {u'passes': 2, u'feedrate': 200, u'progressive': False, u'color': u'#010202', u'intensity': 1300, u'intensity_user': 100, u'cut_compressor': 100, 'mpr': 13.0, 'svgDPI': 90, u'engrave': False, u'pierce_time': 0, 'laserhead_model_id': None}
; pass:1/2
;_gc_nextgen_svg_id:pathSlctbcdvnkq,node:path,mb:color:#010202,mb:id:pathSlctbcdvnkq,mb:clone_of:line483_6_,clip_working_area_clipped:false
G0X327.20Y258.80
F200;#010202
; gcode_before_path_color
M3S0
G4P0
M03 S1300 ; color: #010202

G1X328.42Y255.38
M05

; pass:2/2
;_gc_nextgen_svg_id:pathSlctbcdvnkq,node:path,mb:color:#010202,mb:id:pathSlctbcdvnkq,mb:clone_of:line483_6_,clip_working_area_clipped:false
G0X327.20Y258.80
F200;#010202
; gcode_before_path_color
M3S0
G4P0
M03 S1300 ; color: #010202

G1X328.42Y255.38
M05

; Layer:compSvg, outline of:pathSlctbcdvnnc, stroke:#010202, {u'passes': 2, u'feedrate': 200, u'progressive': False, u'color': u'#010202', u'intensity': 1300, u'intensity_user': 100, u'cut_compressor': 100, 'mpr': 13.0, 'svgDPI': 90, u'engrave': False, u'pierce_time': 0, 'laserhead_model_id': None}
; pass:1/2
;_gc_nextgen_svg_id:pathSlctbcdvnkl,node:path,mb:color:#010202,mb:id:pathSlctbcdvnkl,mb:clone_of:line473_6_,clip_working_area_clipped:false
G0X321.81Y256.89
F200;#010202
; gcode_before_path_color
M3S0
G4P0
M03 S1300 ; color: #010202

G1X323.02Y253.47
M05

; pass:2/2
;_gc_nextgen_svg_id:pathSlctbcdvnkl,node:path,mb:color:#010202,mb:id:pathSlctbcdvnkl,mb:clone_of:line473_6_,clip_working_area_clipped:false
G0X321.81Y256.89
F200;#010202
; gcode_before_path_color
M3S0
G4P0
M03 S1300 ; color: #010202

G1X323.02Y253.47
M05

; Layer:compSvg, outline of:pathSlctbcdvnnc, stroke:#010202, {u'passes': 2, u'feedrate': 200, u'progressive': False, u'color': u'#010202', u'intensity': 1300, u'intensity_user': 100, u'cut_compressor': 100, 'mpr': 13.0, 'svgDPI': 90, u'engrave': False, u'pierce_time': 0, 'laserhead_model_id': None}
; pass:1/2
;_gc_nextgen_svg_id:pathSlctbcdvnkw,node:path,mb:color:#010202,mb:id:pathSlctbcdvnkw,mb:clone_of:line495_5_,clip_working_area_clipped:false
G0X316.42Y254.98
F200;#010202
; gcode_before_path_color
M3S0
G4P0
M03 S1300 ; color: #010202

G1X317.63Y251.56
M05

; pass:2/2
;_gc_nextgen_svg_id:pathSlctbcdvnkw,node:path,mb:color:#010202,mb:id:pathSlctbcdvnkw,mb:clone_of:line495_5_,clip_working_area_clipped:false
G0X316.42Y254.98
F200;#010202
; gcode_before_path_color
M3S0
G4P0
M03 S1300 ; color: #010202

G1X317.63Y251.56
M05

; gcode_before_job - color: #e52424
M100P100 ; mrbeam_compressor: 100
G4P0.2

; Layer:compSvg, outline of:pathSlctbcdvnnc, stroke:#e52424, {u'passes': 2, u'feedrate': 200, u'progressive': False, u'color': u'#e52424', u'intensity': 1300, u'intensity_user': 100, u'cut_compressor': 100, 'mpr': 13.0, 'svgDPI': 90, u'engrave': False, u'pierce_time': 0, 'laserhead_model_id': None}
; pass:1/2
;_gc_nextgen_svg_id:pathSlctbcdvnh6,node:path,mb:color:#e52424,mb:id:pathSlctbcdvnh6,mb:clone_of:path619_6_,clip_working_area_clipped:false
G0X344.98Y270.74
F200;#e52424
; gcode_before_path_color
M3S0
G4P0
M03 S1300 ; color: #e52424

G1X345.82Y270.88
G1X346.60Y270.73
G1X347.33Y270.27
G1X347.75Y269.62
G1X347.87Y268.85
G1X347.68Y268.11
G1X347.19Y267.43
G1X346.49Y266.97
G1X319.92Y257.56
G1X319.14Y257.47
G1X318.37Y257.66
G1X317.73Y258.09
G1X317.35Y258.64
G1X317.19Y259.41
G1X317.37Y260.24
G1X317.87Y260.92
G1X318.56Y261.38
G1X344.98Y270.74
M05

; pass:2/2
;_gc_nextgen_svg_id:pathSlctbcdvnh6,node:path,mb:color:#e52424,mb:id:pathSlctbcdvnh6,mb:clone_of:path619_6_,clip_working_area_clipped:false
G0X344.98Y270.74
F200;#e52424
; gcode_before_path_color
M3S0
G4P0
M03 S1300 ; color: #e52424

G1X345.82Y270.88
G1X346.60Y270.73
G1X347.33Y270.27
G1X347.75Y269.62
G1X347.87Y268.85
G1X347.68Y268.11
G1X347.19Y267.43
G1X346.49Y266.97
G1X319.92Y257.56
G1X319.14Y257.47
G1X318.37Y257.66
G1X317.73Y258.09
G1X317.35Y258.64
G1X317.19Y259.41
G1X317.37Y260.24
G1X317.87Y260.92
G1X318.56Y261.38
G1X344.98Y270.74
M05

; Layer:compSvg, outline of:pathSlctbcdvnnc, stroke:#e52424, {u'passes': 2, u'feedrate': 200, u'progressive': False, u'color': u'#e52424', u'intensity': 1300, u'intensity_user': 100, u'cut_compressor': 100, 'mpr': 13.0, 'svgDPI': 90, u'engrave': False, u'pierce_time': 0, 'laserhead_model_id': None}
; pass:1/2
;_gc_nextgen_svg_id:pathSlctbcdvnh9,node:path,mb:color:#e52424,mb:id:pathSlctbcdvnh9,mb:clone_of:path674_6_,clip_working_area_clipped:false
G0X351.44Y252.52
F200;#e52424
; gcode_before_path_color
M3S0
G4P0
M03 S1300 ; color: #e52424

G1X352.17Y252.94
G1X352.69Y253.55
G1X352.96Y254.37
G1X352.88Y255.13
G1X352.49Y255.81
G1X351.88Y256.27
G1X351.07Y256.49
G1X350.24Y256.40
G1X323.66Y246.99
G1X323.00Y246.57
G1X322.51Y245.94
G1X322.29Y245.21
G1X322.34Y244.53
G1X322.70Y243.84
G1X323.37Y243.31
G1X324.18Y243.09
G1X325.01Y243.17
G1X351.44Y252.52
M05

; pass:2/2
;_gc_nextgen_svg_id:pathSlctbcdvnh9,node:path,mb:color:#e52424,mb:id:pathSlctbcdvnh9,mb:clone_of:path674_6_,clip_working_area_clipped:false
G0X351.44Y252.52
F200;#e52424
; gcode_before_path_color
M3S0
G4P0
M03 S1300 ; color: #e52424

G1X352.17Y252.94
G1X352.69Y253.55
G1X352.96Y254.37
G1X352.88Y255.13
G1X352.49Y255.81
G1X351.88Y256.27
G1X351.07Y256.49
G1X350.24Y256.40
G1X323.66Y246.99
G1X323.00Y246.57
G1X322.51Y245.94
G1X322.29Y245.21
G1X322.34Y244.53
G1X322.70Y243.84
G1X323.37Y243.31
G1X324.18Y243.09
G1X325.01Y243.17
G1X351.44Y252.52
M05

; Layer:compSvg, outline of:pathSlctbcdvnnc, stroke:#e52424, {u'passes': 2, u'feedrate': 200, u'progressive': False, u'color': u'#e52424', u'intensity': 1300, u'intensity_user': 100, u'cut_compressor': 100, 'mpr': 13.0, 'svgDPI': 90, u'engrave': False, u'pierce_time': 0, 'laserhead_model_id': None}
; pass:1/2
;_gc_nextgen_svg_id:pathSlctbcdvnig,node:path,mb:color:#e52424,mb:id:pathSlctbcdvnig,mb:clone_of:wa_jugado-0,clip_working_area_clipped:false
G0X323.44Y355.10
F200;#e52424
; gcode_before_path_color
M3S0
G4P0
M03 S1300 ; color: #e52424

G1X318.09Y353.21
G1X317.72Y353.24
G1X317.49Y353.54
G1X317.56Y353.90
G1X317.79Y354.07
G1X323.13Y355.97
G1X317.78Y371.08
G1X312.00Y370.27
G1X307.04Y367.27
G1X318.17Y335.85
G1X309.93Y332.93
G1X309.85Y333.15
G1X314.33Y335.86
G1X309.37Y349.88
G1X303.98Y347.98
G1X303.64Y347.98
G1X303.28Y348.12
G1X303.06Y348.31
G1X302.89Y348.61
G1X302.83Y348.91
G1X302.90Y349.29
G1X303.11Y349.61
G1X303.34Y349.79
G1X308.72Y351.71
G1X303.75Y365.73
G1X297.97Y364.93
G1X293.01Y361.93
G1X303.59Y332.05
G1X308.78Y332.77
G1X308.85Y332.55
G1X287.84Y325.11
G1X341.21Y174.39
G1X371.54Y185.13
G1X382.66Y153.73
G1X388.40Y154.51
G1X393.41Y157.51
G1X388.05Y172.63
G1X382.71Y170.74
G1X382.33Y170.77
G1X382.11Y171.07
G1X382.17Y171.43
G1X382.40Y171.60
G1X387.75Y173.50
G1X323.44Y355.10
M05

; pass:2/2
;_gc_nextgen_svg_id:pathSlctbcdvnig,node:path,mb:color:#e52424,mb:id:pathSlctbcdvnig,mb:clone_of:wa_jugado-0,clip_working_area_clipped:false
G0X323.44Y355.10
F200;#e52424
; gcode_before_path_color
M3S0
G4P0
M03 S1300 ; color: #e52424

G1X318.09Y353.21
G1X317.72Y353.24
G1X317.49Y353.54
G1X317.56Y353.90
G1X317.79Y354.07
G1X323.13Y355.97
G1X317.78Y371.08
G1X312.00Y370.27
G1X307.04Y367.27
G1X318.17Y335.85
G1X309.93Y332.93
G1X309.85Y333.15
G1X314.33Y335.86
G1X309.37Y349.88
G1X303.98Y347.98
G1X303.64Y347.98
G1X303.28Y348.12
G1X303.06Y348.31
G1X302.89Y348.61
G1X302.83Y348.91
G1X302.90Y349.29
G1X303.11Y349.61
G1X303.34Y349.79
G1X308.72Y351.71
G1X303.75Y365.73
G1X297.97Y364.93
G1X293.01Y361.93
G1X303.59Y332.05
G1X308.78Y332.77
G1X308.85Y332.55
G1X287.84Y325.11
G1X341.21Y174.39
G1X371.54Y185.13
G1X382.66Y153.73
G1X388.40Y154.51
G1X393.41Y157.51
G1X388.05Y172.63
G1X382.71Y170.74
G1X382.33Y170.77
G1X382.11Y171.07
G1X382.17Y171.43
G1X382.40Y171.60
G1X387.75Y173.50
G1X323.44Y355.10
M05

; gcode_before_job - color: #000000
M100P100 ; mrbeam_compressor: 100
G4P0.2

; Layer:compSvg, outline of:pathSlctbcdvnnc, stroke:#000000, {u'passes': 2, u'feedrate': 200, u'progressive': False, u'color': u'#000000', u'intensity': 1300, u'intensity_user': 100, u'cut_compressor': 100, 'mpr': 13.0, 'svgDPI': 90, u'engrave': False, u'pierce_time': 0, 'laserhead_model_id': None}
; pass:1/2
;_gc_nextgen_svg_id:pathSlctbcdvnel,node:path,mb:color:#000000,mb:id:pathSlctbcdvnel,mb:clone_of:wa_qotaju-0,clip_working_area_clipped:false
G0X330.28Y326.08
F200;#000000
; gcode_before_path_color
M3S0
G4P0
M03 S1300 ; color: #000000

G1X329.26Y325.66
G1X329.15Y325.52
G1X329.16Y325.28
G1X329.30Y325.09
G1X329.52Y325.04
G1X330.50Y325.37
G1X330.61Y325.16
G1X329.59Y324.74
G1X329.47Y324.60
G1X329.48Y324.36
G1X329.62Y324.18
G1X329.80Y324.12
G1X330.82Y324.46
G1X330.93Y324.24
G1X329.51Y323.71
G1X329.40Y323.92
G1X329.56Y324.01
G1X329.34Y324.14
G1X329.19Y324.46
G1X329.29Y324.86
G1X328.94Y325.15
G1X328.87Y325.59
G1X329.16Y325.93
G1X330.17Y326.29
G1X330.28Y326.08
M05

; pass:2/2
;_gc_nextgen_svg_id:pathSlctbcdvnel,node:path,mb:color:#000000,mb:id:pathSlctbcdvnel,mb:clone_of:wa_qotaju-0,clip_working_area_clipped:false
G0X330.28Y326.08
F200;#000000
; gcode_before_path_color
M3S0
G4P0
M03 S1300 ; color: #000000

G1X329.26Y325.66
G1X329.15Y325.52
G1X329.16Y325.28
G1X329.30Y325.09
G1X329.52Y325.04
G1X330.50Y325.37
G1X330.61Y325.16
G1X329.59Y324.74
G1X329.47Y324.60
G1X329.48Y324.36
G1X329.62Y324.18
G1X329.80Y324.12
G1X330.82Y324.46
G1X330.93Y324.24
G1X329.51Y323.71
G1X329.40Y323.92
G1X329.56Y324.01
G1X329.34Y324.14
G1X329.19Y324.46
G1X329.29Y324.86
G1X328.94Y325.15
G1X328.87Y325.59
G1X329.16Y325.93
G1X330.17Y326.29
G1X330.28Y326.08
M05

; Layer:compSvg, outline of:pathSlctbcdvnnc, stroke:#000000, {u'passes': 2, u'feedrate': 200, u'progressive': False, u'color': u'#000000', u'intensity': 1300, u'intensity_user': 100, u'cut_compressor': 100, 'mpr': 13.0, 'svgDPI': 90, u'engrave': False, u'pierce_time': 0, 'laserhead_model_id': None}
; pass:1/2
;_gc_nextgen_svg_id:pathSlctbcdvnek,node:path,mb:color:#000000,mb:id:pathSlctbcdvnek,mb:clone_of:wa_buzywu-0,clip_working_area_clipped:false
G0X331.19Y323.50
F200;#000000
; gcode_before_path_color
M3S0
G4P0
M03 S1300 ; color: #000000

G1X330.17Y323.09
G1X330.06Y322.94
G1X330.07Y322.70
G1X330.21Y322.52
G1X330.43Y322.47
G1X331.41Y322.80
G1X331.52Y322.59
G1X330.50Y322.17
G1X330.38Y322.03
G1X330.39Y321.79
G1X330.53Y321.60
G1X330.71Y321.55
G1X331.73Y321.89
G1X331.84Y321.67
G1X330.43Y321.14
G1X330.32Y321.35
G1X330.47Y321.44
G1X330.26Y321.57
G1X330.10Y321.89
G1X330.20Y322.29
G1X329.85Y322.58
G1X329.78Y323.02
G1X330.07Y323.35
G1X331.08Y323.72
G1X331.19Y323.50
M05

; pass:2/2
;_gc_nextgen_svg_id:pathSlctbcdvnek,node:path,mb:color:#000000,mb:id:pathSlctbcdvnek,mb:clone_of:wa_buzywu-0,clip_working_area_clipped:false
G0X331.19Y323.50
F200;#000000
; gcode_before_path_color
M3S0
G4P0
M03 S1300 ; color: #000000

G1X330.17Y323.09
G1X330.06Y322.94
G1X330.07Y322.70
G1X330.21Y322.52
G1X330.43Y322.47
G1X331.41Y322.80
G1X331.52Y322.59
G1X330.50Y322.17
G1X330.38Y322.03
G1X330.39Y321.79
G1X330.53Y321.60
G1X330.71Y321.55
G1X331.73Y321.89
G1X331.84Y321.67
G1X330.43Y321.14
G1X330.32Y321.35
G1X330.47Y321.44
G1X330.26Y321.57
G1X330.10Y321.89
G1X330.20Y322.29
G1X329.85Y322.58
G1X329.78Y323.02
G1X330.07Y323.35
G1X331.08Y323.72
G1X331.19Y323.50
M05

; Layer:compSvg, outline of:pathSlctbcdvnnc, stroke:#000000, {u'passes': 2, u'feedrate': 200, u'progressive': False, u'color': u'#000000', u'intensity': 1300, u'intensity_user': 100, u'cut_compressor': 100, 'mpr': 13.0, 'svgDPI': 90, u'engrave': False, u'pierce_time': 0, 'laserhead_model_id': None}
; pass:1/2
;_gc_nextgen_svg_id:pathSlctbcdvnep,node:path,mb:color:#000000,mb:id:pathSlctbcdvnep,mb:clone_of:wa_vaxuxo-0,clip_working_area_clipped:false
G0X333.13Y322.16
F200;#000000
; gcode_before_path_color
M3S0
G4P0
M03 S1300 ; color: #000000

G1X329.68Y331.86
G1X329.52Y331.92
G1X328.69Y331.69
G1X328.06Y331.80
G1X327.57Y332.18
G1X327.01Y333.11
G1X324.95Y332.43
G1X324.82Y332.22
G1X328.90Y320.67
M05

; pass:2/2
;_gc_nextgen_svg_id:pathSlctbcdvnep,node:path,mb:color:#000000,mb:id:pathSlctbcdvnep,mb:clone_of:wa_vaxuxo-0,clip_working_area_clipped:false
G0X333.13Y322.16
F200;#000000
; gcode_before_path_color
M3S0
G4P0
M03 S1300 ; color: #000000

G1X329.68Y331.86
G1X329.52Y331.92
G1X328.69Y331.69
G1X328.06Y331.80
G1X327.57Y332.18
G1X327.01Y333.11
G1X324.95Y332.43
G1X324.82Y332.22
G1X328.90Y320.67
M05

; Layer:compSvg, outline of:pathSlctbcdvnnc, stroke:#000000, {u'passes': 2, u'feedrate': 200, u'progressive': False, u'color': u'#000000', u'intensity': 1300, u'intensity_user': 100, u'cut_compressor': 100, 'mpr': 13.0, 'svgDPI': 90, u'engrave': False, u'pierce_time': 0, 'laserhead_model_id': None}
; pass:1/2
;_gc_nextgen_svg_id:pathSlctbcdvnej,node:path,mb:color:#000000,mb:id:pathSlctbcdvnej,mb:clone_of:wa_tifavy-0,clip_working_area_clipped:false
G0X331.27Y319.84
F200;#000000
; gcode_before_path_color
M3S0
G4P0
M03 S1300 ; color: #000000

G1X331.15Y319.60
G1X330.96Y319.46
G1X330.72Y319.40
G1X330.45Y319.45
G1X330.15Y319.77
G1X330.09Y320.04
G1X330.13Y320.28
G1X330.29Y320.50
G1X330.54Y320.63
G1X330.99Y320.55
G1X331.18Y320.84
G1X331.43Y321.00
G1X331.72Y321.04
G1X331.97Y320.96
G1X332.17Y320.77
G1X332.30Y320.48
G1X332.31Y320.24
G1X332.22Y319.98
G1X332.02Y319.79
G1X331.78Y319.70
G1X331.54Y319.70
G1X331.27Y319.84
M05
G0X332.03Y320.50
F200;#000000
; gcode_before_path_color
M3S0
G4P0
M03 S1300 ; color: #000000

G1X331.84Y320.72
G1X331.51Y320.74
G1X331.29Y320.56
G1X331.27Y320.23
G1X331.45Y320.00
G1X331.78Y319.98
G1X332.01Y320.16
G1X332.03Y320.50
M05
G0X330.58Y320.35
F200;#000000
; gcode_before_path_color
M3S0
G4P0
M03 S1300 ; color: #000000

G1X330.38Y320.18
G1X330.39Y319.86
G1X330.59Y319.69
G1X330.86Y319.71
G1X331.03Y319.91
G1X331.01Y320.19
G1X330.80Y320.36
G1X330.58Y320.35
M05

; pass:2/2
;_gc_nextgen_svg_id:pathSlctbcdvnej,node:path,mb:color:#000000,mb:id:pathSlctbcdvnej,mb:clone_of:wa_tifavy-0,clip_working_area_clipped:false
G0X331.27Y319.84
F200;#000000
; gcode_before_path_color
M3S0
G4P0
M03 S1300 ; color: #000000

G1X331.15Y319.60
G1X330.96Y319.46
G1X330.72Y319.40
G1X330.45Y319.45
G1X330.15Y319.77
G1X330.09Y320.04
G1X330.13Y320.28
G1X330.29Y320.50
G1X330.54Y320.63
G1X330.99Y320.55
G1X331.18Y320.84
G1X331.43Y321.00
G1X331.72Y321.04
G1X331.97Y320.96
G1X332.17Y320.77
G1X332.30Y320.48
G1X332.31Y320.24
G1X332.22Y319.98
G1X332.02Y319.79
G1X331.78Y319.70
G1X331.54Y319.70
G1X331.27Y319.84
M05
G0X332.03Y320.50
F200;#000000
; gcode_before_path_color
M3S0
G4P0
M03 S1300 ; color: #000000

G1X331.84Y320.72
G1X331.51Y320.74
G1X331.29Y320.56
G1X331.27Y320.23
G1X331.45Y320.00
G1X331.78Y319.98
G1X332.01Y320.16
G1X332.03Y320.50
M05
G0X330.58Y320.35
F200;#000000
; gcode_before_path_color
M3S0
G4P0
M03 S1300 ; color: #000000

G1X330.38Y320.18
G1X330.39Y319.86
G1X330.59Y319.69
G1X330.86Y319.71
G1X331.03Y319.91
G1X331.01Y320.19
G1X330.80Y320.36
G1X330.58Y320.35
M05

; Layer:compSvg, outline of:pathSlctbcdvnnc, stroke:#000000, {u'passes': 2, u'feedrate': 200, u'progressive': False, u'color': u'#000000', u'intensity': 1300, u'intensity_user': 100, u'cut_compressor': 100, 'mpr': 13.0, 'svgDPI': 90, u'engrave': False, u'pierce_time': 0, 'laserhead_model_id': None}
; pass:1/2
;_gc_nextgen_svg_id:pathSlctbcdvnei,node:path,mb:color:#000000,mb:id:pathSlctbcdvnei,mb:clone_of:wa_botejo-0,clip_working_area_clipped:false
G0X332.59Y318.17
F200;#000000
; gcode_before_path_color
M3S0
G4P0
M03 S1300 ; color: #000000

G1X332.48Y318.34
G1X332.64Y318.63
G1X332.62Y318.84
G1X332.48Y319.03
G1X332.31Y319.09
G1X332.07Y319.05
G1X331.92Y318.92
G1X331.85Y318.75
G1X331.91Y318.46
G1X331.71Y318.36
G1X331.46Y318.68
G1X331.22Y318.70
G1X331.01Y318.59
G1X330.94Y318.43
G1X330.96Y318.24
G1X331.08Y318.07
G1X331.33Y318.00
G1X331.39Y317.77
G1X331.31Y317.73
G1X331.05Y317.78
G1X330.86Y317.92
G1X330.72Y318.16
G1X330.68Y318.47
G1X330.77Y318.73
G1X330.98Y318.91
G1X331.27Y318.98
G1X331.61Y318.85
G1X331.86Y319.25
G1X332.32Y319.37
G1X332.66Y319.22
G1X332.88Y318.82
G1X332.84Y318.39
G1X332.59Y318.17
M05

; pass:2/2
;_gc_nextgen_svg_id:pathSlctbcdvnei,node:path,mb:color:#000000,mb:id:pathSlctbcdvnei,mb:clone_of:wa_botejo-0,clip_working_area_clipped:false
G0X332.59Y318.17
F200;#000000
; gcode_before_path_color
M3S0
G4P0
M03 S1300 ; color: #000000

G1X332.48Y318.34
G1X332.64Y318.63
G1X332.62Y318.84
G1X332.48Y319.03
G1X332.31Y319.09
G1X332.07Y319.05
G1X331.92Y318.92
G1X331.85Y318.75
G1X331.91Y318.46
G1X331.71Y318.36
G1X331.46Y318.68
G1X331.22Y318.70
G1X331.01Y318.59
G1X330.94Y318.43
G1X330.96Y318.24
G1X331.08Y318.07
G1X331.33Y318.00
G1X331.39Y317.77
G1X331.31Y317.73
G1X331.05Y317.78
G1X330.86Y317.92
G1X330.72Y318.16
G1X330.68Y318.47
G1X330.77Y318.73
G1X330.98Y318.91
G1X331.27Y318.98
G1X331.61Y318.85
G1X331.86Y319.25
G1X332.32Y319.37
G1X332.66Y319.22
G1X332.88Y318.82
G1X332.84Y318.39
G1X332.59Y318.17
M05

; Layer:compSvg, outline of:pathSlctbcdvnnc, stroke:#000000, {u'passes': 2, u'feedrate': 200, u'progressive': False, u'color': u'#000000', u'intensity': 1300, u'intensity_user': 100, u'cut_compressor': 100, 'mpr': 13.0, 'svgDPI': 90, u'engrave': False, u'pierce_time': 0, 'laserhead_model_id': None}
; pass:1/2
;_gc_nextgen_svg_id:pathSlctbcdvneh,node:path,mb:color:#000000,mb:id:pathSlctbcdvneh,mb:clone_of:wa_zofihe-0,clip_working_area_clipped:false
G0X332.75Y316.83
F200;#000000
; gcode_before_path_color
M3S0
G4P0
M03 S1300 ; color: #000000

G1X332.57Y316.76
G1X332.24Y317.59
G1X332.44Y317.70
G1X332.75Y316.83
M05

; pass:2/2
;_gc_nextgen_svg_id:pathSlctbcdvneh,node:path,mb:color:#000000,mb:id:pathSlctbcdvneh,mb:clone_of:wa_zofihe-0,clip_working_area_clipped:false
G0X332.75Y316.83
F200;#000000
; gcode_before_path_color
M3S0
G4P0
M03 S1300 ; color: #000000

G1X332.57Y316.76
G1X332.24Y317.59
G1X332.44Y317.70
G1X332.75Y316.83
M05

; Layer:compSvg, outline of:pathSlctbcdvnnc, stroke:#000000, {u'passes': 2, u'feedrate': 200, u'progressive': False, u'color': u'#000000', u'intensity': 1300, u'intensity_user': 100, u'cut_compressor': 100, 'mpr': 13.0, 'svgDPI': 90, u'engrave': False, u'pierce_time': 0, 'laserhead_model_id': None}
; pass:1/2
;_gc_nextgen_svg_id:pathSlctbcdvneg,node:path,mb:color:#000000,mb:id:pathSlctbcdvneg,mb:clone_of:wa_teruqo-0,clip_working_area_clipped:false
G0X332.99Y315.14
F200;#000000
; gcode_before_path_color
M3S0
G4P0
M03 S1300 ; color: #000000

G1X332.36Y314.95
G1X331.94Y315.05
G1X331.68Y315.47
G1X331.76Y315.93
G1X332.06Y316.16
G1X332.99Y316.50
G1X333.35Y316.55
G1X333.61Y316.45
G1X333.86Y316.07
G1X333.84Y315.64
G1X333.60Y315.39
G1X332.99Y315.14
M05
G0X333.61Y316.04
F200;#000000
; gcode_before_path_color
M3S0
G4P0
M03 S1300 ; color: #000000

G1X333.47Y316.23
G1X333.29Y316.28
G1X332.65Y316.09
G1X332.00Y315.81
G1X331.92Y315.64
G1X331.95Y315.45
G1X332.09Y315.26
G1X332.26Y315.21
G1X332.90Y315.40
G1X333.55Y315.69
G1X333.63Y315.85
G1X333.61Y316.04
M05

; pass:2/2
;_gc_nextgen_svg_id:pathSlctbcdvneg,node:path,mb:color:#000000,mb:id:pathSlctbcdvneg,mb:clone_of:wa_teruqo-0,clip_working_area_clipped:false
G0X332.99Y315.14
F200;#000000
; gcode_before_path_color
M3S0
G4P0
M03 S1300 ; color: #000000

G1X332.36Y314.95
G1X331.94Y315.05
G1X331.68Y315.47
G1X331.76Y315.93
G1X332.06Y316.16
G1X332.99Y316.50
G1X333.35Y316.55
G1X333.61Y316.45
G1X333.86Y316.07
G1X333.84Y315.64
G1X333.60Y315.39
G1X332.99Y315.14
M05
G0X333.61Y316.04
F200;#000000
; gcode_before_path_color
M3S0
G4P0
M03 S1300 ; color: #000000

G1X333.47Y316.23
G1X333.29Y316.28
G1X332.65Y316.09
G1X332.00Y315.81
G1X331.92Y315.64
G1X331.95Y315.45
G1X332.09Y315.26
G1X332.26Y315.21
G1X332.90Y315.40
G1X333.55Y315.69
G1X333.63Y315.85
G1X333.61Y316.04
M05

; Layer:compSvg, outline of:pathSlctbcdvnnc, stroke:#000000, {u'passes': 2, u'feedrate': 200, u'progressive': False, u'color': u'#000000', u'intensity': 1300, u'intensity_user': 100, u'cut_compressor': 100, 'mpr': 13.0, 'svgDPI': 90, u'engrave': False, u'pierce_time': 0, 'laserhead_model_id': None}
; pass:1/2
;_gc_nextgen_svg_id:pathSlctbcdvnef,node:path,mb:color:#000000,mb:id:pathSlctbcdvnef,mb:clone_of:wa_haxufy-0,clip_working_area_clipped:false
G0X334.41Y313.81
F200;#000000
; gcode_before_path_color
M3S0
G4P0
M03 S1300 ; color: #000000

G1X333.10Y314.24
G1X332.74Y314.24
G1X332.53Y314.05
G1X332.53Y313.80
G1X332.72Y313.59
G1X332.95Y313.57
G1X333.02Y313.35
G1X332.77Y313.30
G1X332.51Y313.41
G1X332.37Y313.56
G1X332.25Y314.03
G1X332.41Y314.35
G1X332.83Y314.54
G1X334.24Y314.12
G1X333.96Y314.93
G1X334.16Y315.04
G1X334.59Y313.91
G1X334.41Y313.81
M05

; pass:2/2
;_gc_nextgen_svg_id:pathSlctbcdvnef,node:path,mb:color:#000000,mb:id:pathSlctbcdvnef,mb:clone_of:wa_haxufy-0,clip_working_area_clipped:false
G0X334.41Y313.81
F200;#000000
; gcode_before_path_color
M3S0
G4P0
M03 S1300 ; color: #000000

G1X333.10Y314.24
G1X332.74Y314.24
G1X332.53Y314.05
G1X332.53Y313.80
G1X332.72Y313.59
G1X332.95Y313.57
G1X333.02Y313.35
G1X332.77Y313.30
G1X332.51Y313.41
G1X332.37Y313.56
G1X332.25Y314.03
G1X332.41Y314.35
G1X332.83Y314.54
G1X334.24Y314.12
G1X333.96Y314.93
G1X334.16Y315.04
G1X334.59Y313.91
G1X334.41Y313.81
M05

; Layer:compSvg, outline of:pathSlctbcdvnnc, stroke:#000000, {u'passes': 2, u'feedrate': 200, u'progressive': False, u'color': u'#000000', u'intensity': 1300, u'intensity_user': 100, u'cut_compressor': 100, 'mpr': 13.0, 'svgDPI': 90, u'engrave': False, u'pierce_time': 0, 'laserhead_model_id': None}
; pass:1/2
;_gc_nextgen_svg_id:pathSlctbcdvndo,node:path,mb:color:#000000,mb:id:pathSlctbcdvndo,mb:clone_of:path690_6_,clip_working_area_clipped:false
G0X336.82Y311.75
F200;#000000
; gcode_before_path_color
M3S0
G4P0
M03 S1300 ; color: #000000

G1X340.07Y302.53
G1X339.98Y302.38
G1X339.19Y302.04
G1X338.77Y301.56
G1X338.63Y300.96
G1X338.81Y299.96
G1X338.71Y299.82
G1X336.66Y299.10
G1X336.51Y299.19
G1X332.58Y310.34
G1X332.67Y310.48
G1X336.56Y311.87
G1X336.74Y311.85
G1X336.82Y311.75
M05

; pass:2/2
;_gc_nextgen_svg_id:pathSlctbcdvndo,node:path,mb:color:#000000,mb:id:pathSlctbcdvndo,mb:clone_of:path690_6_,clip_working_area_clipped:false
G0X336.82Y311.75
F200;#000000
; gcode_before_path_color
M3S0
G4P0
M03 S1300 ; color: #000000

G1X340.07Y302.53
G1X339.98Y302.38
G1X339.19Y302.04
G1X338.77Y301.56
G1X338.63Y300.96
G1X338.81Y299.96
G1X338.71Y299.82
G1X336.66Y299.10
G1X336.51Y299.19
G1X332.58Y310.34
G1X332.67Y310.48
G1X336.56Y311.87
G1X336.74Y311.85
G1X336.82Y311.75
M05

; Layer:compSvg, outline of:pathSlctbcdvnnc, stroke:#000000, {u'passes': 2, u'feedrate': 200, u'progressive': False, u'color': u'#000000', u'intensity': 1300, u'intensity_user': 100, u'cut_compressor': 100, 'mpr': 13.0, 'svgDPI': 90, u'engrave': False, u'pierce_time': 0, 'laserhead_model_id': None}
; pass:1/2
;_gc_nextgen_svg_id:pathSlctbcdvndp,node:path,mb:color:#000000,mb:id:pathSlctbcdvndp,mb:clone_of:path694_6_,clip_working_area_clipped:false
G0X325.49Y307.73
F200;#000000
; gcode_before_path_color
M3S0
G4P0
M03 S1300 ; color: #000000

G1X328.73Y298.52
G1X328.64Y298.37
G1X327.85Y298.03
G1X327.43Y297.55
G1X327.29Y296.95
G1X327.47Y295.95
G1X327.38Y295.80
G1X325.32Y295.09
G1X325.18Y295.18
G1X321.25Y306.32
G1X321.34Y306.47
G1X325.23Y307.85
G1X325.40Y307.84
G1X325.49Y307.73
M05

; pass:2/2
;_gc_nextgen_svg_id:pathSlctbcdvndp,node:path,mb:color:#000000,mb:id:pathSlctbcdvndp,mb:clone_of:path694_6_,clip_working_area_clipped:false
G0X325.49Y307.73
F200;#000000
; gcode_before_path_color
M3S0
G4P0
M03 S1300 ; color: #000000

G1X328.73Y298.52
G1X328.64Y298.37
G1X327.85Y298.03
G1X327.43Y297.55
G1X327.29Y296.95
G1X327.47Y295.95
G1X327.38Y295.80
G1X325.32Y295.09
G1X325.18Y295.18
G1X321.25Y306.32
G1X321.34Y306.47
G1X325.23Y307.85
G1X325.40Y307.84
G1X325.49Y307.73
M05

; Layer:compSvg, outline of:pathSlctbcdvnnc, stroke:#000000, {u'passes': 2, u'feedrate': 200, u'progressive': False, u'color': u'#000000', u'intensity': 1300, u'intensity_user': 100, u'cut_compressor': 100, 'mpr': 13.0, 'svgDPI': 90, u'engrave': False, u'pierce_time': 0, 'laserhead_model_id': None}
; pass:1/2
;_gc_nextgen_svg_id:pathSlctbcdvne7,node:path,mb:color:#000000,mb:id:pathSlctbcdvne7,mb:clone_of:wa_zapopa-0,clip_working_area_clipped:false
G0X321.45Y309.79
F200;#000000
; gcode_before_path_color
M3S0
G4P0
M03 S1300 ; color: #000000

G1X321.82Y309.52
G1X321.53Y309.41
G1X321.15Y309.67
G1X321.05Y309.90
G1X323.08Y310.65
G1X323.19Y310.44
G1X321.45Y309.79
M05

; pass:2/2
;_gc_nextgen_svg_id:pathSlctbcdvne7,node:path,mb:color:#000000,mb:id:pathSlctbcdvne7,mb:clone_of:wa_zapopa-0,clip_working_area_clipped:false
G0X321.45Y309.79
F200;#000000
; gcode_before_path_color
M3S0
G4P0
M03 S1300 ; color: #000000

G1X321.82Y309.52
G1X321.53Y309.41
G1X321.15Y309.67
G1X321.05Y309.90
G1X323.08Y310.65
G1X323.19Y310.44
G1X321.45Y309.79
M05

; Layer:compSvg, outline of:pathSlctbcdvnnc, stroke:#000000, {u'passes': 2, u'feedrate': 200, u'progressive': False, u'color': u'#000000', u'intensity': 1300, u'intensity_user': 100, u'cut_compressor': 100, 'mpr': 13.0, 'svgDPI': 90, u'engrave': False, u'pierce_time': 0, 'laserhead_model_id': None}
; pass:1/2
;_gc_nextgen_svg_id:pathSlctbcdvne8,node:path,mb:color:#000000,mb:id:pathSlctbcdvne8,mb:clone_of:wa_tazubo-0,clip_working_area_clipped:false
G0X322.60Y311.49
F200;#000000
; gcode_before_path_color
M3S0
G4P0
M03 S1300 ; color: #000000

G1X321.29Y311.91
G1X320.93Y311.92
G1X320.72Y311.72
G1X320.72Y311.48
G1X320.91Y311.26
G1X321.14Y311.25
G1X321.21Y311.02
G1X320.96Y310.97
G1X320.70Y311.08
G1X320.56Y311.24
G1X320.44Y311.70
G1X320.60Y312.03
G1X321.02Y312.22
G1X322.43Y311.80
G1X322.15Y312.61
G1X322.35Y312.71
G1X322.78Y311.59
G1X322.60Y311.49
M05

; pass:2/2
;_gc_nextgen_svg_id:pathSlctbcdvne8,node:path,mb:color:#000000,mb:id:pathSlctbcdvne8,mb:clone_of:wa_tazubo-0,clip_working_area_clipped:false
G0X322.60Y311.49
F200;#000000
; gcode_before_path_color
M3S0
G4P0
M03 S1300 ; color: #000000

G1X321.29Y311.91
G1X320.93Y311.92
G1X320.72Y311.72
G1X320.72Y311.48
G1X320.91Y311.26
G1X321.14Y311.25
G1X321.21Y311.02
G1X320.96Y310.97
G1X320.70Y311.08
G1X320.56Y311.24
G1X320.44Y311.70
G1X320.60Y312.03
G1X321.02Y312.22
G1X322.43Y311.80
G1X322.15Y312.61
G1X322.35Y312.71
G1X322.78Y311.59
G1X322.60Y311.49
M05

; Layer:compSvg, outline of:pathSlctbcdvnnc, stroke:#000000, {u'passes': 2, u'feedrate': 200, u'progressive': False, u'color': u'#000000', u'intensity': 1300, u'intensity_user': 100, u'cut_compressor': 100, 'mpr': 13.0, 'svgDPI': 90, u'engrave': False, u'pierce_time': 0, 'laserhead_model_id': None}
; pass:1/2
;_gc_nextgen_svg_id:pathSlctbcdvne9,node:path,mb:color:#000000,mb:id:pathSlctbcdvne9,mb:clone_of:wa_havofu-0,clip_working_area_clipped:false
G0X321.52Y312.85
F200;#000000
; gcode_before_path_color
M3S0
G4P0
M03 S1300 ; color: #000000

G1X321.34Y312.79
G1X321.02Y313.62
G1X321.21Y313.72
G1X321.52Y312.85
M05

; pass:2/2
;_gc_nextgen_svg_id:pathSlctbcdvne9,node:path,mb:color:#000000,mb:id:pathSlctbcdvne9,mb:clone_of:wa_havofu-0,clip_working_area_clipped:false
G0X321.52Y312.85
F200;#000000
; gcode_before_path_color
M3S0
G4P0
M03 S1300 ; color: #000000

G1X321.34Y312.79
G1X321.02Y313.62
G1X321.21Y313.72
G1X321.52Y312.85
M05

; Layer:compSvg, outline of:pathSlctbcdvnnc, stroke:#000000, {u'passes': 2, u'feedrate': 200, u'progressive': False, u'color': u'#000000', u'intensity': 1300, u'intensity_user': 100, u'cut_compressor': 100, 'mpr': 13.0, 'svgDPI': 90, u'engrave': False, u'pierce_time': 0, 'laserhead_model_id': None}
; pass:1/2
;_gc_nextgen_svg_id:pathSlctbcdvnea,node:path,mb:color:#000000,mb:id:pathSlctbcdvnea,mb:clone_of:wa_cyvaja-0,clip_working_area_clipped:false
G0X321.36Y314.19
F200;#000000
; gcode_before_path_color
M3S0
G4P0
M03 S1300 ; color: #000000

G1X321.25Y314.36
G1X321.41Y314.65
G1X321.39Y314.87
G1X321.25Y315.06
G1X321.09Y315.12
G1X320.85Y315.07
G1X320.69Y314.95
G1X320.62Y314.78
G1X320.68Y314.49
G1X320.49Y314.38
G1X320.23Y314.71
G1X320.00Y314.73
G1X319.79Y314.61
G1X319.71Y314.46
G1X319.73Y314.26
G1X319.85Y314.09
G1X320.10Y314.02
G1X320.16Y313.80
G1X320.09Y313.75
G1X319.83Y313.80
G1X319.63Y313.95
G1X319.49Y314.19
G1X319.45Y314.50
G1X319.54Y314.75
G1X319.75Y314.93
G1X320.05Y315.00
G1X320.38Y314.87
G1X320.64Y315.27
G1X321.10Y315.39
G1X321.44Y315.24
G1X321.66Y314.84
G1X321.61Y314.41
G1X321.36Y314.19
M05

; pass:2/2
;_gc_nextgen_svg_id:pathSlctbcdvnea,node:path,mb:color:#000000,mb:id:pathSlctbcdvnea,mb:clone_of:wa_cyvaja-0,clip_working_area_clipped:false
G0X321.36Y314.19
F200;#000000
; gcode_before_path_color
M3S0
G4P0
M03 S1300 ; color: #000000

G1X321.25Y314.36
G1X321.41Y314.65
G1X321.39Y314.87
G1X321.25Y315.06
G1X321.09Y315.12
G1X320.85Y315.07
G1X320.69Y314.95
G1X320.62Y314.78
G1X320.68Y314.49
G1X320.49Y314.38
G1X320.23Y314.71
G1X320.00Y314.73
G1X319.79Y314.61
G1X319.71Y314.46
G1X319.73Y314.26
G1X319.85Y314.09
G1X320.10Y314.02
G1X320.16Y313.80
G1X320.09Y313.75
G1X319.83Y313.80
G1X319.63Y313.95
G1X319.49Y314.19
G1X319.45Y314.50
G1X319.54Y314.75
G1X319.75Y314.93
G1X320.05Y315.00
G1X320.38Y314.87
G1X320.64Y315.27
G1X321.10Y315.39
G1X321.44Y315.24
G1X321.66Y314.84
G1X321.61Y314.41
G1X321.36Y314.19
M05

; Layer:compSvg, outline of:pathSlctbcdvnnc, stroke:#000000, {u'passes': 2, u'feedrate': 200, u'progressive': False, u'color': u'#000000', u'intensity': 1300, u'intensity_user': 100, u'cut_compressor': 100, 'mpr': 13.0, 'svgDPI': 90, u'engrave': False, u'pierce_time': 0, 'laserhead_model_id': None}
; pass:1/2
;_gc_nextgen_svg_id:pathSlctbcdvneb,node:path,mb:color:#000000,mb:id:pathSlctbcdvneb,mb:clone_of:wa_wozuri-0,clip_working_area_clipped:false
G0X320.19Y315.62
F200;#000000
; gcode_before_path_color
M3S0
G4P0
M03 S1300 ; color: #000000

G1X319.56Y315.43
G1X319.13Y315.53
G1X318.88Y315.95
G1X318.96Y316.41
G1X319.25Y316.64
G1X320.18Y316.98
G1X320.55Y317.03
G1X320.81Y316.93
G1X321.06Y316.55
G1X321.03Y316.12
G1X320.80Y315.87
G1X320.19Y315.62
M05
G0X320.80Y316.52
F200;#000000
; gcode_before_path_color
M3S0
G4P0
M03 S1300 ; color: #000000

G1X320.66Y316.71
G1X320.48Y316.76
G1X319.85Y316.57
G1X319.20Y316.29
G1X319.12Y316.12
G1X319.14Y315.93
G1X319.28Y315.74
G1X319.46Y315.69
G1X320.10Y315.88
G1X320.74Y316.17
G1X320.82Y316.33
G1X320.80Y316.52
M05

; pass:2/2
;_gc_nextgen_svg_id:pathSlctbcdvneb,node:path,mb:color:#000000,mb:id:pathSlctbcdvneb,mb:clone_of:wa_wozuri-0,clip_working_area_clipped:false
G0X320.19Y315.62
F200;#000000
; gcode_before_path_color
M3S0
G4P0
M03 S1300 ; color: #000000

G1X319.56Y315.43
G1X319.13Y315.53
G1X318.88Y315.95
G1X318.96Y316.41
G1X319.25Y316.64
G1X320.18Y316.98
G1X320.55Y317.03
G1X320.81Y316.93
G1X321.06Y316.55
G1X321.03Y316.12
G1X320.80Y315.87
G1X320.19Y315.62
M05
G0X320.80Y316.52
F200;#000000
; gcode_before_path_color
M3S0
G4P0
M03 S1300 ; color: #000000

G1X320.66Y316.71
G1X320.48Y316.76
G1X319.85Y316.57
G1X319.20Y316.29
G1X319.12Y316.12
G1X319.14Y315.93
G1X319.28Y315.74
G1X319.46Y315.69
G1X320.10Y315.88
G1X320.74Y316.17
G1X320.82Y316.33
G1X320.80Y316.52
M05

; Layer:compSvg, outline of:pathSlctbcdvnnc, stroke:#000000, {u'passes': 2, u'feedrate': 200, u'progressive': False, u'color': u'#000000', u'intensity': 1300, u'intensity_user': 100, u'cut_compressor': 100, 'mpr': 13.0, 'svgDPI': 90, u'engrave': False, u'pierce_time': 0, 'laserhead_model_id': None}
; pass:1/2
;_gc_nextgen_svg_id:pathSlctbcdvneo,node:path,mb:color:#000000,mb:id:pathSlctbcdvneo,mb:clone_of:wa_foryso-0,clip_working_area_clipped:false
G0X321.80Y318.15
F200;#000000
; gcode_before_path_color
M3S0
G4P0
M03 S1300 ; color: #000000

G1X318.34Y327.85
G1X318.18Y327.91
G1X317.35Y327.68
G1X316.72Y327.79
G1X316.24Y328.17
G1X315.67Y329.10
G1X313.62Y328.42
G1X313.48Y328.21
G1X317.57Y316.65
M05

; pass:2/2
;_gc_nextgen_svg_id:pathSlctbcdvneo,node:path,mb:color:#000000,mb:id:pathSlctbcdvneo,mb:clone_of:wa_foryso-0,clip_working_area_clipped:false
G0X321.80Y318.15
F200;#000000
; gcode_before_path_color
M3S0
G4P0
M03 S1300 ; color: #000000

G1X318.34Y327.85
G1X318.18Y327.91
G1X317.35Y327.68
G1X316.72Y327.79
G1X316.24Y328.17
G1X315.67Y329.10
G1X313.62Y328.42
G1X313.48Y328.21
G1X317.57Y316.65
M05

; Layer:compSvg, outline of:pathSlctbcdvnnc, stroke:#000000, {u'passes': 2, u'feedrate': 200, u'progressive': False, u'color': u'#000000', u'intensity': 1300, u'intensity_user': 100, u'cut_compressor': 100, 'mpr': 13.0, 'svgDPI': 90, u'engrave': False, u'pierce_time': 0, 'laserhead_model_id': None}
; pass:1/2
;_gc_nextgen_svg_id:pathSlctbcdvnec,node:path,mb:color:#000000,mb:id:pathSlctbcdvnec,mb:clone_of:wa_bijily-0,clip_working_area_clipped:false
G0X319.97Y319.53
F200;#000000
; gcode_before_path_color
M3S0
G4P0
M03 S1300 ; color: #000000

G1X318.95Y319.11
G1X318.83Y318.97
G1X318.84Y318.73
G1X318.98Y318.55
G1X319.21Y318.50
G1X320.18Y318.83
G1X320.29Y318.61
G1X319.27Y318.20
G1X319.16Y318.05
G1X319.16Y317.81
G1X319.31Y317.63
G1X319.48Y317.58
G1X320.50Y317.91
G1X320.61Y317.70
G1X319.20Y317.16
G1X319.09Y317.38
G1X319.24Y317.47
G1X319.03Y317.59
G1X318.87Y317.91
G1X318.98Y318.31
G1X318.63Y318.60
G1X318.55Y319.04
G1X318.85Y319.38
G1X319.86Y319.74
G1X319.97Y319.53
M05

; pass:2/2
;_gc_nextgen_svg_id:pathSlctbcdvnec,node:path,mb:color:#000000,mb:id:pathSlctbcdvnec,mb:clone_of:wa_bijily-0,clip_working_area_clipped:false
G0X319.97Y319.53
F200;#000000
; gcode_before_path_color
M3S0
G4P0
M03 S1300 ; color: #000000

G1X318.95Y319.11
G1X318.83Y318.97
G1X318.84Y318.73
G1X318.98Y318.55
G1X319.21Y318.50
G1X320.18Y318.83
G1X320.29Y318.61
G1X319.27Y318.20
G1X319.16Y318.05
G1X319.16Y317.81
G1X319.31Y317.63
G1X319.48Y317.58
G1X320.50Y317.91
G1X320.61Y317.70
G1X319.20Y317.16
G1X319.09Y317.38
G1X319.24Y317.47
G1X319.03Y317.59
G1X318.87Y317.91
G1X318.98Y318.31
G1X318.63Y318.60
G1X318.55Y319.04
G1X318.85Y319.38
G1X319.86Y319.74
G1X319.97Y319.53
M05

; Layer:compSvg, outline of:pathSlctbcdvnnc, stroke:#000000, {u'passes': 2, u'feedrate': 200, u'progressive': False, u'color': u'#000000', u'intensity': 1300, u'intensity_user': 100, u'cut_compressor': 100, 'mpr': 13.0, 'svgDPI': 90, u'engrave': False, u'pierce_time': 0, 'laserhead_model_id': None}
; pass:1/2
;_gc_nextgen_svg_id:pathSlctbcdvned,node:path,mb:color:#000000,mb:id:pathSlctbcdvned,mb:clone_of:wa_nyxome-0,clip_working_area_clipped:false
G0X319.06Y322.10
F200;#000000
; gcode_before_path_color
M3S0
G4P0
M03 S1300 ; color: #000000

G1X318.04Y321.68
G1X317.92Y321.54
G1X317.93Y321.30
G1X318.07Y321.12
G1X318.30Y321.07
G1X319.27Y321.40
G1X319.38Y321.19
G1X318.36Y320.77
G1X318.25Y320.63
G1X318.25Y320.39
G1X318.40Y320.20
G1X318.57Y320.15
G1X319.59Y320.48
G1X319.70Y320.27
G1X318.29Y319.73
G1X318.18Y319.95
G1X318.33Y320.04
G1X318.12Y320.16
G1X317.96Y320.48
G1X318.07Y320.88
G1X317.71Y321.18
G1X317.64Y321.62
G1X317.93Y321.95
G1X318.95Y322.31
G1X319.06Y322.10
M05

; pass:2/2
;_gc_nextgen_svg_id:pathSlctbcdvned,node:path,mb:color:#000000,mb:id:pathSlctbcdvned,mb:clone_of:wa_nyxome-0,clip_working_area_clipped:false
G0X319.06Y322.10
F200;#000000
; gcode_before_path_color
M3S0
G4P0
M03 S1300 ; color: #000000

G1X318.04Y321.68
G1X317.92Y321.54
G1X317.93Y321.30
G1X318.07Y321.12
G1X318.30Y321.07
G1X319.27Y321.40
G1X319.38Y321.19
G1X318.36Y320.77
G1X318.25Y320.63
G1X318.25Y320.39
G1X318.40Y320.20
G1X318.57Y320.15
G1X319.59Y320.48
G1X319.70Y320.27
G1X318.29Y319.73
G1X318.18Y319.95
G1X318.33Y320.04
G1X318.12Y320.16
G1X317.96Y320.48
G1X318.07Y320.88
G1X317.71Y321.18
G1X317.64Y321.62
G1X317.93Y321.95
G1X318.95Y322.31
G1X319.06Y322.10
M05

; Layer:compSvg, outline of:pathSlctbcdvnnc, stroke:#000000, {u'passes': 2, u'feedrate': 200, u'progressive': False, u'color': u'#000000', u'intensity': 1300, u'intensity_user': 100, u'cut_compressor': 100, 'mpr': 13.0, 'svgDPI': 90, u'engrave': False, u'pierce_time': 0, 'laserhead_model_id': None}
; pass:1/2
;_gc_nextgen_svg_id:pathSlctbcdvnen,node:path,mb:color:#000000,mb:id:pathSlctbcdvnen,mb:clone_of:wa_siviwu-0,clip_working_area_clipped:false
G0X310.68Y314.21
F200;#000000
; gcode_before_path_color
M3S0
G4P0
M03 S1300 ; color: #000000

G1X307.23Y323.92
G1X307.07Y323.97
G1X306.24Y323.74
G1X305.61Y323.85
G1X305.12Y324.23
G1X304.56Y325.16
G1X302.50Y324.48
G1X302.37Y324.27
G1X306.45Y312.72
M05

; pass:2/2
;_gc_nextgen_svg_id:pathSlctbcdvnen,node:path,mb:color:#000000,mb:id:pathSlctbcdvnen,mb:clone_of:wa_siviwu-0,clip_working_area_clipped:false
G0X310.68Y314.21
F200;#000000
; gcode_before_path_color
M3S0
G4P0
M03 S1300 ; color: #000000

G1X307.23Y323.92
G1X307.07Y323.97
G1X306.24Y323.74
G1X305.61Y323.85
G1X305.12Y324.23
G1X304.56Y325.16
G1X302.50Y324.48
G1X302.37Y324.27
G1X306.45Y312.72
M05

; Layer:compSvg, outline of:pathSlctbcdvnnc, stroke:#000000, {u'passes': 2, u'feedrate': 200, u'progressive': False, u'color': u'#000000', u'intensity': 1300, u'intensity_user': 100, u'cut_compressor': 100, 'mpr': 13.0, 'svgDPI': 90, u'engrave': False, u'pierce_time': 0, 'laserhead_model_id': None}
; pass:1/2
;_gc_nextgen_svg_id:pathSlctbcdvne3,node:path,mb:color:#000000,mb:id:pathSlctbcdvne3,mb:clone_of:wa_carohu-0,clip_working_area_clipped:false
G0X309.71Y311.91
F200;#000000
; gcode_before_path_color
M3S0
G4P0
M03 S1300 ; color: #000000

G1X309.54Y311.85
G1X307.82Y312.01
G1X307.71Y312.24
G1X309.40Y312.12
G1X309.21Y312.67
G1X308.64Y312.49
G1X308.53Y312.71
G1X309.10Y312.94
G1X309.04Y313.15
G1X309.23Y313.26
G1X309.34Y313.05
G1X309.68Y313.15
G1X309.79Y312.93
G1X309.46Y312.78
G1X309.71Y311.91
M05

; pass:2/2
;_gc_nextgen_svg_id:pathSlctbcdvne3,node:path,mb:color:#000000,mb:id:pathSlctbcdvne3,mb:clone_of:wa_carohu-0,clip_working_area_clipped:false
G0X309.71Y311.91
F200;#000000
; gcode_before_path_color
M3S0
G4P0
M03 S1300 ; color: #000000

G1X309.54Y311.85
G1X307.82Y312.01
G1X307.71Y312.24
G1X309.40Y312.12
G1X309.21Y312.67
G1X308.64Y312.49
G1X308.53Y312.71
G1X309.10Y312.94
G1X309.04Y313.15
G1X309.23Y313.26
G1X309.34Y313.05
G1X309.68Y313.15
G1X309.79Y312.93
G1X309.46Y312.78
G1X309.71Y311.91
M05

; Layer:compSvg, outline of:pathSlctbcdvnnc, stroke:#000000, {u'passes': 2, u'feedrate': 200, u'progressive': False, u'color': u'#000000', u'intensity': 1300, u'intensity_user': 100, u'cut_compressor': 100, 'mpr': 13.0, 'svgDPI': 90, u'engrave': False, u'pierce_time': 0, 'laserhead_model_id': None}
; pass:1/2
;_gc_nextgen_svg_id:pathSlctbcdvne2,node:path,mb:color:#000000,mb:id:pathSlctbcdvne2,mb:clone_of:wa_xodigy-0,clip_working_area_clipped:false
G0X310.47Y310.41
F200;#000000
; gcode_before_path_color
M3S0
G4P0
M03 S1300 ; color: #000000

G1X309.16Y310.84
G1X308.80Y310.84
G1X308.59Y310.65
G1X308.59Y310.40
G1X308.77Y310.19
G1X309.01Y310.17
G1X309.07Y309.95
G1X308.83Y309.90
G1X308.57Y310.01
G1X308.43Y310.16
G1X308.31Y310.63
G1X308.46Y310.95
G1X308.89Y311.14
G1X310.30Y310.73
G1X310.02Y311.54
G1X310.21Y311.64
G1X310.65Y310.51
G1X310.47Y310.41
M05

; pass:2/2
;_gc_nextgen_svg_id:pathSlctbcdvne2,node:path,mb:color:#000000,mb:id:pathSlctbcdvne2,mb:clone_of:wa_xodigy-0,clip_working_area_clipped:false
G0X310.47Y310.41
F200;#000000
; gcode_before_path_color
M3S0
G4P0
M03 S1300 ; color: #000000

G1X309.16Y310.84
G1X308.80Y310.84
G1X308.59Y310.65
G1X308.59Y310.40
G1X308.77Y310.19
G1X309.01Y310.17
G1X309.07Y309.95
G1X308.83Y309.90
G1X308.57Y310.01
G1X308.43Y310.16
G1X308.31Y310.63
G1X308.46Y310.95
G1X308.89Y311.14
G1X310.30Y310.73
G1X310.02Y311.54
G1X310.21Y311.64
G1X310.65Y310.51
G1X310.47Y310.41
M05

; Layer:compSvg, outline of:pathSlctbcdvnnc, stroke:#000000, {u'passes': 2, u'feedrate': 200, u'progressive': False, u'color': u'#000000', u'intensity': 1300, u'intensity_user': 100, u'cut_compressor': 100, 'mpr': 13.0, 'svgDPI': 90, u'engrave': False, u'pierce_time': 0, 'laserhead_model_id': None}
; pass:1/2
;_gc_nextgen_svg_id:pathSlctbcdvne1,node:path,mb:color:#000000,mb:id:pathSlctbcdvne1,mb:clone_of:wa_zymoti-0,clip_working_area_clipped:false
G0X310.38Y308.97
F200;#000000
; gcode_before_path_color
M3S0
G4P0
M03 S1300 ; color: #000000

G1X310.20Y308.91
G1X309.88Y309.74
G1X310.07Y309.84
G1X310.38Y308.97
M05

; pass:2/2
;_gc_nextgen_svg_id:pathSlctbcdvne1,node:path,mb:color:#000000,mb:id:pathSlctbcdvne1,mb:clone_of:wa_zymoti-0,clip_working_area_clipped:false
G0X310.38Y308.97
F200;#000000
; gcode_before_path_color
M3S0
G4P0
M03 S1300 ; color: #000000

G1X310.20Y308.91
G1X309.88Y309.74
G1X310.07Y309.84
G1X310.38Y308.97
M05

; Layer:compSvg, outline of:pathSlctbcdvnnc, stroke:#000000, {u'passes': 2, u'feedrate': 200, u'progressive': False, u'color': u'#000000', u'intensity': 1300, u'intensity_user': 100, u'cut_compressor': 100, 'mpr': 13.0, 'svgDPI': 90, u'engrave': False, u'pierce_time': 0, 'laserhead_model_id': None}
; pass:1/2
;_gc_nextgen_svg_id:pathSlctbcdvne0,node:path,mb:color:#000000,mb:id:pathSlctbcdvne0,mb:clone_of:wa_sokuju-0,clip_working_area_clipped:false
G0X310.55Y307.38
F200;#000000
; gcode_before_path_color
M3S0
G4P0
M03 S1300 ; color: #000000

G1X309.39Y307.57
G1X309.28Y307.80
G1X310.32Y307.67
G1X310.17Y308.06
G1X310.31Y308.49
G1X310.72Y308.71
G1X311.15Y308.66
G1X311.36Y308.49
G1X311.49Y308.22
G1X311.52Y307.98
G1X311.45Y307.72
G1X311.07Y307.42
G1X310.55Y307.38
M05
G0X311.24Y308.19
F200;#000000
; gcode_before_path_color
M3S0
G4P0
M03 S1300 ; color: #000000

G1X311.06Y308.41
G1X310.72Y308.42
G1X310.46Y308.20
G1X310.46Y307.91
G1X310.64Y307.69
G1X310.98Y307.68
G1X311.24Y307.90
G1X311.24Y308.19
M05

; pass:2/2
;_gc_nextgen_svg_id:pathSlctbcdvne0,node:path,mb:color:#000000,mb:id:pathSlctbcdvne0,mb:clone_of:wa_sokuju-0,clip_working_area_clipped:false
G0X310.55Y307.38
F200;#000000
; gcode_before_path_color
M3S0
G4P0
M03 S1300 ; color: #000000

G1X309.39Y307.57
G1X309.28Y307.80
G1X310.32Y307.67
G1X310.17Y308.06
G1X310.31Y308.49
G1X310.72Y308.71
G1X311.15Y308.66
G1X311.36Y308.49
G1X311.49Y308.22
G1X311.52Y307.98
G1X311.45Y307.72
G1X311.07Y307.42
G1X310.55Y307.38
M05
G0X311.24Y308.19
F200;#000000
; gcode_before_path_color
M3S0
G4P0
M03 S1300 ; color: #000000

G1X311.06Y308.41
G1X310.72Y308.42
G1X310.46Y308.20
G1X310.46Y307.91
G1X310.64Y307.69
G1X310.98Y307.68
G1X311.24Y307.90
G1X311.24Y308.19
M05

; Layer:compSvg, outline of:pathSlctbcdvnnc, stroke:#000000, {u'passes': 2, u'feedrate': 200, u'progressive': False, u'color': u'#000000', u'intensity': 1300, u'intensity_user': 100, u'cut_compressor': 100, 'mpr': 13.0, 'svgDPI': 90, u'engrave': False, u'pierce_time': 0, 'laserhead_model_id': None}
; pass:1/2
;_gc_nextgen_svg_id:pathSlctbcdvndq,node:path,mb:color:#000000,mb:id:pathSlctbcdvndq,mb:clone_of:path698_6_,clip_working_area_clipped:false
G0X314.37Y303.80
F200;#000000
; gcode_before_path_color
M3S0
G4P0
M03 S1300 ; color: #000000

G1X317.62Y294.58
G1X317.53Y294.43
G1X316.74Y294.09
G1X316.32Y293.61
G1X316.18Y293.01
G1X316.36Y292.01
G1X316.27Y291.87
G1X314.21Y291.15
G1X314.06Y291.24
G1X310.13Y302.39
G1X310.22Y302.53
G1X314.12Y303.92
G1X314.29Y303.90
G1X314.37Y303.80
M05

; pass:2/2
;_gc_nextgen_svg_id:pathSlctbcdvndq,node:path,mb:color:#000000,mb:id:pathSlctbcdvndq,mb:clone_of:path698_6_,clip_working_area_clipped:false
G0X314.37Y303.80
F200;#000000
; gcode_before_path_color
M3S0
G4P0
M03 S1300 ; color: #000000

G1X317.62Y294.58
G1X317.53Y294.43
G1X316.74Y294.09
G1X316.32Y293.61
G1X316.18Y293.01
G1X316.36Y292.01
G1X316.27Y291.87
G1X314.21Y291.15
G1X314.06Y291.24
G1X310.13Y302.39
G1X310.22Y302.53
G1X314.12Y303.92
G1X314.29Y303.90
G1X314.37Y303.80
M05

; Layer:compSvg, outline of:pathSlctbcdvnnc, stroke:#000000, {u'passes': 2, u'feedrate': 200, u'progressive': False, u'color': u'#000000', u'intensity': 1300, u'intensity_user': 100, u'cut_compressor': 100, 'mpr': 13.0, 'svgDPI': 90, u'engrave': False, u'pierce_time': 0, 'laserhead_model_id': None}
; pass:1/2
;_gc_nextgen_svg_id:pathSlctbcdvndr,node:path,mb:color:#000000,mb:id:pathSlctbcdvndr,mb:clone_of:path702_5_,clip_working_area_clipped:false
G0X303.08Y299.80
F200;#000000
; gcode_before_path_color
M3S0
G4P0
M03 S1300 ; color: #000000

G1X306.33Y290.58
G1X306.24Y290.43
G1X305.45Y290.10
G1X305.03Y289.61
G1X304.89Y289.01
G1X305.07Y288.01
G1X304.98Y287.87
G1X302.92Y287.16
G1X302.77Y287.25
G1X298.84Y298.39
G1X298.93Y298.54
G1X302.83Y299.92
G1X303.00Y299.90
G1X303.08Y299.80
M05

; pass:2/2
;_gc_nextgen_svg_id:pathSlctbcdvndr,node:path,mb:color:#000000,mb:id:pathSlctbcdvndr,mb:clone_of:path702_5_,clip_working_area_clipped:false
G0X303.08Y299.80
F200;#000000
; gcode_before_path_color
M3S0
G4P0
M03 S1300 ; color: #000000

G1X306.33Y290.58
G1X306.24Y290.43
G1X305.45Y290.10
G1X305.03Y289.61
G1X304.89Y289.01
G1X305.07Y288.01
G1X304.98Y287.87
G1X302.92Y287.16
G1X302.77Y287.25
G1X298.84Y298.39
G1X298.93Y298.54
G1X302.83Y299.92
G1X303.00Y299.90
G1X303.08Y299.80
M05

; Layer:compSvg, outline of:pathSlctbcdvnnc, stroke:#000000, {u'passes': 2, u'feedrate': 200, u'progressive': False, u'color': u'#000000', u'intensity': 1300, u'intensity_user': 100, u'cut_compressor': 100, 'mpr': 13.0, 'svgDPI': 90, u'engrave': False, u'pierce_time': 0, 'laserhead_model_id': None}
; pass:1/2
;_gc_nextgen_svg_id:pathSlctbcdvndt,node:path,mb:color:#000000,mb:id:pathSlctbcdvndt,mb:clone_of:wa_hehuko-0,clip_working_area_clipped:false
G0X298.55Y303.60
F200;#000000
; gcode_before_path_color
M3S0
G4P0
M03 S1300 ; color: #000000

G1X298.91Y303.33
G1X298.63Y303.22
G1X298.24Y303.49
G1X298.14Y303.71
G1X300.17Y304.46
G1X300.28Y304.25
G1X298.55Y303.60
M05

; pass:2/2
;_gc_nextgen_svg_id:pathSlctbcdvndt,node:path,mb:color:#000000,mb:id:pathSlctbcdvndt,mb:clone_of:wa_hehuko-0,clip_working_area_clipped:false
G0X298.55Y303.60
F200;#000000
; gcode_before_path_color
M3S0
G4P0
M03 S1300 ; color: #000000

G1X298.91Y303.33
G1X298.63Y303.22
G1X298.24Y303.49
G1X298.14Y303.71
G1X300.17Y304.46
G1X300.28Y304.25
G1X298.55Y303.60
M05

; Layer:compSvg, outline of:pathSlctbcdvnnc, stroke:#000000, {u'passes': 2, u'feedrate': 200, u'progressive': False, u'color': u'#000000', u'intensity': 1300, u'intensity_user': 100, u'cut_compressor': 100, 'mpr': 13.0, 'svgDPI': 90, u'engrave': False, u'pierce_time': 0, 'laserhead_model_id': None}
; pass:1/2
;_gc_nextgen_svg_id:pathSlctbcdvndu,node:path,mb:color:#000000,mb:id:pathSlctbcdvndu,mb:clone_of:wa_tijulu-0,clip_working_area_clipped:false
G0X299.20Y305.01
F200;#000000
; gcode_before_path_color
M3S0
G4P0
M03 S1300 ; color: #000000

G1X299.02Y304.95
G1X298.69Y305.78
G1X298.89Y305.88
G1X299.20Y305.01
M05

; pass:2/2
;_gc_nextgen_svg_id:pathSlctbcdvndu,node:path,mb:color:#000000,mb:id:pathSlctbcdvndu,mb:clone_of:wa_tijulu-0,clip_working_area_clipped:false
G0X299.20Y305.01
F200;#000000
; gcode_before_path_color
M3S0
G4P0
M03 S1300 ; color: #000000

G1X299.02Y304.95
G1X298.69Y305.78
G1X298.89Y305.88
G1X299.20Y305.01
M05

; Layer:compSvg, outline of:pathSlctbcdvnnc, stroke:#000000, {u'passes': 2, u'feedrate': 200, u'progressive': False, u'color': u'#000000', u'intensity': 1300, u'intensity_user': 100, u'cut_compressor': 100, 'mpr': 13.0, 'svgDPI': 90, u'engrave': False, u'pierce_time': 0, 'laserhead_model_id': None}
; pass:1/2
;_gc_nextgen_svg_id:pathSlctbcdvndv,node:path,mb:color:#000000,mb:id:pathSlctbcdvndv,mb:clone_of:wa_tovypo-0,clip_working_area_clipped:false
G0X297.55Y306.41
F200;#000000
; gcode_before_path_color
M3S0
G4P0
M03 S1300 ; color: #000000

G1X297.92Y306.14
G1X297.63Y306.03
G1X297.25Y306.29
G1X297.15Y306.52
G1X299.18Y307.27
G1X299.29Y307.05
G1X297.55Y306.41
M05

; pass:2/2
;_gc_nextgen_svg_id:pathSlctbcdvndv,node:path,mb:color:#000000,mb:id:pathSlctbcdvndv,mb:clone_of:wa_tovypo-0,clip_working_area_clipped:false
G0X297.55Y306.41
F200;#000000
; gcode_before_path_color
M3S0
G4P0
M03 S1300 ; color: #000000

G1X297.92Y306.14
G1X297.63Y306.03
G1X297.25Y306.29
G1X297.15Y306.52
G1X299.18Y307.27
G1X299.29Y307.05
G1X297.55Y306.41
M05

; Layer:compSvg, outline of:pathSlctbcdvnnc, stroke:#000000, {u'passes': 2, u'feedrate': 200, u'progressive': False, u'color': u'#000000', u'intensity': 1300, u'intensity_user': 100, u'cut_compressor': 100, 'mpr': 13.0, 'svgDPI': 90, u'engrave': False, u'pierce_time': 0, 'laserhead_model_id': None}
; pass:1/2
;_gc_nextgen_svg_id:pathSlctbcdvndw,node:path,mb:color:#000000,mb:id:pathSlctbcdvndw,mb:clone_of:wa_cinegu-0,clip_working_area_clipped:false
G0X297.79Y307.88
F200;#000000
; gcode_before_path_color
M3S0
G4P0
M03 S1300 ; color: #000000

G1X296.63Y308.06
G1X296.52Y308.30
G1X297.56Y308.17
G1X297.41Y308.56
G1X297.55Y308.98
G1X297.96Y309.21
G1X298.39Y309.16
G1X298.60Y308.98
G1X298.73Y308.72
G1X298.76Y308.48
G1X298.69Y308.22
G1X298.31Y307.91
G1X297.79Y307.88
M05
G0X298.48Y308.68
F200;#000000
; gcode_before_path_color
M3S0
G4P0
M03 S1300 ; color: #000000

G1X298.30Y308.91
G1X297.96Y308.92
G1X297.70Y308.69
G1X297.70Y308.41
G1X297.88Y308.18
G1X298.22Y308.17
G1X298.48Y308.40
G1X298.48Y308.68
M05

; pass:2/2
;_gc_nextgen_svg_id:pathSlctbcdvndw,node:path,mb:color:#000000,mb:id:pathSlctbcdvndw,mb:clone_of:wa_cinegu-0,clip_working_area_clipped:false
G0X297.79Y307.88
F200;#000000
; gcode_before_path_color
M3S0
G4P0
M03 S1300 ; color: #000000

G1X296.63Y308.06
G1X296.52Y308.30
G1X297.56Y308.17
G1X297.41Y308.56
G1X297.55Y308.98
G1X297.96Y309.21
G1X298.39Y309.16
G1X298.60Y308.98
G1X298.73Y308.72
G1X298.76Y308.48
G1X298.69Y308.22
G1X298.31Y307.91
G1X297.79Y307.88
M05
G0X298.48Y308.68
F200;#000000
; gcode_before_path_color
M3S0
G4P0
M03 S1300 ; color: #000000

G1X298.30Y308.91
G1X297.96Y308.92
G1X297.70Y308.69
G1X297.70Y308.41
G1X297.88Y308.18
G1X298.22Y308.17
G1X298.48Y308.40
G1X298.48Y308.68
M05

; Layer:compSvg, outline of:pathSlctbcdvnnc, stroke:#000000, {u'passes': 2, u'feedrate': 200, u'progressive': False, u'color': u'#000000', u'intensity': 1300, u'intensity_user': 100, u'cut_compressor': 100, 'mpr': 13.0, 'svgDPI': 90, u'engrave': False, u'pierce_time': 0, 'laserhead_model_id': None}
; pass:1/2
;_gc_nextgen_svg_id:pathSlctbcdvnem,node:path,mb:color:#000000,mb:id:pathSlctbcdvnem,mb:clone_of:wa_somamy-0,clip_working_area_clipped:false
G0X299.39Y310.22
F200;#000000
; gcode_before_path_color
M3S0
G4P0
M03 S1300 ; color: #000000

G1X295.94Y319.92
G1X295.78Y319.98
G1X294.95Y319.74
G1X294.32Y319.85
G1X293.83Y320.23
G1X293.27Y321.17
G1X291.21Y320.48
G1X291.08Y320.27
G1X295.16Y308.72
M05

; pass:2/2
;_gc_nextgen_svg_id:pathSlctbcdvnem,node:path,mb:color:#000000,mb:id:pathSlctbcdvnem,mb:clone_of:wa_somamy-0,clip_working_area_clipped:false
G0X299.39Y310.22
F200;#000000
; gcode_before_path_color
M3S0
G4P0
M03 S1300 ; color: #000000

G1X295.94Y319.92
G1X295.78Y319.98
G1X294.95Y319.74
G1X294.32Y319.85
G1X293.83Y320.23
G1X293.27Y321.17
G1X291.21Y320.48
G1X291.08Y320.27
G1X295.16Y308.72
M05

; Layer:compSvg, outline of:pathSlctbcdvnnc, stroke:#000000, {u'passes': 2, u'feedrate': 200, u'progressive': False, u'color': u'#000000', u'intensity': 1300, u'intensity_user': 100, u'cut_compressor': 100, 'mpr': 13.0, 'svgDPI': 90, u'engrave': False, u'pierce_time': 0, 'laserhead_model_id': None}
; pass:1/2
;_gc_nextgen_svg_id:pathSlctbcdvndx,node:path,mb:color:#000000,mb:id:pathSlctbcdvndx,mb:clone_of:wa_vuvoke-0,clip_working_area_clipped:false
G0X297.65Y311.69
F200;#000000
; gcode_before_path_color
M3S0
G4P0
M03 S1300 ; color: #000000

G1X296.62Y311.27
G1X296.51Y311.13
G1X296.52Y310.89
G1X296.66Y310.71
G1X296.89Y310.66
G1X297.86Y310.99
G1X297.97Y310.78
G1X296.95Y310.36
G1X296.83Y310.22
G1X296.84Y309.98
G1X296.98Y309.79
G1X297.16Y309.74
G1X298.18Y310.07
G1X298.29Y309.86
G1X296.88Y309.32
G1X296.77Y309.54
G1X296.92Y309.63
G1X296.71Y309.75
G1X296.55Y310.07
G1X296.66Y310.47
G1X296.30Y310.77
G1X296.23Y311.21
G1X296.52Y311.54
G1X297.53Y311.90
G1X297.65Y311.69
M05

; pass:2/2
;_gc_nextgen_svg_id:pathSlctbcdvndx,node:path,mb:color:#000000,mb:id:pathSlctbcdvndx,mb:clone_of:wa_vuvoke-0,clip_working_area_clipped:false
G0X297.65Y311.69
F200;#000000
; gcode_before_path_color
M3S0
G4P0
M03 S1300 ; color: #000000

G1X296.62Y311.27
G1X296.51Y311.13
G1X296.52Y310.89
G1X296.66Y310.71
G1X296.89Y310.66
G1X297.86Y310.99
G1X297.97Y310.78
G1X296.95Y310.36
G1X296.83Y310.22
G1X296.84Y309.98
G1X296.98Y309.79
G1X297.16Y309.74
G1X298.18Y310.07
G1X298.29Y309.86
G1X296.88Y309.32
G1X296.77Y309.54
G1X296.92Y309.63
G1X296.71Y309.75
G1X296.55Y310.07
G1X296.66Y310.47
G1X296.30Y310.77
G1X296.23Y311.21
G1X296.52Y311.54
G1X297.53Y311.90
G1X297.65Y311.69
M05

; Layer:compSvg, outline of:pathSlctbcdvnnc, stroke:#000000, {u'passes': 2, u'feedrate': 200, u'progressive': False, u'color': u'#000000', u'intensity': 1300, u'intensity_user': 100, u'cut_compressor': 100, 'mpr': 13.0, 'svgDPI': 90, u'engrave': False, u'pierce_time': 0, 'laserhead_model_id': None}
; pass:1/2
;_gc_nextgen_svg_id:pathSlctbcdvndy,node:path,mb:color:#000000,mb:id:pathSlctbcdvndy,mb:clone_of:wa_gacita-0,clip_working_area_clipped:false
G0X296.73Y314.26
F200;#000000
; gcode_before_path_color
M3S0
G4P0
M03 S1300 ; color: #000000

G1X295.71Y313.84
G1X295.60Y313.70
G1X295.61Y313.46
G1X295.75Y313.28
G1X295.98Y313.23
G1X296.95Y313.56
G1X297.06Y313.35
G1X296.04Y312.93
G1X295.92Y312.79
G1X295.93Y312.55
G1X296.07Y312.36
G1X296.25Y312.31
G1X297.27Y312.65
G1X297.38Y312.43
G1X295.97Y311.90
G1X295.86Y312.11
G1X296.01Y312.20
G1X295.80Y312.32
G1X295.64Y312.64
G1X295.74Y313.05
G1X295.39Y313.34
G1X295.32Y313.78
G1X295.61Y314.11
G1X296.62Y314.48
G1X296.73Y314.26
M05

; pass:2/2
;_gc_nextgen_svg_id:pathSlctbcdvndy,node:path,mb:color:#000000,mb:id:pathSlctbcdvndy,mb:clone_of:wa_gacita-0,clip_working_area_clipped:false
G0X296.73Y314.26
F200;#000000
; gcode_before_path_color
M3S0
G4P0
M03 S1300 ; color: #000000

G1X295.71Y313.84
G1X295.60Y313.70
G1X295.61Y313.46
G1X295.75Y313.28
G1X295.98Y313.23
G1X296.95Y313.56
G1X297.06Y313.35
G1X296.04Y312.93
G1X295.92Y312.79
G1X295.93Y312.55
G1X296.07Y312.36
G1X296.25Y312.31
G1X297.27Y312.65
G1X297.38Y312.43
G1X295.97Y311.90
G1X295.86Y312.11
G1X296.01Y312.20
G1X295.80Y312.32
G1X295.64Y312.64
G1X295.74Y313.05
G1X295.39Y313.34
G1X295.32Y313.78
G1X295.61Y314.11
G1X296.62Y314.48
G1X296.73Y314.26
M05

; Layer:compSvg, outline of:pathSlctbcdvnnc, stroke:#000000, {u'passes': 2, u'feedrate': 200, u'progressive': False, u'color': u'#000000', u'intensity': 1300, u'intensity_user': 100, u'cut_compressor': 100, 'mpr': 13.0, 'svgDPI': 90, u'engrave': False, u'pierce_time': 0, 'laserhead_model_id': None}
; pass:1/2
;_gc_nextgen_svg_id:pathSlctbcdvne5,node:path,mb:color:#000000,mb:id:pathSlctbcdvne5,mb:clone_of:wa_fyxize-0,clip_working_area_clipped:false
G0X307.92Y318.22
F200;#000000
; gcode_before_path_color
M3S0
G4P0
M03 S1300 ; color: #000000

G1X306.90Y317.80
G1X306.78Y317.66
G1X306.79Y317.42
G1X306.93Y317.24
G1X307.16Y317.19
G1X308.13Y317.52
G1X308.24Y317.31
G1X307.22Y316.89
G1X307.11Y316.75
G1X307.11Y316.51
G1X307.26Y316.32
G1X307.43Y316.27
G1X308.46Y316.61
G1X308.57Y316.39
G1X307.15Y315.86
G1X307.04Y316.07
G1X307.19Y316.16
G1X306.98Y316.28
G1X306.82Y316.60
G1X306.93Y317.01
G1X306.58Y317.30
G1X306.51Y317.74
G1X306.80Y318.07
G1X307.81Y318.44
G1X307.92Y318.22
M05

; pass:2/2
;_gc_nextgen_svg_id:pathSlctbcdvne5,node:path,mb:color:#000000,mb:id:pathSlctbcdvne5,mb:clone_of:wa_fyxize-0,clip_working_area_clipped:false
G0X307.92Y318.22
F200;#000000
; gcode_before_path_color
M3S0
G4P0
M03 S1300 ; color: #000000

G1X306.90Y317.80
G1X306.78Y317.66
G1X306.79Y317.42
G1X306.93Y317.24
G1X307.16Y317.19
G1X308.13Y317.52
G1X308.24Y317.31
G1X307.22Y316.89
G1X307.11Y316.75
G1X307.11Y316.51
G1X307.26Y316.32
G1X307.43Y316.27
G1X308.46Y316.61
G1X308.57Y316.39
G1X307.15Y315.86
G1X307.04Y316.07
G1X307.19Y316.16
G1X306.98Y316.28
G1X306.82Y316.60
G1X306.93Y317.01
G1X306.58Y317.30
G1X306.51Y317.74
G1X306.80Y318.07
G1X307.81Y318.44
G1X307.92Y318.22
M05

; Layer:compSvg, outline of:pathSlctbcdvnnc, stroke:#000000, {u'passes': 2, u'feedrate': 200, u'progressive': False, u'color': u'#000000', u'intensity': 1300, u'intensity_user': 100, u'cut_compressor': 100, 'mpr': 13.0, 'svgDPI': 90, u'engrave': False, u'pierce_time': 0, 'laserhead_model_id': None}
; pass:1/2
;_gc_nextgen_svg_id:pathSlctbcdvne4,node:path,mb:color:#000000,mb:id:pathSlctbcdvne4,mb:clone_of:wa_wulugi-0,clip_working_area_clipped:false
G0X308.83Y315.65
F200;#000000
; gcode_before_path_color
M3S0
G4P0
M03 S1300 ; color: #000000

G1X307.81Y315.23
G1X307.69Y315.09
G1X307.70Y314.85
G1X307.84Y314.67
G1X308.07Y314.62
G1X309.04Y314.95
G1X309.15Y314.74
G1X308.13Y314.32
G1X308.02Y314.18
G1X308.02Y313.94
G1X308.17Y313.75
G1X308.34Y313.70
G1X309.37Y314.03
G1X309.48Y313.82
G1X308.06Y313.28
G1X307.95Y313.50
G1X308.10Y313.59
G1X307.89Y313.71
G1X307.73Y314.03
G1X307.84Y314.43
G1X307.49Y314.73
G1X307.42Y315.17
G1X307.71Y315.50
G1X308.72Y315.86
G1X308.83Y315.65
M05

; pass:2/2
;_gc_nextgen_svg_id:pathSlctbcdvne4,node:path,mb:color:#000000,mb:id:pathSlctbcdvne4,mb:clone_of:wa_wulugi-0,clip_working_area_clipped:false
G0X308.83Y315.65
F200;#000000
; gcode_before_path_color
M3S0
G4P0
M03 S1300 ; color: #000000

G1X307.81Y315.23
G1X307.69Y315.09
G1X307.70Y314.85
G1X307.84Y314.67
G1X308.07Y314.62
G1X309.04Y314.95
G1X309.15Y314.74
G1X308.13Y314.32
G1X308.02Y314.18
G1X308.02Y313.94
G1X308.17Y313.75
G1X308.34Y313.70
G1X309.37Y314.03
G1X309.48Y313.82
G1X308.06Y313.28
G1X307.95Y313.50
G1X308.10Y313.59
G1X307.89Y313.71
G1X307.73Y314.03
G1X307.84Y314.43
G1X307.49Y314.73
G1X307.42Y315.17
G1X307.71Y315.50
G1X308.72Y315.86
G1X308.83Y315.65
M05

; Layer:compSvg, outline of:pathSlctbcdvnnc, stroke:#000000, {u'passes': 2, u'feedrate': 200, u'progressive': False, u'color': u'#000000', u'intensity': 1300, u'intensity_user': 100, u'cut_compressor': 100, 'mpr': 13.0, 'svgDPI': 90, u'engrave': False, u'pierce_time': 0, 'laserhead_model_id': None}
; pass:1/2
;_gc_nextgen_svg_id:pathSlctbcdvndn,node:path,mb:color:#000000,mb:id:pathSlctbcdvndn,mb:clone_of:wa_zoxyhu-0,clip_working_area_clipped:false
G0X308.77Y274.11
F200;#000000
; gcode_before_path_color
M3S0
G4P0
M03 S1300 ; color: #000000

G1X307.68Y273.73
G1X306.86Y271.98
G1X308.60Y271.15
G1X309.69Y271.53
G1X308.46Y272.12
G1X346.22Y285.49
G1X345.64Y284.26
G1X346.73Y284.65
G1X347.55Y286.39
G1X345.81Y287.23
G1X344.72Y286.84
G1X345.95Y286.26
G1X308.19Y272.88
G1X308.77Y274.11
M05

; pass:2/2
;_gc_nextgen_svg_id:pathSlctbcdvndn,node:path,mb:color:#000000,mb:id:pathSlctbcdvndn,mb:clone_of:wa_zoxyhu-0,clip_working_area_clipped:false
G0X308.77Y274.11
F200;#000000
; gcode_before_path_color
M3S0
G4P0
M03 S1300 ; color: #000000

G1X307.68Y273.73
G1X306.86Y271.98
G1X308.60Y271.15
G1X309.69Y271.53
G1X308.46Y272.12
G1X346.22Y285.49
G1X345.64Y284.26
G1X346.73Y284.65
G1X347.55Y286.39
G1X345.81Y287.23
G1X344.72Y286.84
G1X345.95Y286.26
G1X308.19Y272.88
G1X308.77Y274.11
M05

; Layer:compSvg, outline of:pathSlctbcdvnnc, stroke:#000000, {u'passes': 2, u'feedrate': 200, u'progressive': False, u'color': u'#000000', u'intensity': 1300, u'intensity_user': 100, u'cut_compressor': 100, 'mpr': 13.0, 'svgDPI': 90, u'engrave': False, u'pierce_time': 0, 'laserhead_model_id': None}
; pass:1/2
;_gc_nextgen_svg_id:pathSlctbcdvnci,node:path,mb:color:#000000,mb:id:pathSlctbcdvnci,mb:clone_of:wa_wesomo-0,clip_working_area_clipped:false
G0X311.59Y270.52
F200;#000000
; gcode_before_path_color
M3S0
G4P0
M03 S1300 ; color: #000000

G1X311.97Y270.55
G1X312.32Y270.27
G1X312.81Y268.93
G1X313.05Y269.02
G1X313.17Y268.69
G1X312.93Y268.60
G1X313.14Y268.00
G1X312.71Y267.85
G1X312.50Y268.45
G1X312.09Y268.31
G1X311.97Y268.63
G1X312.38Y268.78
G1X311.89Y270.09
G1X311.74Y270.15
G1X311.47Y270.06
G1X311.34Y270.43
G1X311.59Y270.52
M05

; pass:2/2
;_gc_nextgen_svg_id:pathSlctbcdvnci,node:path,mb:color:#000000,mb:id:pathSlctbcdvnci,mb:clone_of:wa_wesomo-0,clip_working_area_clipped:false
G0X311.59Y270.52
F200;#000000
; gcode_before_path_color
M3S0
G4P0
M03 S1300 ; color: #000000

G1X311.97Y270.55
G1X312.32Y270.27
G1X312.81Y268.93
G1X313.05Y269.02
G1X313.17Y268.69
G1X312.93Y268.60
G1X313.14Y268.00
G1X312.71Y267.85
G1X312.50Y268.45
G1X312.09Y268.31
G1X311.97Y268.63
G1X312.38Y268.78
G1X311.89Y270.09
G1X311.74Y270.15
G1X311.47Y270.06
G1X311.34Y270.43
G1X311.59Y270.52
M05

; Layer:compSvg, outline of:pathSlctbcdvnnc, stroke:#000000, {u'passes': 2, u'feedrate': 200, u'progressive': False, u'color': u'#000000', u'intensity': 1300, u'intensity_user': 100, u'cut_compressor': 100, 'mpr': 13.0, 'svgDPI': 90, u'engrave': False, u'pierce_time': 0, 'laserhead_model_id': None}
; pass:1/2
;_gc_nextgen_svg_id:pathSlctbcdvnch,node:path,mb:color:#000000,mb:id:pathSlctbcdvnch,mb:clone_of:wa_cekixy-0,clip_working_area_clipped:false
G0X313.31Y271.13
F200;#000000
; gcode_before_path_color
M3S0
G4P0
M03 S1300 ; color: #000000

G1X313.85Y269.67
G1X314.10Y269.49
G1X314.36Y269.51
G1X314.58Y269.66
G1X314.67Y269.97
G1X314.18Y271.43
G1X314.60Y271.58
G1X315.66Y268.61
G1X315.23Y268.45
G1X314.85Y269.53
G1X314.63Y269.23
G1X314.28Y269.06
G1X313.91Y269.05
G1X313.59Y269.24
G1X313.38Y269.57
G1X312.88Y270.98
G1X313.31Y271.13
M05

; pass:2/2
;_gc_nextgen_svg_id:pathSlctbcdvnch,node:path,mb:color:#000000,mb:id:pathSlctbcdvnch,mb:clone_of:wa_cekixy-0,clip_working_area_clipped:false
G0X313.31Y271.13
F200;#000000
; gcode_before_path_color
M3S0
G4P0
M03 S1300 ; color: #000000

G1X313.85Y269.67
G1X314.10Y269.49
G1X314.36Y269.51
G1X314.58Y269.66
G1X314.67Y269.97
G1X314.18Y271.43
G1X314.60Y271.58
G1X315.66Y268.61
G1X315.23Y268.45
G1X314.85Y269.53
G1X314.63Y269.23
G1X314.28Y269.06
G1X313.91Y269.05
G1X313.59Y269.24
G1X313.38Y269.57
G1X312.88Y270.98
G1X313.31Y271.13
M05

; Layer:compSvg, outline of:pathSlctbcdvnnc, stroke:#000000, {u'passes': 2, u'feedrate': 200, u'progressive': False, u'color': u'#000000', u'intensity': 1300, u'intensity_user': 100, u'cut_compressor': 100, 'mpr': 13.0, 'svgDPI': 90, u'engrave': False, u'pierce_time': 0, 'laserhead_model_id': None}
; pass:1/2
;_gc_nextgen_svg_id:pathSlctbcdvncg,node:path,mb:color:#000000,mb:id:pathSlctbcdvncg,mb:clone_of:wa_nodewi-0,clip_working_area_clipped:false
G0X315.88Y273.03
F200;#000000
; gcode_before_path_color
M3S0
G4P0
M03 S1300 ; color: #000000

G1X316.36Y273.11
G1X316.72Y273.01
G1X316.55Y272.65
G1X316.13Y272.70
G1X315.76Y272.49
G1X315.67Y272.15
G1X315.81Y271.68
G1X315.96Y271.93
G1X316.27Y272.12
G1X316.63Y272.17
G1X316.89Y272.09
G1X317.27Y271.64
G1X317.52Y270.78
G1X317.47Y270.43
G1X317.25Y270.14
G1X316.78Y269.97
G1X316.37Y270.08
G1X316.45Y269.85
G1X316.03Y269.70
G1X315.22Y272.11
G1X315.35Y272.64
G1X315.59Y272.88
G1X315.88Y273.03
M05
G0X316.76Y270.36
F200;#000000
; gcode_before_path_color
M3S0
G4P0
M03 S1300 ; color: #000000

G1X316.97Y270.50
G1X317.05Y270.66
G1X316.96Y271.18
G1X316.70Y271.64
G1X316.54Y271.72
G1X316.29Y271.69
G1X316.08Y271.56
G1X316.01Y271.40
G1X316.10Y270.88
G1X316.36Y270.41
G1X316.51Y270.34
G1X316.76Y270.36
M05

; pass:2/2
;_gc_nextgen_svg_id:pathSlctbcdvncg,node:path,mb:color:#000000,mb:id:pathSlctbcdvncg,mb:clone_of:wa_nodewi-0,clip_working_area_clipped:false
G0X315.88Y273.03
F200;#000000
; gcode_before_path_color
M3S0
G4P0
M03 S1300 ; color: #000000

G1X316.36Y273.11
G1X316.72Y273.01
G1X316.55Y272.65
G1X316.13Y272.70
G1X315.76Y272.49
G1X315.67Y272.15
G1X315.81Y271.68
G1X315.96Y271.93
G1X316.27Y272.12
G1X316.63Y272.17
G1X316.89Y272.09
G1X317.27Y271.64
G1X317.52Y270.78
G1X317.47Y270.43
G1X317.25Y270.14
G1X316.78Y269.97
G1X316.37Y270.08
G1X316.45Y269.85
G1X316.03Y269.70
G1X315.22Y272.11
G1X315.35Y272.64
G1X315.59Y272.88
G1X315.88Y273.03
M05
G0X316.76Y270.36
F200;#000000
; gcode_before_path_color
M3S0
G4P0
M03 S1300 ; color: #000000

G1X316.97Y270.50
G1X317.05Y270.66
G1X316.96Y271.18
G1X316.70Y271.64
G1X316.54Y271.72
G1X316.29Y271.69
G1X316.08Y271.56
G1X316.01Y271.40
G1X316.10Y270.88
G1X316.36Y270.41
G1X316.51Y270.34
G1X316.76Y270.36
M05

; Layer:compSvg, outline of:pathSlctbcdvnnc, stroke:#000000, {u'passes': 2, u'feedrate': 200, u'progressive': False, u'color': u'#000000', u'intensity': 1300, u'intensity_user': 100, u'cut_compressor': 100, 'mpr': 13.0, 'svgDPI': 90, u'engrave': False, u'pierce_time': 0, 'laserhead_model_id': None}
; pass:1/2
;_gc_nextgen_svg_id:pathSlctbcdvncf,node:path,mb:color:#000000,mb:id:pathSlctbcdvncf,mb:clone_of:wa_kuzobo-0,clip_working_area_clipped:false
G0X318.92Y270.25
F200;#000000
; gcode_before_path_color
M3S0
G4P0
M03 S1300 ; color: #000000

G1X319.08Y269.80
G1X318.62Y269.64
G1X318.46Y270.09
G1X318.92Y270.25
M05
G0X318.00Y272.79
F200;#000000
; gcode_before_path_color
M3S0
G4P0
M03 S1300 ; color: #000000

G1X318.76Y270.67
G1X318.33Y270.52
G1X317.58Y272.64
G1X318.00Y272.79
M05

; pass:2/2
;_gc_nextgen_svg_id:pathSlctbcdvncf,node:path,mb:color:#000000,mb:id:pathSlctbcdvncf,mb:clone_of:wa_kuzobo-0,clip_working_area_clipped:false
G0X318.92Y270.25
F200;#000000
; gcode_before_path_color
M3S0
G4P0
M03 S1300 ; color: #000000

G1X319.08Y269.80
G1X318.62Y269.64
G1X318.46Y270.09
G1X318.92Y270.25
M05
G0X318.00Y272.79
F200;#000000
; gcode_before_path_color
M3S0
G4P0
M03 S1300 ; color: #000000

G1X318.76Y270.67
G1X318.33Y270.52
G1X317.58Y272.64
G1X318.00Y272.79
M05

; Layer:compSvg, outline of:pathSlctbcdvnnc, stroke:#000000, {u'passes': 2, u'feedrate': 200, u'progressive': False, u'color': u'#000000', u'intensity': 1300, u'intensity_user': 100, u'cut_compressor': 100, 'mpr': 13.0, 'svgDPI': 90, u'engrave': False, u'pierce_time': 0, 'laserhead_model_id': None}
; pass:1/2
;_gc_nextgen_svg_id:pathSlctbcdvnce,node:path,mb:color:#000000,mb:id:pathSlctbcdvnce,mb:clone_of:wa_xawumo-0,clip_working_area_clipped:false
G0X320.28Y272.54
F200;#000000
; gcode_before_path_color
M3S0
G4P0
M03 S1300 ; color: #000000

G1X320.12Y272.81
G1X319.91Y272.96
G1X319.43Y272.90
G1X319.09Y272.54
G1X318.73Y272.70
G1X318.85Y272.91
G1X319.35Y273.29
G1X319.67Y273.38
G1X320.01Y273.37
G1X320.46Y273.09
G1X320.76Y272.50
G1X320.83Y271.86
G1X320.59Y271.38
G1X320.03Y271.11
G1X319.74Y271.11
G1X319.41Y271.25
G1X319.11Y271.57
G1X318.90Y272.05
G1X320.28Y272.54
M05
G0X319.59Y271.64
F200;#000000
; gcode_before_path_color
M3S0
G4P0
M03 S1300 ; color: #000000

G1X319.91Y271.49
G1X320.28Y271.62
G1X320.42Y271.84
G1X320.38Y272.24
G1X319.43Y271.90
G1X319.59Y271.64
M05

; pass:2/2
;_gc_nextgen_svg_id:pathSlctbcdvnce,node:path,mb:color:#000000,mb:id:pathSlctbcdvnce,mb:clone_of:wa_xawumo-0,clip_working_area_clipped:false
G0X320.28Y272.54
F200;#000000
; gcode_before_path_color
M3S0
G4P0
M03 S1300 ; color: #000000

G1X320.12Y272.81
G1X319.91Y272.96
G1X319.43Y272.90
G1X319.09Y272.54
G1X318.73Y272.70
G1X318.85Y272.91
G1X319.35Y273.29
G1X319.67Y273.38
G1X320.01Y273.37
G1X320.46Y273.09
G1X320.76Y272.50
G1X320.83Y271.86
G1X320.59Y271.38
G1X320.03Y271.11
G1X319.74Y271.11
G1X319.41Y271.25
G1X319.11Y271.57
G1X318.90Y272.05
G1X320.28Y272.54
M05
G0X319.59Y271.64
F200;#000000
; gcode_before_path_color
M3S0
G4P0
M03 S1300 ; color: #000000

G1X319.91Y271.49
G1X320.28Y271.62
G1X320.42Y271.84
G1X320.38Y272.24
G1X319.43Y271.90
G1X319.59Y271.64
M05

; Layer:compSvg, outline of:pathSlctbcdvnnc, stroke:#000000, {u'passes': 2, u'feedrate': 200, u'progressive': False, u'color': u'#000000', u'intensity': 1300, u'intensity_user': 100, u'cut_compressor': 100, 'mpr': 13.0, 'svgDPI': 90, u'engrave': False, u'pierce_time': 0, 'laserhead_model_id': None}
; pass:1/2
;_gc_nextgen_svg_id:pathSlctbcdvncd,node:path,mb:color:#000000,mb:id:pathSlctbcdvncd,mb:clone_of:wa_mezugo-0,clip_working_area_clipped:false
G0X321.34Y273.97
F200;#000000
; gcode_before_path_color
M3S0
G4P0
M03 S1300 ; color: #000000

G1X321.88Y272.52
G1X322.13Y272.33
G1X322.40Y272.36
G1X322.62Y272.51
G1X322.71Y272.81
G1X322.21Y274.28
G1X322.64Y274.43
G1X323.69Y271.45
G1X323.26Y271.30
G1X322.89Y272.37
G1X322.66Y272.07
G1X322.31Y271.90
G1X321.94Y271.90
G1X321.62Y272.08
G1X321.41Y272.41
G1X320.92Y273.82
G1X321.34Y273.97
M05

; pass:2/2
;_gc_nextgen_svg_id:pathSlctbcdvncd,node:path,mb:color:#000000,mb:id:pathSlctbcdvncd,mb:clone_of:wa_mezugo-0,clip_working_area_clipped:false
G0X321.34Y273.97
F200;#000000
; gcode_before_path_color
M3S0
G4P0
M03 S1300 ; color: #000000

G1X321.88Y272.52
G1X322.13Y272.33
G1X322.40Y272.36
G1X322.62Y272.51
G1X322.71Y272.81
G1X322.21Y274.28
G1X322.64Y274.43
G1X323.69Y271.45
G1X323.26Y271.30
G1X322.89Y272.37
G1X322.66Y272.07
G1X322.31Y271.90
G1X321.94Y271.90
G1X321.62Y272.08
G1X321.41Y272.41
G1X320.92Y273.82
G1X321.34Y273.97
M05

; Layer:compSvg, outline of:pathSlctbcdvnnc, stroke:#000000, {u'passes': 2, u'feedrate': 200, u'progressive': False, u'color': u'#000000', u'intensity': 1300, u'intensity_user': 100, u'cut_compressor': 100, 'mpr': 13.0, 'svgDPI': 90, u'engrave': False, u'pierce_time': 0, 'laserhead_model_id': None}
; pass:1/2
;_gc_nextgen_svg_id:pathSlctbcdvncc,node:path,mb:color:#000000,mb:id:pathSlctbcdvncc,mb:clone_of:wa_kyzoba-0,clip_working_area_clipped:false
G0X324.44Y275.07
F200;#000000
; gcode_before_path_color
M3S0
G4P0
M03 S1300 ; color: #000000

G1X324.81Y275.10
G1X325.17Y274.81
G1X325.66Y273.48
G1X325.90Y273.56
G1X326.02Y273.24
G1X325.77Y273.15
G1X325.99Y272.55
G1X325.56Y272.39
G1X325.35Y273.00
G1X324.94Y272.86
G1X324.82Y273.18
G1X325.23Y273.33
G1X324.74Y274.64
G1X324.59Y274.70
G1X324.31Y274.61
G1X324.18Y274.98
G1X324.44Y275.07
M05

; pass:2/2
;_gc_nextgen_svg_id:pathSlctbcdvncc,node:path,mb:color:#000000,mb:id:pathSlctbcdvncc,mb:clone_of:wa_kyzoba-0,clip_working_area_clipped:false
G0X324.44Y275.07
F200;#000000
; gcode_before_path_color
M3S0
G4P0
M03 S1300 ; color: #000000

G1X324.81Y275.10
G1X325.17Y274.81
G1X325.66Y273.48
G1X325.90Y273.56
G1X326.02Y273.24
G1X325.77Y273.15
G1X325.99Y272.55
G1X325.56Y272.39
G1X325.35Y273.00
G1X324.94Y272.86
G1X324.82Y273.18
G1X325.23Y273.33
G1X324.74Y274.64
G1X324.59Y274.70
G1X324.31Y274.61
G1X324.18Y274.98
G1X324.44Y275.07
M05

; Layer:compSvg, outline of:pathSlctbcdvnnc, stroke:#000000, {u'passes': 2, u'feedrate': 200, u'progressive': False, u'color': u'#000000', u'intensity': 1300, u'intensity_user': 100, u'cut_compressor': 100, 'mpr': 13.0, 'svgDPI': 90, u'engrave': False, u'pierce_time': 0, 'laserhead_model_id': None}
; pass:1/2
;_gc_nextgen_svg_id:pathSlctbcdvncb,node:path,mb:color:#000000,mb:id:pathSlctbcdvncb,mb:clone_of:wa_gykexy-0,clip_working_area_clipped:false
G0X326.25Y275.74
F200;#000000
; gcode_before_path_color
M3S0
G4P0
M03 S1300 ; color: #000000

G1X326.68Y275.80
G1X327.09Y275.67
G1X327.38Y275.39
G1X327.61Y274.92
G1X327.68Y274.44
G1X327.58Y274.02
G1X327.36Y273.76
G1X326.97Y273.55
G1X326.59Y273.50
G1X326.22Y273.62
G1X326.41Y274.01
G1X326.84Y273.93
G1X327.02Y274.02
G1X327.20Y274.23
G1X327.21Y274.66
G1X326.97Y275.20
G1X326.58Y275.39
G1X326.26Y275.29
G1X326.05Y275.01
G1X325.66Y275.19
G1X325.91Y275.55
G1X326.25Y275.74
M05

; pass:2/2
;_gc_nextgen_svg_id:pathSlctbcdvncb,node:path,mb:color:#000000,mb:id:pathSlctbcdvncb,mb:clone_of:wa_gykexy-0,clip_working_area_clipped:false
G0X326.25Y275.74
F200;#000000
; gcode_before_path_color
M3S0
G4P0
M03 S1300 ; color: #000000

G1X326.68Y275.80
G1X327.09Y275.67
G1X327.38Y275.39
G1X327.61Y274.92
G1X327.68Y274.44
G1X327.58Y274.02
G1X327.36Y273.76
G1X326.97Y273.55
G1X326.59Y273.50
G1X326.22Y273.62
G1X326.41Y274.01
G1X326.84Y273.93
G1X327.02Y274.02
G1X327.20Y274.23
G1X327.21Y274.66
G1X326.97Y275.20
G1X326.58Y275.39
G1X326.26Y275.29
G1X326.05Y275.01
G1X325.66Y275.19
G1X325.91Y275.55
G1X326.25Y275.74
M05

; Layer:compSvg, outline of:pathSlctbcdvnnc, stroke:#000000, {u'passes': 2, u'feedrate': 200, u'progressive': False, u'color': u'#000000', u'intensity': 1300, u'intensity_user': 100, u'cut_compressor': 100, 'mpr': 13.0, 'svgDPI': 90, u'engrave': False, u'pierce_time': 0, 'laserhead_model_id': None}
