;Generated from temp.svg 316e44c26c9521b39fcf72e8b7666f9977491174
; gc_nexgen gc_options: beamOS:0.12.1a2.post29.dev0+gd08886f1 on 06cb44f8a3d6, gc_nextgen:0.1, enabled:true, precision:0.05, optimize_travel:true, small_paths_first:true, clip_working_area:true, clipRect:0,0,500,390, userAgent:Mozilla/5.0 (X11; Linux x86_64) AppleWebKit/537.36 (KHTML, like Gecko) Chrome/100.0.4896.75 Safari/537.36
; created:2023-01-11 14:52:46
; laser params: {u'#4f1127': {u'passes': 2, u'feedrate': 100, u'progressive': False, u'color': u'#4f1127', u'intensity': 1300, u'intensity_user': 100, u'cut_compressor': 100, 'mpr': 26.0, 'svgDPI': 90, u'engrave': False, u'pierce_time': 0, 'laserhead_model_id': None}}

; speedup cooling fan
M3S0
G4P0.5
M5
; end speedup cooling fan

; gcode_before_job - color: #4f1127
M100P100 ; mrbeam_compressor: 100
G4P0.2

; Layer:compSvg, outline of:pathSlcrs5y7n28, stroke:#4f1127, {u'passes': 2, u'feedrate': 100, u'progressive': False, u'color': u'#4f1127', u'intensity': 1300, u'intensity_user': 100, u'cut_compressor': 100, 'mpr': 26.0, 'svgDPI': 90, u'engrave': False, u'pierce_time': 0, 'laserhead_model_id': None}
; pass:1/2
;_gc_nextgen_svg_id:wa_vevuzy-0,node:path,mb:id:wa_vevuzy-0,clip_working_area_clipped:false
G0X249.69Y97.40
F100;#4f1127
; gcode_before_path_color
M3S0
G4P0
M03 S1300 ; color: #4f1127

G1X249.88Y97.29
G1X250.02Y97.30
G1X250.92Y98.00
G1X251.38Y98.05
G1X251.77Y97.98
G1X252.44Y97.49
G1X254.05Y96.05
G1X258.62Y91.69
G1X260.03Y90.18
G1X260.26Y89.76
G1X260.32Y89.28
G1X260.23Y88.84
G1X259.78Y88.12
G1X260.07Y87.73
G1X261.80Y89.92
G1X263.26Y91.54
G1X262.79Y91.78
G1X262.38Y91.40
G1X262.04Y91.22
G1X261.76Y91.17
G1X261.23Y91.23
G1X258.78Y93.36
G1X253.60Y98.32
G1X256.03Y97.56
G1X265.10Y94.45
G1X265.76Y95.25
G1X259.88Y106.08
G1X260.84Y105.49
G1X265.39Y102.29
G1X267.23Y100.94
G1X268.12Y100.20
G1X268.45Y99.79
G1X268.60Y99.30
G1X268.55Y98.98
G1X268.10Y98.21
G1X268.15Y98.01
G1X268.41Y97.78
G1X270.01Y99.88
G1X271.80Y101.90
G1X271.34Y102.13
G1X270.66Y101.52
G1X270.26Y101.34
G1X269.77Y101.35
G1X269.31Y101.52
G1X267.48Y102.67
G1X261.92Y106.64
G1X260.49Y107.77
G1X260.05Y108.29
G1X259.97Y109.04
G1X260.48Y109.99
G1X260.16Y110.40
G1X257.67Y107.19
G1X258.68Y105.79
G1X260.12Y103.41
G1X262.07Y99.94
G1X263.73Y96.75
G1X262.18Y97.20
G1X257.38Y98.86
G1X253.79Y100.14
G1X252.36Y100.76
G1X249.54Y97.53
G1X249.69Y97.40
M05
G0X267.20Y118.57
F100;#4f1127
; gcode_before_path_color
M3S0
G4P0
M03 S1300 ; color: #4f1127

G1X267.49Y118.46
G1X268.09Y119.01
G1X268.46Y119.20
G1X268.89Y119.22
G1X269.29Y119.10
G1X270.08Y118.57
G1X273.72Y115.59
G1X277.22Y112.67
G1X278.12Y111.79
G1X278.31Y111.32
G1X278.33Y110.99
G1X277.79Y109.99
G1X278.10Y109.53
G1X282.24Y114.94
G1X282.82Y116.16
G1X283.08Y117.27
G1X283.03Y118.22
G1X282.72Y119.11
G1X282.25Y119.82
G1X281.43Y120.56
G1X280.90Y120.93
G1X280.34Y121.18
G1X279.72Y121.32
G1X279.15Y121.34
G1X278.06Y121.07
G1X277.25Y120.64
G1X276.81Y120.30
G1X276.75Y120.33
G1X276.79Y121.22
G1X276.70Y121.98
G1X276.52Y122.50
G1X276.24Y122.99
G1X275.69Y123.59
G1X275.03Y124.10
G1X274.45Y124.35
G1X273.80Y124.48
G1X273.11Y124.45
G1X272.48Y124.28
G1X271.98Y124.03
G1X271.32Y123.55
G1X266.99Y118.69
G1X267.20Y118.57
M05
G0X305.21Y164.92
F100;#4f1127
; gcode_before_path_color
M3S0
G4P0
M03 S1300 ; color: #4f1127

G1X305.60Y164.68
G1X306.17Y165.25
G1X306.47Y165.43
G1X307.03Y165.46
G1X307.51Y165.31
G1X313.31Y160.61
G1X315.59Y158.70
G1X316.28Y157.99
G1X316.40Y157.66
G1X316.44Y157.16
G1X315.87Y156.21
G1X316.21Y155.84
G1X319.22Y159.61
G1X322.14Y163.07
G1X321.85Y163.57
G1X320.23Y165.37
G1X319.90Y164.89
G1X320.60Y163.78
G1X320.63Y163.41
G1X320.50Y163.02
G1X319.83Y162.04
G1X318.05Y159.87
G1X317.66Y159.49
G1X317.36Y159.47
G1X313.20Y162.79
G1X308.66Y166.63
G1X308.41Y167.01
G1X308.31Y167.49
G1X308.40Y167.91
G1X308.83Y168.69
G1X308.52Y169.06
G1X307.02Y167.10
G1X305.31Y165.13
G1X305.21Y164.92
M05
G0X271.93Y122.70
F100;#4f1127
; gcode_before_path_color
M3S0
G4P0
M03 S1300 ; color: #4f1127

G1X272.47Y123.04
G1X272.91Y123.19
G1X273.37Y123.22
G1X273.83Y123.14
G1X274.41Y122.88
G1X274.92Y122.50
G1X275.33Y122.05
G1X275.62Y121.54
G1X275.83Y120.60
G1X275.66Y119.63
G1X275.30Y118.97
G1X274.10Y117.49
G1X273.84Y117.57
G1X273.32Y117.96
G1X270.18Y120.70
G1X271.93Y122.70
M05
G0X268.11Y113.58
F100;#4f1127
; gcode_before_path_color
M3S0
G4P0
M03 S1300 ; color: #4f1127

G1X267.96Y112.93
G1X267.99Y112.19
G1X268.15Y111.45
G1X268.55Y110.23
G1X268.08Y110.58
G1X267.02Y111.69
G1X266.86Y111.76
G1X265.12Y109.38
G1X265.03Y109.14
G1X265.20Y109.02
G1X265.33Y109.06
G1X265.92Y109.54
G1X266.21Y109.68
G1X266.81Y109.60
G1X267.53Y109.17
G1X269.90Y107.25
G1X272.02Y105.45
G1X272.73Y104.64
G1X272.83Y104.36
G1X272.79Y104.09
G1X272.25Y103.21
G1X272.57Y102.90
G1X275.81Y106.94
G1X275.47Y107.12
G1X274.38Y106.12
G1X274.11Y106.07
G1X273.85Y106.13
G1X272.71Y106.88
G1X269.64Y109.38
G1X269.22Y110.20
G1X268.98Y110.95
G1X268.90Y111.70
G1X269.01Y112.34
G1X269.25Y112.73
G1X269.68Y113.19
G1X270.17Y113.32
G1X270.63Y113.23
G1X271.10Y113.79
G1X270.02Y114.97
G1X269.86Y115.05
G1X269.63Y115.01
G1X269.10Y114.73
G1X268.42Y114.11
G1X268.11Y113.58
M05
G0X280.95Y129.23
F100;#4f1127
; gcode_before_path_color
M3S0
G4P0
M03 S1300 ; color: #4f1127

G1X280.51Y128.27
G1X280.28Y127.23
G1X280.29Y126.17
G1X280.53Y125.11
G1X280.98Y124.14
G1X281.58Y123.31
G1X282.70Y122.34
G1X283.46Y121.87
G1X284.47Y121.50
G1X285.53Y121.36
G1X286.60Y121.45
G1X287.62Y121.76
G1X288.39Y122.20
G1X289.24Y122.94
G1X289.96Y123.84
G1X290.51Y124.78
G1X290.82Y125.64
G1X291.01Y126.55
G1X290.97Y127.04
G1X290.72Y127.28
G1X290.47Y127.20
G1X289.93Y125.85
G1X289.01Y124.50
G1X288.13Y123.66
G1X287.17Y123.12
G1X286.13Y122.89
G1X285.05Y123.01
G1X284.08Y123.42
G1X282.86Y124.29
G1X287.54Y130.18
G1X287.57Y130.45
G1X287.35Y130.78
G1X286.70Y131.17
G1X285.97Y131.45
G1X285.13Y131.59
G1X284.36Y131.58
G1X283.53Y131.40
G1X282.84Y131.08
G1X282.18Y130.62
G1X281.56Y130.02
G1X280.95Y129.23
M05
G0X287.50Y137.13
F100;#4f1127
; gcode_before_path_color
M3S0
G4P0
M03 S1300 ; color: #4f1127

G1X286.85Y135.77
G1X286.62Y134.78
G1X286.74Y134.57
G1X288.01Y133.80
G1X288.13Y133.85
G1X288.32Y134.14
G1X287.91Y135.03
G1X287.90Y135.50
G1X288.01Y136.01
G1X288.51Y136.91
G1X289.39Y137.81
G1X290.09Y138.12
G1X290.80Y138.10
G1X291.65Y137.73
G1X292.65Y136.98
G1X291.35Y135.01
G1X290.80Y134.01
G1X290.34Y132.81
G1X290.21Y131.85
G1X290.39Y130.86
G1X290.89Y130.06
G1X291.76Y129.39
G1X292.71Y129.05
G1X293.56Y129.08
G1X294.24Y129.32
G1X294.83Y129.73
G1X295.38Y130.39
G1X295.76Y131.17
G1X295.98Y132.06
G1X296.03Y133.00
G1X295.91Y134.11
G1X297.01Y133.02
G1X297.22Y132.97
G1X299.34Y135.46
G1X299.02Y135.68
G1X298.25Y134.97
G1X297.86Y134.88
G1X297.59Y134.95
G1X296.80Y135.52
G1X292.60Y138.96
G1X292.00Y139.30
G1X291.34Y139.48
G1X290.28Y139.44
G1X289.25Y139.02
G1X288.34Y138.23
G1X287.50Y137.13
M05
G0X295.78Y147.19
F100;#4f1127
; gcode_before_path_color
M3S0
G4P0
M03 S1300 ; color: #4f1127

G1X295.50Y146.44
G1X295.38Y145.57
G1X295.47Y144.73
G1X295.75Y143.84
G1X294.55Y144.97
G1X294.30Y145.07
G1X292.60Y142.71
G1X292.51Y142.47
G1X292.67Y142.35
G1X292.80Y142.39
G1X293.39Y142.86
G1X293.71Y143.01
G1X294.22Y142.97
G1X294.93Y142.55
G1X297.37Y140.59
G1X299.45Y138.82
G1X300.19Y138.03
G1X300.29Y137.79
G1X300.28Y137.45
G1X299.72Y136.53
G1X300.00Y136.26
G1X303.04Y139.95
G1X302.72Y140.11
G1X301.89Y139.47
G1X301.55Y139.41
G1X301.22Y139.51
G1X299.42Y140.79
G1X296.99Y142.84
G1X296.53Y143.76
G1X296.36Y144.92
G1X296.54Y146.01
G1X297.02Y146.87
G1X297.71Y147.45
G1X298.63Y147.76
G1X299.51Y147.68
G1X300.37Y147.29
G1X303.21Y144.97
G1X304.66Y143.60
G1X304.82Y143.29
G1X304.83Y143.05
G1X304.33Y142.11
G1X304.35Y141.95
G1X304.50Y141.79
G1X306.86Y144.58
G1X307.53Y145.50
G1X307.25Y145.60
G1X306.33Y144.93
G1X306.08Y144.89
G1X305.73Y144.99
G1X301.24Y148.58
G1X300.95Y149.42
G1X300.84Y150.61
G1X301.05Y151.52
G1X301.44Y152.23
G1X302.07Y152.81
G1X302.81Y153.15
G1X303.54Y153.19
G1X304.37Y152.95
G1X304.98Y152.59
G1X306.49Y151.39
G1X309.90Y148.40
G1X310.30Y148.76
G1X312.07Y150.90
G1X311.76Y151.06
G1X310.95Y150.40
G1X310.63Y150.30
G1X310.36Y150.34
G1X306.29Y153.51
G1X305.30Y154.19
G1X304.62Y154.50
G1X304.06Y154.64
G1X303.41Y154.68
G1X302.71Y154.59
G1X301.96Y154.32
G1X301.25Y153.81
G1X300.61Y153.17
G1X300.17Y152.44
G1X299.93Y151.69
G1X299.87Y150.84
G1X300.03Y149.88
G1X300.32Y149.06
G1X299.51Y149.23
G1X298.88Y149.26
G1X298.37Y149.20
G1X297.76Y149.00
G1X296.82Y148.44
G1X296.21Y147.80
G1X295.78Y147.19
M05
G0X317.38Y173.36
F100;#4f1127
; gcode_before_path_color
M3S0
G4P0
M03 S1300 ; color: #4f1127

G1X316.78Y172.09
G1X316.55Y171.10
G1X316.80Y170.81
G1X317.95Y170.10
G1X318.12Y170.23
G1X318.25Y170.50
G1X317.97Y170.97
G1X317.83Y171.41
G1X317.81Y171.80
G1X317.93Y172.32
G1X318.52Y173.32
G1X319.33Y174.12
G1X320.04Y174.42
G1X320.73Y174.41
G1X321.53Y174.06
G1X322.65Y173.31
G1X321.45Y171.58
G1X320.71Y170.28
G1X320.30Y169.21
G1X320.15Y168.20
G1X320.33Y167.17
G1X320.83Y166.36
G1X321.67Y165.70
G1X322.69Y165.36
G1X323.45Y165.37
G1X324.17Y165.62
G1X324.82Y166.09
G1X325.34Y166.75
G1X325.71Y167.50
G1X325.89Y168.24
G1X325.95Y169.07
G1X325.89Y170.35
G1X327.10Y169.27
G1X328.15Y170.42
G1X329.22Y171.81
G1X329.06Y171.92
G1X328.92Y171.90
G1X328.30Y171.36
G1X328.02Y171.21
G1X327.51Y171.25
G1X322.62Y175.21
G1X321.95Y175.61
G1X321.25Y175.80
G1X320.19Y175.74
G1X319.12Y175.30
G1X318.23Y174.51
G1X317.38Y173.36
M05
G0X324.02Y181.44
F100;#4f1127
; gcode_before_path_color
M3S0
G4P0
M03 S1300 ; color: #4f1127

G1X323.71Y180.77
G1X323.54Y180.12
G1X323.50Y179.45
G1X323.60Y178.91
G1X323.87Y178.32
G1X324.24Y177.83
G1X324.75Y177.41
G1X325.28Y177.16
G1X326.14Y177.04
G1X327.07Y177.27
G1X327.76Y177.68
G1X329.84Y179.15
G1X330.62Y179.51
G1X331.14Y179.54
G1X331.47Y179.45
G1X332.00Y179.09
G1X332.31Y178.76
G1X332.60Y178.02
G1X332.54Y177.22
G1X332.13Y176.37
G1X331.37Y175.47
G1X330.77Y175.06
G1X330.22Y174.88
G1X329.84Y174.86
G1X329.35Y174.94
G1X328.47Y175.42
G1X328.12Y175.00
G1X329.71Y173.30
G1X330.58Y173.71
G1X331.79Y174.63
G1X332.60Y175.51
G1X333.27Y176.52
G1X333.55Y177.19
G1X333.71Y177.92
G1X333.73Y178.57
G1X333.61Y179.23
G1X333.35Y179.83
G1X332.96Y180.35
G1X332.43Y180.78
G1X331.83Y181.07
G1X330.91Y181.16
G1X329.82Y180.85
G1X329.08Y180.41
G1X327.20Y179.03
G1X326.50Y178.69
G1X326.13Y178.66
G1X325.59Y178.79
G1X325.28Y178.96
G1X324.98Y179.27
G1X324.65Y179.93
G1X324.63Y180.66
G1X324.83Y181.17
G1X325.54Y182.03
G1X326.03Y182.42
G1X326.74Y182.73
G1X327.39Y182.79
G1X328.18Y182.54
G1X328.44Y182.76
G1X328.46Y182.86
G1X328.33Y183.06
G1X327.28Y184.14
G1X327.02Y184.11
G1X326.66Y183.93
G1X325.46Y183.11
G1X324.65Y182.32
G1X324.02Y181.44
M05
G0X330.96Y189.90
F100;#4f1127
; gcode_before_path_color
M3S0
G4P0
M03 S1300 ; color: #4f1127

G1X330.52Y188.94
G1X330.29Y187.90
G1X330.30Y186.84
G1X330.55Y185.79
G1X330.97Y184.86
G1X331.59Y183.99
G1X332.80Y182.94
G1X333.52Y182.52
G1X334.52Y182.16
G1X335.59Y182.03
G1X336.66Y182.13
G1X337.63Y182.43
G1X338.41Y182.87
G1X339.26Y183.61
G1X339.98Y184.51
G1X340.52Y185.45
G1X340.85Y186.39
G1X341.04Y187.33
G1X340.99Y187.68
G1X340.62Y187.95
G1X340.47Y187.83
G1X339.87Y186.39
G1X339.10Y185.26
G1X338.14Y184.34
G1X337.16Y183.78
G1X336.18Y183.56
G1X335.08Y183.68
G1X333.99Y184.15
G1X332.88Y184.98
G1X337.54Y190.84
G1X337.59Y191.11
G1X337.40Y191.40
G1X336.75Y191.82
G1X335.96Y192.11
G1X335.18Y192.26
G1X334.31Y192.24
G1X333.57Y192.07
G1X332.85Y191.75
G1X332.21Y191.31
G1X331.50Y190.61
G1X330.96Y189.90
M05
G0X338.79Y199.36
F100;#4f1127
; gcode_before_path_color
M3S0
G4P0
M03 S1300 ; color: #4f1127

G1X338.63Y198.70
G1X338.66Y197.91
G1X338.87Y196.99
G1X339.26Y195.92
G1X338.55Y196.52
G1X337.74Y197.39
G1X337.49Y197.50
G1X335.65Y194.94
G1X335.95Y194.70
G1X336.71Y195.34
G1X337.08Y195.41
G1X337.44Y195.35
G1X338.40Y194.75
G1X340.49Y193.06
G1X342.80Y191.06
G1X343.35Y190.44
G1X343.48Y189.96
G1X342.99Y188.96
G1X342.99Y188.82
G1X343.13Y188.69
G1X343.65Y189.22
G1X346.49Y192.66
G1X346.29Y192.80
G1X346.15Y192.81
G1X345.08Y191.86
G1X344.81Y191.79
G1X344.52Y191.86
G1X343.41Y192.60
G1X340.28Y195.15
G1X339.87Y195.97
G1X339.64Y196.68
G1X339.57Y197.39
G1X339.68Y198.03
G1X339.91Y198.49
G1X340.26Y198.85
G1X340.77Y199.03
G1X341.30Y198.99
G1X341.75Y199.55
G1X340.77Y200.62
G1X340.60Y200.74
G1X340.41Y200.76
G1X339.85Y200.52
G1X339.21Y199.97
G1X338.79Y199.36
M05
G0X342.89Y204.33
F100;#4f1127
; gcode_before_path_color
M3S0
G4P0
M03 S1300 ; color: #4f1127

G1X342.58Y203.67
G1X342.41Y203.02
G1X342.38Y202.34
G1X342.47Y201.80
G1X342.72Y201.24
G1X343.13Y200.71
G1X343.59Y200.33
G1X344.21Y200.04
G1X345.06Y199.94
G1X345.94Y200.16
G1X346.68Y200.60
G1X348.83Y202.12
G1X349.39Y202.37
G1X349.91Y202.43
G1X350.34Y202.35
G1X350.80Y202.03
G1X351.22Y201.60
G1X351.48Y200.85
G1X351.40Y200.06
G1X350.95Y199.20
G1X350.19Y198.32
G1X349.60Y197.93
G1X349.04Y197.76
G1X348.22Y197.83
G1X347.34Y198.31
G1X347.02Y197.94
G1X347.02Y197.82
G1X348.54Y196.21
G1X348.82Y196.25
G1X349.35Y196.54
G1X350.62Y197.48
G1X351.43Y198.36
G1X352.14Y199.41
G1X352.42Y200.10
G1X352.58Y200.82
G1X352.61Y201.50
G1X352.49Y202.12
G1X352.24Y202.70
G1X351.91Y203.14
G1X351.26Y203.68
G1X350.75Y203.96
G1X350.32Y204.06
G1X349.79Y204.06
G1X348.85Y203.81
G1X348.01Y203.34
G1X346.05Y201.92
G1X345.38Y201.59
G1X344.98Y201.56
G1X344.52Y201.66
G1X344.14Y201.88
G1X343.81Y202.21
G1X343.52Y202.86
G1X343.51Y203.63
G1X343.73Y204.11
G1X344.48Y204.99
G1X345.06Y205.39
G1X345.70Y205.64
G1X346.34Y205.67
G1X347.01Y205.43
G1X347.16Y205.47
G1X347.31Y205.65
G1X347.33Y205.75
G1X347.20Y205.95
G1X346.15Y207.04
G1X345.90Y207.00
G1X345.55Y206.83
G1X344.35Y206.01
G1X343.48Y205.17
G1X342.89Y204.33
M05
G0X283.15Y130.08
F100;#4f1127
; gcode_before_path_color
M3S0
G4P0
M03 S1300 ; color: #4f1127

G1X283.87Y130.30
G1X284.62Y130.28
G1X285.39Y129.98
G1X285.64Y129.75
G1X285.70Y129.56
G1X285.62Y129.32
G1X285.06Y128.54
G1X282.24Y124.96
G1X281.82Y125.63
G1X281.52Y126.40
G1X281.41Y127.09
G1X281.46Y127.78
G1X281.64Y128.38
G1X281.97Y128.95
G1X282.67Y129.77
G1X283.15Y130.08
M05
G0X333.14Y190.74
F100;#4f1127
; gcode_before_path_color
M3S0
G4P0
M03 S1300 ; color: #4f1127

G1X333.91Y190.97
G1X334.63Y190.95
G1X335.44Y190.62
G1X335.68Y190.39
G1X335.71Y190.18
G1X334.86Y188.94
G1X332.26Y185.63
G1X331.86Y186.25
G1X331.53Y187.04
G1X331.43Y187.72
G1X331.48Y188.42
G1X331.65Y189.06
G1X331.92Y189.55
G1X332.68Y190.43
G1X333.14Y190.74
M05
G0X276.97Y119.36
F100;#4f1127
; gcode_before_path_color
M3S0
G4P0
M03 S1300 ; color: #4f1127

G1X277.61Y119.70
G1X278.28Y119.91
G1X278.94Y119.96
G1X279.49Y119.88
G1X280.17Y119.61
G1X280.79Y119.19
G1X281.26Y118.68
G1X281.59Y118.10
G1X281.74Y117.56
G1X281.77Y116.99
G1X281.69Y116.39
G1X281.49Y115.83
G1X280.80Y114.68
G1X279.93Y113.64
G1X279.54Y113.29
G1X279.22Y113.29
G1X278.53Y113.74
G1X274.67Y116.84
G1X276.39Y118.85
G1X276.97Y119.36
M05
G0X293.55Y136.26
F100;#4f1127
; gcode_before_path_color
M3S0
G4P0
M03 S1300 ; color: #4f1127

G1X295.11Y134.75
G1X295.27Y134.16
G1X295.30Y133.35
G1X295.06Y132.17
G1X294.55Y131.19
G1X293.87Y130.68
G1X293.16Y130.56
G1X292.43Y130.80
G1X291.70Y131.40
G1X291.41Y132.05
G1X291.35Y132.73
G1X291.59Y133.77
G1X292.18Y134.94
G1X293.31Y136.47
G1X293.55Y136.26
M05
G0X323.64Y172.45
F100;#4f1127
; gcode_before_path_color
M3S0
G4P0
M03 S1300 ; color: #4f1127

G1X324.72Y171.43
G1X325.08Y170.98
G1X325.23Y170.40
G1X325.22Y169.58
G1X324.97Y168.40
G1X324.50Y167.56
G1X323.85Y167.01
G1X323.50Y166.89
G1X323.03Y166.88
G1X322.47Y167.03
G1X321.57Y167.80
G1X321.32Y168.40
G1X321.29Y169.17
G1X321.41Y169.76
G1X321.65Y170.41
G1X322.46Y171.77
G1X323.26Y172.80
G1X323.64Y172.45
M05

; pass:2/2
;_gc_nextgen_svg_id:wa_vevuzy-0,node:path,mb:id:wa_vevuzy-0,clip_working_area_clipped:false
G0X249.69Y97.40
F100;#4f1127
; gcode_before_path_color
M3S0
G4P0
M03 S1300 ; color: #4f1127

G1X249.88Y97.29
G1X250.02Y97.30
G1X250.92Y98.00
G1X251.38Y98.05
G1X251.77Y97.98
G1X252.44Y97.49
G1X254.05Y96.05
G1X258.62Y91.69
G1X260.03Y90.18
G1X260.26Y89.76
G1X260.32Y89.28
G1X260.23Y88.84
G1X259.78Y88.12
G1X260.07Y87.73
G1X261.80Y89.92
G1X263.26Y91.54
G1X262.79Y91.78
G1X262.38Y91.40
G1X262.04Y91.22
G1X261.76Y91.17
G1X261.23Y91.23
G1X258.78Y93.36
G1X253.60Y98.32
G1X256.03Y97.56
G1X265.10Y94.45
G1X265.76Y95.25
G1X259.88Y106.08
G1X260.84Y105.49
G1X265.39Y102.29
G1X267.23Y100.94
G1X268.12Y100.20
G1X268.45Y99.79
G1X268.60Y99.30
G1X268.55Y98.98
G1X268.10Y98.21
G1X268.15Y98.01
G1X268.41Y97.78
G1X270.01Y99.88
G1X271.80Y101.90
G1X271.34Y102.13
G1X270.66Y101.52
G1X270.26Y101.34
G1X269.77Y101.35
G1X269.31Y101.52
G1X267.48Y102.67
G1X261.92Y106.64
G1X260.49Y107.77
G1X260.05Y108.29
G1X259.97Y109.04
G1X260.48Y109.99
G1X260.16Y110.40
G1X257.67Y107.19
G1X258.68Y105.79
G1X260.12Y103.41
G1X262.07Y99.94
G1X263.73Y96.75
G1X262.18Y97.20
G1X257.38Y98.86
G1X253.79Y100.14
G1X252.36Y100.76
G1X249.54Y97.53
G1X249.69Y97.40
M05
G0X267.20Y118.57
F100;#4f1127
; gcode_before_path_color
M3S0
G4P0
M03 S1300 ; color: #4f1127

G1X267.49Y118.46
G1X268.09Y119.01
G1X268.46Y119.20
G1X268.89Y119.22
G1X269.29Y119.10
G1X270.08Y118.57
G1X273.72Y115.59
G1X277.22Y112.67
G1X278.12Y111.79
G1X278.31Y111.32
G1X278.33Y110.99
G1X277.79Y109.99
G1X278.10Y109.53
G1X282.24Y114.94
G1X282.82Y116.16
G1X283.08Y117.27
G1X283.03Y118.22
G1X282.72Y119.11
G1X282.25Y119.82
G1X281.43Y120.56
G1X280.90Y120.93
G1X280.34Y121.18
G1X279.72Y121.32
G1X279.15Y121.34
G1X278.06Y121.07
G1X277.25Y120.64
G1X276.81Y120.30
G1X276.75Y120.33
G1X276.79Y121.22
G1X276.70Y121.98
G1X276.52Y122.50
G1X276.24Y122.99
G1X275.69Y123.59
G1X275.03Y124.10
G1X274.45Y124.35
G1X273.80Y124.48
G1X273.11Y124.45
G1X272.48Y124.28
G1X271.98Y124.03
G1X271.32Y123.55
G1X266.99Y118.69
G1X267.20Y118.57
M05
G0X305.21Y164.92
F100;#4f1127
; gcode_before_path_color
M3S0
G4P0
M03 S1300 ; color: #4f1127

G1X305.60Y164.68
G1X306.17Y165.25
G1X306.47Y165.43
G1X307.03Y165.46
G1X307.51Y165.31
G1X313.31Y160.61
G1X315.59Y158.70
G1X316.28Y157.99
G1X316.40Y157.66
G1X316.44Y157.16
G1X315.87Y156.21
G1X316.21Y155.84
G1X319.22Y159.61
G1X322.14Y163.07
G1X321.85Y163.57
G1X320.23Y165.37
G1X319.90Y164.89
G1X320.60Y163.78
G1X320.63Y163.41
G1X320.50Y163.02
G1X319.83Y162.04
G1X318.05Y159.87
G1X317.66Y159.49
G1X317.36Y159.47
G1X313.20Y162.79
G1X308.66Y166.63
G1X308.41Y167.01
G1X308.31Y167.49
G1X308.40Y167.91
G1X308.83Y168.69
G1X308.52Y169.06
G1X307.02Y167.10
G1X305.31Y165.13
G1X305.21Y164.92
M05
G0X271.93Y122.70
F100;#4f1127
; gcode_before_path_color
M3S0
G4P0
M03 S1300 ; color: #4f1127

G1X272.47Y123.04
G1X272.91Y123.19
G1X273.37Y123.22
G1X273.83Y123.14
G1X274.41Y122.88
G1X274.92Y122.50
G1X275.33Y122.05
G1X275.62Y121.54
G1X275.83Y120.60
G1X275.66Y119.63
G1X275.30Y118.97
G1X274.10Y117.49
G1X273.84Y117.57
G1X273.32Y117.96
G1X270.18Y120.70
G1X271.93Y122.70
M05
G0X268.11Y113.58
F100;#4f1127
; gcode_before_path_color
M3S0
G4P0
M03 S1300 ; color: #4f1127

G1X267.96Y112.93
G1X267.99Y112.19
G1X268.15Y111.45
G1X268.55Y110.23
G1X268.08Y110.58
G1X267.02Y111.69
G1X266.86Y111.76
G1X265.12Y109.38
G1X265.03Y109.14
G1X265.20Y109.02
G1X265.33Y109.06
G1X265.92Y109.54
G1X266.21Y109.68
G1X266.81Y109.60
G1X267.53Y109.17
G1X269.90Y107.25
G1X272.02Y105.45
G1X272.73Y104.64
G1X272.83Y104.36
G1X272.79Y104.09
G1X272.25Y103.21
G1X272.57Y102.90
G1X275.81Y106.94
G1X275.47Y107.12
G1X274.38Y106.12
G1X274.11Y106.07
G1X273.85Y106.13
G1X272.71Y106.88
G1X269.64Y109.38
G1X269.22Y110.20
G1X268.98Y110.95
G1X268.90Y111.70
G1X269.01Y112.34
G1X269.25Y112.73
G1X269.68Y113.19
G1X270.17Y113.32
G1X270.63Y113.23
G1X271.10Y113.79
G1X270.02Y114.97
G1X269.86Y115.05
G1X269.63Y115.01
G1X269.10Y114.73
G1X268.42Y114.11
G1X268.11Y113.58
M05
G0X280.95Y129.23
F100;#4f1127
; gcode_before_path_color
M3S0
G4P0
M03 S1300 ; color: #4f1127

G1X280.51Y128.27
G1X280.28Y127.23
G1X280.29Y126.17
G1X280.53Y125.11
G1X280.98Y124.14
G1X281.58Y123.31
G1X282.70Y122.34
G1X283.46Y121.87
G1X284.47Y121.50
G1X285.53Y121.36
G1X286.60Y121.45
G1X287.62Y121.76
G1X288.39Y122.20
G1X289.24Y122.94
G1X289.96Y123.84
G1X290.51Y124.78
G1X290.82Y125.64
G1X291.01Y126.55
G1X290.97Y127.04
G1X290.72Y127.28
G1X290.47Y127.20
G1X289.93Y125.85
G1X289.01Y124.50
G1X288.13Y123.66
G1X287.17Y123.12
G1X286.13Y122.89
G1X285.05Y123.01
G1X284.08Y123.42
G1X282.86Y124.29
G1X287.54Y130.18
G1X287.57Y130.45
G1X287.35Y130.78
G1X286.70Y131.17
G1X285.97Y131.45
G1X285.13Y131.59
G1X284.36Y131.58
G1X283.53Y131.40
G1X282.84Y131.08
G1X282.18Y130.62
G1X281.56Y130.02
G1X280.95Y129.23
M05
G0X287.50Y137.13
F100;#4f1127
; gcode_before_path_color
M3S0
G4P0
M03 S1300 ; color: #4f1127

G1X286.85Y135.77
G1X286.62Y134.78
G1X286.74Y134.57
G1X288.01Y133.80
G1X288.13Y133.85
G1X288.32Y134.14
G1X287.91Y135.03
G1X287.90Y135.50
G1X288.01Y136.01
G1X288.51Y136.91
G1X289.39Y137.81
G1X290.09Y138.12
G1X290.80Y138.10
G1X291.65Y137.73
G1X292.65Y136.98
G1X291.35Y135.01
G1X290.80Y134.01
G1X290.34Y132.81
G1X290.21Y131.85
G1X290.39Y130.86
G1X290.89Y130.06
G1X291.76Y129.39
G1X292.71Y129.05
G1X293.56Y129.08
G1X294.24Y129.32
G1X294.83Y129.73
G1X295.38Y130.39
G1X295.76Y131.17
G1X295.98Y132.06
G1X296.03Y133.00
G1X295.91Y134.11
G1X297.01Y133.02
G1X297.22Y132.97
G1X299.34Y135.46
G1X299.02Y135.68
G1X298.25Y134.97
G1X297.86Y134.88
G1X297.59Y134.95
G1X296.80Y135.52
G1X292.60Y138.96
G1X292.00Y139.30
G1X291.34Y139.48
G1X290.28Y139.44
G1X289.25Y139.02
G1X288.34Y138.23
G1X287.50Y137.13
M05
G0X295.78Y147.19
F100;#4f1127
; gcode_before_path_color
M3S0
G4P0
M03 S1300 ; color: #4f1127

G1X295.50Y146.44
G1X295.38Y145.57
G1X295.47Y144.73
G1X295.75Y143.84
G1X294.55Y144.97
G1X294.30Y145.07
G1X292.60Y142.71
G1X292.51Y142.47
G1X292.67Y142.35
G1X292.80Y142.39
G1X293.39Y142.86
G1X293.71Y143.01
G1X294.22Y142.97
G1X294.93Y142.55
G1X297.37Y140.59
G1X299.45Y138.82
G1X300.19Y138.03
G1X300.29Y137.79
G1X300.28Y137.45
G1X299.72Y136.53
G1X300.00Y136.26
G1X303.04Y139.95
G1X302.72Y140.11
G1X301.89Y139.47
G1X301.55Y139.41
G1X301.22Y139.51
G1X299.42Y140.79
G1X296.99Y142.84
G1X296.53Y143.76
G1X296.36Y144.92
G1X296.54Y146.01
G1X297.02Y146.87
G1X297.71Y147.45
G1X298.63Y147.76
G1X299.51Y147.68
G1X300.37Y147.29
G1X303.21Y144.97
G1X304.66Y143.60
G1X304.82Y143.29
G1X304.83Y143.05
G1X304.33Y142.11
G1X304.35Y141.95
G1X304.50Y141.79
G1X306.86Y144.58
G1X307.53Y145.50
G1X307.25Y145.60
G1X306.33Y144.93
G1X306.08Y144.89
G1X305.73Y144.99
G1X301.24Y148.58
G1X300.95Y149.42
G1X300.84Y150.61
G1X301.05Y151.52
G1X301.44Y152.23
G1X302.07Y152.81
G1X302.81Y153.15
G1X303.54Y153.19
G1X304.37Y152.95
G1X304.98Y152.59
G1X306.49Y151.39
G1X309.90Y148.40
G1X310.30Y148.76
G1X312.07Y150.90
G1X311.76Y151.06
G1X310.95Y150.40
G1X310.63Y150.30
G1X310.36Y150.34
G1X306.29Y153.51
G1X305.30Y154.19
G1X304.62Y154.50
G1X304.06Y154.64
G1X303.41Y154.68
G1X302.71Y154.59
G1X301.96Y154.32
G1X301.25Y153.81
G1X300.61Y153.17
G1X300.17Y152.44
G1X299.93Y151.69
G1X299.87Y150.84
G1X300.03Y149.88
G1X300.32Y149.06
G1X299.51Y149.23
G1X298.88Y149.26
G1X298.37Y149.20
G1X297.76Y149.00
G1X296.82Y148.44
G1X296.21Y147.80
G1X295.78Y147.19
M05
G0X317.38Y173.36
F100;#4f1127
; gcode_before_path_color
M3S0
G4P0
M03 S1300 ; color: #4f1127

G1X316.78Y172.09
G1X316.55Y171.10
G1X316.80Y170.81
G1X317.95Y170.10
G1X318.12Y170.23
G1X318.25Y170.50
G1X317.97Y170.97
G1X317.83Y171.41
G1X317.81Y171.80
G1X317.93Y172.32
G1X318.52Y173.32
G1X319.33Y174.12
G1X320.04Y174.42
G1X320.73Y174.41
G1X321.53Y174.06
G1X322.65Y173.31
G1X321.45Y171.58
G1X320.71Y170.28
G1X320.30Y169.21
G1X320.15Y168.20
G1X320.33Y167.17
G1X320.83Y166.36
G1X321.67Y165.70
G1X322.69Y165.36
G1X323.45Y165.37
G1X324.17Y165.62
G1X324.82Y166.09
G1X325.34Y166.75
G1X325.71Y167.50
G1X325.89Y168.24
G1X325.95Y169.07
G1X325.89Y170.35
G1X327.10Y169.27
G1X328.15Y170.42
G1X329.22Y171.81
G1X329.06Y171.92
G1X328.92Y171.90
G1X328.30Y171.36
G1X328.02Y171.21
G1X327.51Y171.25
G1X322.62Y175.21
G1X321.95Y175.61
G1X321.25Y175.80
G1X320.19Y175.74
G1X319.12Y175.30
G1X318.23Y174.51
G1X317.38Y173.36
M05
G0X324.02Y181.44
F100;#4f1127
; gcode_before_path_color
M3S0
G4P0
M03 S1300 ; color: #4f1127

G1X323.71Y180.77
G1X323.54Y180.12
G1X323.50Y179.45
G1X323.60Y178.91
G1X323.87Y178.32
G1X324.24Y177.83
G1X324.75Y177.41
G1X325.28Y177.16
G1X326.14Y177.04
G1X327.07Y177.27
G1X327.76Y177.68
G1X329.84Y179.15
G1X330.62Y179.51
G1X331.14Y179.54
G1X331.47Y179.45
G1X332.00Y179.09
G1X332.31Y178.76
G1X332.60Y178.02
G1X332.54Y177.22
G1X332.13Y176.37
G1X331.37Y175.47
G1X330.77Y175.06
G1X330.22Y174.88
G1X329.84Y174.86
G1X329.35Y174.94
G1X328.47Y175.42
G1X328.12Y175.00
G1X329.71Y173.30
G1X330.58Y173.71
G1X331.79Y174.63
G1X332.60Y175.51
G1X333.27Y176.52
G1X333.55Y177.19
G1X333.71Y177.92
G1X333.73Y178.57
G1X333.61Y179.23
G1X333.35Y179.83
G1X332.96Y180.35
G1X332.43Y180.78
G1X331.83Y181.07
G1X330.91Y181.16
G1X329.82Y180.85
G1X329.08Y180.41
G1X327.20Y179.03
G1X326.50Y178.69
G1X326.13Y178.66
G1X325.59Y178.79
G1X325.28Y178.96
G1X324.98Y179.27
G1X324.65Y179.93
G1X324.63Y180.66
G1X324.83Y181.17
G1X325.54Y182.03
G1X326.03Y182.42
G1X326.74Y182.73
G1X327.39Y182.79
G1X328.18Y182.54
G1X328.44Y182.76
G1X328.46Y182.86
G1X328.33Y183.06
G1X327.28Y184.14
G1X327.02Y184.11
G1X326.66Y183.93
G1X325.46Y183.11
G1X324.65Y182.32
G1X324.02Y181.44
M05
G0X330.96Y189.90
F100;#4f1127
; gcode_before_path_color
M3S0
G4P0
M03 S1300 ; color: #4f1127

G1X330.52Y188.94
G1X330.29Y187.90
G1X330.30Y186.84
G1X330.55Y185.79
G1X330.97Y184.86
G1X331.59Y183.99
G1X332.80Y182.94
G1X333.52Y182.52
G1X334.52Y182.16
G1X335.59Y182.03
G1X336.66Y182.13
G1X337.63Y182.43
G1X338.41Y182.87
G1X339.26Y183.61
G1X339.98Y184.51
G1X340.52Y185.45
G1X340.85Y186.39
G1X341.04Y187.33
G1X340.99Y187.68
G1X340.62Y187.95
G1X340.47Y187.83
G1X339.87Y186.39
G1X339.10Y185.26
G1X338.14Y184.34
G1X337.16Y183.78
G1X336.18Y183.56
G1X335.08Y183.68
G1X333.99Y184.15
G1X332.88Y184.98
G1X337.54Y190.84
G1X337.59Y191.11
G1X337.40Y191.40
G1X336.75Y191.82
G1X335.96Y192.11
G1X335.18Y192.26
G1X334.31Y192.24
G1X333.57Y192.07
G1X332.85Y191.75
G1X332.21Y191.31
G1X331.50Y190.61
G1X330.96Y189.90
M05
G0X338.79Y199.36
F100;#4f1127
; gcode_before_path_color
M3S0
G4P0
M03 S1300 ; color: #4f1127

G1X338.63Y198.70
G1X338.66Y197.91
G1X338.87Y196.99
G1X339.26Y195.92
G1X338.55Y196.52
G1X337.74Y197.39
G1X337.49Y197.50
G1X335.65Y194.94
G1X335.95Y194.70
G1X336.71Y195.34
G1X337.08Y195.41
G1X337.44Y195.35
G1X338.40Y194.75
G1X340.49Y193.06
G1X342.80Y191.06
G1X343.35Y190.44
G1X343.48Y189.96
G1X342.99Y188.96
G1X342.99Y188.82
G1X343.13Y188.69
G1X343.65Y189.22
G1X346.49Y192.66
G1X346.29Y192.80
G1X346.15Y192.81
G1X345.08Y191.86
G1X344.81Y191.79
G1X344.52Y191.86
G1X343.41Y192.60
G1X340.28Y195.15
G1X339.87Y195.97
G1X339.64Y196.68
G1X339.57Y197.39
G1X339.68Y198.03
G1X339.91Y198.49
G1X340.26Y198.85
G1X340.77Y199.03
G1X341.30Y198.99
G1X341.75Y199.55
G1X340.77Y200.62
G1X340.60Y200.74
G1X340.41Y200.76
G1X339.85Y200.52
G1X339.21Y199.97
G1X338.79Y199.36
M05
G0X342.89Y204.33
F100;#4f1127
; gcode_before_path_color
M3S0
G4P0
M03 S1300 ; color: #4f1127

G1X342.58Y203.67
G1X342.41Y203.02
G1X342.38Y202.34
G1X342.47Y201.80
G1X342.72Y201.24
G1X343.13Y200.71
G1X343.59Y200.33
G1X344.21Y200.04
G1X345.06Y199.94
G1X345.94Y200.16
G1X346.68Y200.60
G1X348.83Y202.12
G1X349.39Y202.37
G1X349.91Y202.43
G1X350.34Y202.35
G1X350.80Y202.03
G1X351.22Y201.60
G1X351.48Y200.85
G1X351.40Y200.06
G1X350.95Y199.20
G1X350.19Y198.32
G1X349.60Y197.93
G1X349.04Y197.76
G1X348.22Y197.83
G1X347.34Y198.31
G1X347.02Y197.94
G1X347.02Y197.82
G1X348.54Y196.21
G1X348.82Y196.25
G1X349.35Y196.54
G1X350.62Y197.48
G1X351.43Y198.36
G1X352.14Y199.41
G1X352.42Y200.10
G1X352.58Y200.82
G1X352.61Y201.50
G1X352.49Y202.12
G1X352.24Y202.70
G1X351.91Y203.14
G1X351.26Y203.68
G1X350.75Y203.96
G1X350.32Y204.06
G1X349.79Y204.06
G1X348.85Y203.81
G1X348.01Y203.34
G1X346.05Y201.92
G1X345.38Y201.59
G1X344.98Y201.56
G1X344.52Y201.66
G1X344.14Y201.88
G1X343.81Y202.21
G1X343.52Y202.86
G1X343.51Y203.63
G1X343.73Y204.11
G1X344.48Y204.99
G1X345.06Y205.39
G1X345.70Y205.64
G1X346.34Y205.67
G1X347.01Y205.43
G1X347.16Y205.47
G1X347.31Y205.65
G1X347.33Y205.75
G1X347.20Y205.95
G1X346.15Y207.04
G1X345.90Y207.00
G1X345.55Y206.83
G1X344.35Y206.01
G1X343.48Y205.17
G1X342.89Y204.33
M05
G0X283.15Y130.08
F100;#4f1127
; gcode_before_path_color
M3S0
G4P0
M03 S1300 ; color: #4f1127

G1X283.87Y130.30
G1X284.62Y130.28
G1X285.39Y129.98
G1X285.64Y129.75
G1X285.70Y129.56
G1X285.62Y129.32
G1X285.06Y128.54
G1X282.24Y124.96
G1X281.82Y125.63
G1X281.52Y126.40
G1X281.41Y127.09
G1X281.46Y127.78
G1X281.64Y128.38
G1X281.97Y128.95
G1X282.67Y129.77
G1X283.15Y130.08
M05
G0X333.14Y190.74
F100;#4f1127
; gcode_before_path_color
M3S0
G4P0
M03 S1300 ; color: #4f1127

G1X333.91Y190.97
G1X334.63Y190.95
G1X335.44Y190.62
G1X335.68Y190.39
G1X335.71Y190.18
G1X334.86Y188.94
G1X332.26Y185.63
G1X331.86Y186.25
G1X331.53Y187.04
G1X331.43Y187.72
G1X331.48Y188.42
G1X331.65Y189.06
G1X331.92Y189.55
G1X332.68Y190.43
G1X333.14Y190.74
M05
G0X276.97Y119.36
F100;#4f1127
; gcode_before_path_color
M3S0
G4P0
M03 S1300 ; color: #4f1127

G1X277.61Y119.70
G1X278.28Y119.91
G1X278.94Y119.96
G1X279.49Y119.88
G1X280.17Y119.61
G1X280.79Y119.19
G1X281.26Y118.68
G1X281.59Y118.10
G1X281.74Y117.56
G1X281.77Y116.99
G1X281.69Y116.39
G1X281.49Y115.83
G1X280.80Y114.68
G1X279.93Y113.64
G1X279.54Y113.29
G1X279.22Y113.29
G1X278.53Y113.74
G1X274.67Y116.84
G1X276.39Y118.85
G1X276.97Y119.36
M05
G0X293.55Y136.26
F100;#4f1127
; gcode_before_path_color
M3S0
G4P0
M03 S1300 ; color: #4f1127

G1X295.11Y134.75
G1X295.27Y134.16
G1X295.30Y133.35
G1X295.06Y132.17
G1X294.55Y131.19
G1X293.87Y130.68
G1X293.16Y130.56
G1X292.43Y130.80
G1X291.70Y131.40
G1X291.41Y132.05
G1X291.35Y132.73
G1X291.59Y133.77
G1X292.18Y134.94
G1X293.31Y136.47
G1X293.55Y136.26
M05
G0X323.64Y172.45
F100;#4f1127
; gcode_before_path_color
M3S0
G4P0
M03 S1300 ; color: #4f1127

G1X324.72Y171.43
G1X325.08Y170.98
G1X325.23Y170.40
G1X325.22Y169.58
G1X324.97Y168.40
G1X324.50Y167.56
G1X323.85Y167.01
G1X323.50Y166.89
G1X323.03Y166.88
G1X322.47Y167.03
G1X321.57Y167.80
G1X321.32Y168.40
G1X321.29Y169.17
G1X321.41Y169.76
G1X321.65Y170.41
G1X322.46Y171.77
G1X323.26Y172.80
G1X323.64Y172.45
M05

; end of job
M05
M100P0 ; mrbeam_compressor off
