;Generated from temp.svg 571e79803790fa2766793b8ea08cd30d7c5270c0
; gc_nexgen gc_options: beamOS:0.12.1a2.post31.dev0+gf43f7839 on 842a87f31fcd, gc_nextgen:0.1, enabled:true, precision:0.05, optimize_travel:true, small_paths_first:true, clip_working_area:true, clipRect:0,0,500,390, userAgent:Mozilla/5.0 (X11; Linux x86_64) AppleWebKit/537.36 (KHTML, like Gecko) Chrome/100.0.4896.75 Safari/537.36
; created:2023-01-16 12:57:48
; laser params: {u'#000000': {u'passes': 2, u'feedrate': 200, u'progressive': False, u'color': u'#000000', u'intensity': 1300, u'intensity_user': 100, u'cut_compressor': 100, 'mpr': 13.0, 'svgDPI': 90, u'engrave': False, u'pierce_time': 0, 'laserhead_model_id': None}}

; speedup cooling fan
M3S0
G4P0.5
M5
; end speedup cooling fan

; gcode_before_job - color: #000000
M100P100 ; mrbeam_compressor: 100
G4P0.2

; Layer:compSvg, outline of:pathSlcyt9mgm2g, stroke:#000000, {u'passes': 2, u'feedrate': 200, u'progressive': False, u'color': u'#000000', u'intensity': 1300, u'intensity_user': 100, u'cut_compressor': 100, 'mpr': 13.0, 'svgDPI': 90, u'engrave': False, u'pierce_time': 0, 'laserhead_model_id': None}
; pass:1/2
;_gc_nextgen_svg_id:wa_tylomu-0,node:path,mb:id:wa_tylomu-0,clip_working_area_clipped:false
G0X413.96Y165.20
F200;#000000
; gcode_before_path_color
M3S0
G4P0
M03 S1300 ; color: #000000

G1X413.61Y164.56
G1X417.66Y162.04
G1X416.82Y161.75
G1X416.19Y161.37
G1X415.31Y160.32
G1X414.97Y159.51
G1X414.86Y158.78
G1X414.97Y157.89
G1X415.35Y156.95
G1X415.88Y156.18
G1X416.63Y155.43
G1X417.58Y154.77
G1X418.58Y154.25
G1X419.57Y153.93
G1X420.51Y153.80
G1X421.32Y153.87
G1X422.07Y154.10
G1X422.81Y154.52
G1X423.51Y155.38
G1X423.94Y156.30
G1X424.08Y157.25
G1X423.93Y158.21
G1X424.83Y157.81
G1X425.51Y158.91
G1X425.51Y159.01
G1X414.50Y165.86
G1X414.37Y165.87
G1X413.96Y165.20
M05
G0X418.13Y169.57
F200;#000000
; gcode_before_path_color
M3S0
G4P0
M03 S1300 ; color: #000000

G1X426.93Y161.26
G1X428.05Y162.40
G1X420.76Y169.14
G1X430.75Y165.25
G1X431.12Y165.58
G1X431.61Y166.19
G1X427.25Y175.92
G1X434.34Y169.01
G1X435.46Y170.20
G1X426.47Y178.73
G1X425.03Y177.16
G1X429.50Y167.35
G1X419.41Y171.29
G1X418.00Y169.86
G1X417.97Y169.77
G1X418.13Y169.57
M05
G0X439.87Y180.89
F200;#000000
; gcode_before_path_color
M3S0
G4P0
M03 S1300 ; color: #000000

G1X442.83Y175.45
G1X446.52Y177.38
G1X447.75Y178.20
G1X448.33Y178.81
G1X448.72Y179.41
G1X448.97Y180.05
G1X449.08Y180.80
G1X449.01Y181.47
G1X448.77Y182.21
G1X448.37Y182.92
G1X447.90Y183.48
G1X447.47Y183.80
G1X446.79Y184.11
G1X446.24Y184.22
G1X445.45Y184.19
G1X445.33Y184.25
G1X445.78Y185.06
G1X445.98Y186.10
G1X445.79Y186.99
G1X445.29Y187.87
G1X444.80Y188.38
G1X444.16Y188.80
G1X443.67Y188.97
G1X443.04Y189.03
G1X442.11Y188.92
G1X441.13Y188.59
G1X436.96Y186.33
G1X439.87Y180.89
M05
G0X432.29Y179.12
F200;#000000
; gcode_before_path_color
M3S0
G4P0
M03 S1300 ; color: #000000

G1X437.75Y171.73
G1X438.98Y172.59
G1X438.89Y172.83
G1X435.14Y178.02
G1X435.12Y178.76
G1X435.38Y179.52
G1X435.92Y180.10
G1X436.73Y180.65
G1X435.87Y181.82
G1X435.55Y181.72
G1X435.24Y181.50
G1X434.52Y180.76
G1X434.25Y180.06
G1X434.18Y179.24
G1X433.57Y179.99
G1X432.29Y179.12
M05
G0X417.37Y160.75
F200;#000000
; gcode_before_path_color
M3S0
G4P0
M03 S1300 ; color: #000000

G1X418.09Y161.13
G1X419.01Y161.19
G1X422.61Y158.97
G1X422.92Y158.17
G1X422.96Y157.53
G1X422.74Y156.72
G1X422.28Y156.00
G1X421.86Y155.66
G1X421.25Y155.41
G1X420.67Y155.34
G1X420.04Y155.41
G1X419.40Y155.61
G1X418.65Y155.96
G1X417.17Y157.10
G1X416.82Y157.52
G1X416.56Y158.01
G1X416.41Y158.49
G1X416.37Y158.97
G1X416.44Y159.43
G1X416.64Y159.88
G1X416.98Y160.42
G1X417.37Y160.75
M05
G0X441.58Y187.30
F200;#000000
; gcode_before_path_color
M3S0
G4P0
M03 S1300 ; color: #000000

G1X442.15Y187.49
G1X442.75Y187.56
G1X443.18Y187.49
G1X443.56Y187.29
G1X443.97Y186.88
G1X444.28Y186.35
G1X444.43Y185.86
G1X444.42Y185.30
G1X444.15Y184.59
G1X443.60Y183.98
G1X442.24Y183.18
G1X440.86Y182.51
G1X439.04Y185.89
G1X441.58Y187.30
M05
G0X410.81Y151.55
F200;#000000
; gcode_before_path_color
M3S0
G4P0
M03 S1300 ; color: #000000

G1X410.48Y150.70
G1X410.35Y149.95
G1X410.40Y149.10
G1X410.63Y148.29
G1X410.92Y147.71
G1X411.40Y147.03
G1X412.29Y146.26
G1X412.96Y145.83
G1X414.04Y145.37
G1X414.95Y145.12
G1X415.79Y145.06
G1X416.74Y145.15
G1X417.61Y145.50
G1X418.26Y145.89
G1X418.85Y146.49
G1X419.32Y147.16
G1X419.76Y148.28
G1X419.94Y149.42
G1X419.72Y150.64
G1X419.24Y151.54
G1X418.22Y150.96
G1X418.55Y150.05
G1X418.64Y149.29
G1X418.51Y148.54
G1X418.11Y147.72
G1X417.73Y147.28
G1X417.17Y146.89
G1X416.56Y146.68
G1X415.90Y146.60
G1X415.08Y146.70
G1X414.56Y146.89
G1X416.95Y152.64
G1X415.90Y153.07
G1X414.93Y153.35
G1X414.02Y153.44
G1X413.12Y153.37
G1X412.43Y153.14
G1X411.85Y152.79
G1X411.25Y152.18
G1X410.81Y151.55
M05
G0X403.04Y139.72
F200;#000000
; gcode_before_path_color
M3S0
G4P0
M03 S1300 ; color: #000000

G1X402.88Y139.05
G1X402.92Y138.98
G1X415.59Y135.73
G1X415.96Y137.25
G1X412.81Y138.05
G1X412.10Y139.24
G1X417.01Y141.37
G1X417.43Y143.09
G1X411.26Y140.57
G1X408.40Y144.98
G1X407.95Y143.11
G1X410.91Y138.55
G1X403.28Y140.43
G1X403.04Y139.72
M05
G0X412.85Y151.78
F200;#000000
; gcode_before_path_color
M3S0
G4P0
M03 S1300 ; color: #000000

G1X413.37Y151.94
G1X413.85Y151.97
G1X414.49Y151.89
G1X415.10Y151.70
G1X413.31Y147.45
G1X412.73Y147.85
G1X412.14Y148.43
G1X411.82Y149.02
G1X411.67Y149.64
G1X411.71Y150.30
G1X411.95Y150.93
G1X412.43Y151.52
G1X412.85Y151.78
M05
G0X442.84Y182.01
F200;#000000
; gcode_before_path_color
M3S0
G4P0
M03 S1300 ; color: #000000

G1X444.26Y182.75
G1X444.81Y182.95
G1X445.53Y183.01
G1X446.12Y182.85
G1X446.80Y182.30
G1X447.31Y181.39
G1X447.45Y180.59
G1X447.24Y179.79
G1X446.87Y179.27
G1X446.38Y178.86
G1X443.67Y177.39
G1X441.56Y181.27
G1X442.84Y182.01
M05
G0X450.85Y188.86
F200;#000000
; gcode_before_path_color
M3S0
G4P0
M03 S1300 ; color: #000000

G1X450.44Y188.07
G1X450.22Y187.32
G1X450.13Y186.48
G1X450.20Y185.63
G1X450.45Y184.58
G1X450.84Y183.56
G1X451.31Y182.74
G1X451.87Y182.11
G1X452.51Y181.62
G1X453.19Y181.29
G1X453.94Y181.10
G1X454.80Y181.06
G1X455.63Y181.19
G1X456.47Y181.49
G1X457.25Y181.92
G1X457.82Y182.42
G1X458.42Y183.24
G1X458.76Y184.13
G1X457.63Y184.48
G1X457.10Y183.59
G1X456.47Y182.95
G1X455.62Y182.54
G1X454.64Y182.42
G1X453.78Y182.63
G1X453.13Y183.05
G1X452.62Y183.59
G1X452.15Y184.52
G1X457.98Y186.56
G1X457.86Y187.13
G1X457.39Y188.26
G1X456.94Y189.01
G1X456.44Y189.57
G1X455.79Y190.09
G1X455.23Y190.37
G1X454.46Y190.54
G1X453.68Y190.54
G1X452.83Y190.34
G1X452.05Y189.99
G1X451.37Y189.48
G1X450.85Y188.86
M05
G0X452.55Y188.77
F200;#000000
; gcode_before_path_color
M3S0
G4P0
M03 S1300 ; color: #000000

G1X453.04Y189.04
G1X453.63Y189.19
G1X454.16Y189.20
G1X454.67Y189.07
G1X455.58Y188.32
G1X456.10Y187.33
G1X451.75Y185.81
G1X451.65Y186.66
G1X451.75Y187.53
G1X452.05Y188.23
G1X452.55Y188.77
M05
G0X405.95Y132.20
F200;#000000
; gcode_before_path_color
M3S0
G4P0
M03 S1300 ; color: #000000

G1X405.60Y131.42
G1X405.40Y130.54
G1X405.37Y129.68
G1X405.51Y128.79
G1X405.80Y128.07
G1X406.23Y127.43
G1X406.84Y126.84
G1X407.63Y126.33
G1X408.52Y125.98
G1X409.53Y125.77
G1X410.61Y125.71
G1X411.60Y125.83
G1X412.41Y126.08
G1X413.19Y126.49
G1X413.82Y127.03
G1X414.41Y127.76
G1X414.75Y128.58
G1X414.91Y129.35
G1X414.93Y130.25
G1X414.79Y131.08
G1X414.50Y131.80
G1X414.07Y132.46
G1X413.48Y133.03
G1X412.84Y133.47
G1X411.97Y133.83
G1X410.91Y134.08
G1X409.85Y134.15
G1X408.77Y134.05
G1X407.96Y133.83
G1X407.20Y133.44
G1X406.37Y132.75
G1X405.95Y132.20
M05
G0X407.82Y132.08
F200;#000000
; gcode_before_path_color
M3S0
G4P0
M03 S1300 ; color: #000000

G1X408.82Y132.47
G1X409.96Y132.57
G1X411.23Y132.41
G1X412.30Y132.01
G1X413.23Y131.23
G1X413.53Y130.63
G1X413.63Y130.05
G1X413.62Y129.50
G1X413.51Y128.98
G1X413.28Y128.56
G1X412.86Y128.05
G1X412.42Y127.73
G1X411.75Y127.44
G1X411.08Y127.31
G1X410.22Y127.30
G1X409.24Y127.43
G1X408.47Y127.65
G1X407.85Y127.97
G1X407.35Y128.36
G1X406.96Y128.87
G1X406.73Y129.45
G1X406.66Y130.00
G1X406.73Y130.57
G1X406.93Y131.16
G1X407.40Y131.74
G1X407.82Y132.08
M05
G0X460.21Y190.99
F200;#000000
; gcode_before_path_color
M3S0
G4P0
M03 S1300 ; color: #000000

G1X459.99Y190.30
G1X459.98Y189.65
G1X461.52Y189.97
G1X461.61Y190.51
G1X461.76Y190.82
G1X462.06Y191.15
G1X462.56Y191.47
G1X463.36Y191.73
G1X464.21Y191.72
G1X464.71Y191.52
G1X465.15Y191.11
G1X465.40Y190.63
G1X465.56Y189.96
G1X465.63Y189.55
G1X463.65Y189.19
G1X462.60Y188.86
G1X461.63Y188.33
G1X460.94Y187.61
G1X460.67Y187.10
G1X460.53Y186.64
G1X460.51Y185.66
G1X460.81Y184.73
G1X461.08Y184.34
G1X461.48Y183.95
G1X461.96Y183.65
G1X462.42Y183.48
G1X463.58Y183.36
G1X464.41Y183.49
G1X465.22Y183.82
G1X465.83Y184.27
G1X466.45Y184.97
G1X466.86Y184.09
G1X468.46Y184.40
G1X467.89Y186.05
G1X466.94Y191.05
G1X466.59Y191.80
G1X466.02Y192.43
G1X465.45Y192.79
G1X464.67Y193.02
G1X463.79Y193.06
G1X462.83Y192.92
G1X461.95Y192.61
G1X461.20Y192.17
G1X460.64Y191.62
G1X460.21Y190.99
M05
G0X405.04Y123.77
F200;#000000
; gcode_before_path_color
M3S0
G4P0
M03 S1300 ; color: #000000

G1X405.07Y123.03
G1X405.31Y122.28
G1X405.61Y121.82
G1X406.30Y121.22
G1X405.27Y121.16
G1X405.37Y119.63
G1X414.52Y119.96
G1X414.56Y120.54
G1X414.47Y121.52
G1X407.88Y121.33
G1X407.16Y121.83
G1X406.85Y122.22
G1X406.60Y123.08
G1X406.59Y124.12
G1X405.15Y124.06
G1X405.04Y123.77
M05
G0X462.58Y187.47
F200;#000000
; gcode_before_path_color
M3S0
G4P0
M03 S1300 ; color: #000000

G1X463.05Y187.77
G1X463.68Y188.01
G1X465.83Y188.45
G1X466.09Y186.90
G1X466.06Y186.33
G1X465.56Y185.61
G1X464.77Y185.05
G1X463.87Y184.78
G1X463.05Y184.86
G1X462.39Y185.29
G1X462.18Y185.62
G1X462.03Y186.09
G1X462.02Y186.48
G1X462.11Y186.86
G1X462.29Y187.19
G1X462.58Y187.47
M05
G0X403.62Y114.08
F200;#000000
; gcode_before_path_color
M3S0
G4P0
M03 S1300 ; color: #000000

G1X403.78Y113.30
G1X405.91Y113.56
G1X406.18Y111.95
G1X407.35Y112.08
G1X407.16Y113.73
G1X413.01Y114.52
G1X413.80Y114.74
G1X414.34Y115.05
G1X414.77Y115.53
G1X415.00Y116.14
G1X415.01Y116.85
G1X414.81Y117.75
G1X414.69Y118.11
G1X413.48Y117.94
G1X413.61Y117.15
G1X413.60Y116.75
G1X413.41Y116.38
G1X413.03Y116.16
G1X407.07Y115.33
G1X406.97Y115.38
G1X406.94Y115.53
G1X406.73Y117.03
G1X405.51Y116.86
G1X405.72Y115.19
G1X403.52Y114.86
G1X403.62Y114.08
M05
G0X470.84Y189.47
F200;#000000
; gcode_before_path_color
M3S0
G4P0
M03 S1300 ; color: #000000

G1X470.75Y184.84
G1X472.29Y184.77
G1X472.54Y191.62
G1X473.11Y192.33
G1X473.83Y192.69
G1X474.93Y192.77
G1X475.40Y192.67
G1X475.81Y192.47
G1X476.26Y192.06
G1X476.55Y191.17
G1X476.44Y184.70
G1X476.52Y184.64
G1X477.93Y184.60
G1X478.18Y190.77
G1X478.33Y191.34
G1X478.80Y192.04
G1X479.43Y192.44
G1X480.34Y192.61
G1X481.32Y192.44
G1X481.73Y192.20
G1X481.97Y191.93
G1X482.15Y191.53
G1X482.24Y191.04
G1X482.14Y184.49
G1X483.32Y184.45
G1X483.66Y184.50
G1X483.80Y191.49
G1X483.61Y192.26
G1X483.27Y192.89
G1X482.82Y193.35
G1X482.24Y193.67
G1X481.05Y193.93
G1X479.70Y193.80
G1X478.76Y193.37
G1X477.88Y192.58
G1X477.53Y193.11
G1X477.10Y193.52
G1X476.63Y193.82
G1X476.10Y194.00
G1X475.09Y194.11
G1X474.11Y193.97
G1X473.31Y193.65
G1X472.49Y193.03
G1X472.46Y193.98
G1X471.04Y194.07
G1X470.84Y189.47
M05
G0X404.66Y108.32
F200;#000000
; gcode_before_path_color
M3S0
G4P0
M03 S1300 ; color: #000000

G1X404.31Y107.42
G1X404.14Y106.39
G1X404.22Y105.30
G1X404.51Y104.23
G1X404.93Y103.32
G1X405.51Y102.57
G1X406.38Y101.87
G1X407.16Y101.56
G1X408.23Y101.49
G1X409.20Y101.75
G1X409.78Y102.09
G1X410.56Y103.04
G1X410.84Y103.73
G1X411.07Y104.72
G1X411.29Y107.61
G1X411.47Y108.62
G1X411.62Y109.01
G1X411.87Y109.36
G1X412.17Y109.64
G1X412.51Y109.81
G1X413.39Y109.97
G1X413.84Y109.88
G1X414.29Y109.65
G1X414.62Y109.35
G1X414.94Y108.92
G1X415.39Y107.72
G1X415.53Y106.52
G1X415.45Y105.96
G1X415.28Y105.46
G1X415.05Y105.07
G1X414.71Y104.71
G1X414.35Y104.45
G1X413.82Y104.22
G1X414.29Y102.69
G1X415.21Y103.09
G1X415.83Y103.60
G1X416.38Y104.40
G1X416.73Y105.31
G1X416.87Y106.23
G1X416.83Y107.26
G1X416.63Y108.31
G1X416.25Y109.33
G1X415.79Y110.14
G1X415.22Y110.78
G1X414.52Y111.27
G1X413.84Y111.53
G1X412.80Y111.58
G1X411.78Y111.31
G1X411.10Y110.90
G1X410.43Y110.09
G1X410.11Y109.44
G1X409.84Y108.38
G1X409.63Y105.42
G1X409.48Y104.55
G1X409.30Y104.07
G1X409.05Y103.69
G1X408.74Y103.39
G1X408.41Y103.22
G1X407.93Y103.10
G1X407.48Y103.10
G1X407.07Y103.22
G1X406.68Y103.43
G1X406.34Y103.74
G1X406.02Y104.18
G1X405.63Y105.22
G1X405.52Y106.34
G1X405.72Y107.18
G1X406.30Y107.92
G1X407.24Y108.45
G1X406.83Y110.00
G1X406.23Y109.76
G1X405.61Y109.38
G1X405.05Y108.83
G1X404.66Y108.32
M05

; pass:2/2
;_gc_nextgen_svg_id:wa_tylomu-0,node:path,mb:id:wa_tylomu-0,clip_working_area_clipped:false
G0X413.96Y165.20
F200;#000000
; gcode_before_path_color
M3S0
G4P0
M03 S1300 ; color: #000000

G1X413.61Y164.56
G1X417.66Y162.04
G1X416.82Y161.75
G1X416.19Y161.37
G1X415.31Y160.32
G1X414.97Y159.51
G1X414.86Y158.78
G1X414.97Y157.89
G1X415.35Y156.95
G1X415.88Y156.18
G1X416.63Y155.43
G1X417.58Y154.77
G1X418.58Y154.25
G1X419.57Y153.93
G1X420.51Y153.80
G1X421.32Y153.87
G1X422.07Y154.10
G1X422.81Y154.52
G1X423.51Y155.38
G1X423.94Y156.30
G1X424.08Y157.25
G1X423.93Y158.21
G1X424.83Y157.81
G1X425.51Y158.91
G1X425.51Y159.01
G1X414.50Y165.86
G1X414.37Y165.87
G1X413.96Y165.20
M05
G0X418.13Y169.57
F200;#000000
; gcode_before_path_color
M3S0
G4P0
M03 S1300 ; color: #000000

G1X426.93Y161.26
G1X428.05Y162.40
G1X420.76Y169.14
G1X430.75Y165.25
G1X431.12Y165.58
G1X431.61Y166.19
G1X427.25Y175.92
G1X434.34Y169.01
G1X435.46Y170.20
G1X426.47Y178.73
G1X425.03Y177.16
G1X429.50Y167.35
G1X419.41Y171.29
G1X418.00Y169.86
G1X417.97Y169.77
G1X418.13Y169.57
M05
G0X439.87Y180.89
F200;#000000
; gcode_before_path_color
M3S0
G4P0
M03 S1300 ; color: #000000

G1X442.83Y175.45
G1X446.52Y177.38
G1X447.75Y178.20
G1X448.33Y178.81
G1X448.72Y179.41
G1X448.97Y180.05
G1X449.08Y180.80
G1X449.01Y181.47
G1X448.77Y182.21
G1X448.37Y182.92
G1X447.90Y183.48
G1X447.47Y183.80
G1X446.79Y184.11
G1X446.24Y184.22
G1X445.45Y184.19
G1X445.33Y184.25
G1X445.78Y185.06
G1X445.98Y186.10
G1X445.79Y186.99
G1X445.29Y187.87
G1X444.80Y188.38
G1X444.16Y188.80
G1X443.67Y188.97
G1X443.04Y189.03
G1X442.11Y188.92
G1X441.13Y188.59
G1X436.96Y186.33
G1X439.87Y180.89
M05
G0X432.29Y179.12
F200;#000000
; gcode_before_path_color
M3S0
G4P0
M03 S1300 ; color: #000000

G1X437.75Y171.73
G1X438.98Y172.59
G1X438.89Y172.83
G1X435.14Y178.02
G1X435.12Y178.76
G1X435.38Y179.52
G1X435.92Y180.10
G1X436.73Y180.65
G1X435.87Y181.82
G1X435.55Y181.72
G1X435.24Y181.50
G1X434.52Y180.76
G1X434.25Y180.06
G1X434.18Y179.24
G1X433.57Y179.99
G1X432.29Y179.12
M05
G0X417.37Y160.75
F200;#000000
; gcode_before_path_color
M3S0
G4P0
M03 S1300 ; color: #000000

G1X418.09Y161.13
G1X419.01Y161.19
G1X422.61Y158.97
G1X422.92Y158.17
G1X422.96Y157.53
G1X422.74Y156.72
G1X422.28Y156.00
G1X421.86Y155.66
G1X421.25Y155.41
G1X420.67Y155.34
G1X420.04Y155.41
G1X419.40Y155.61
G1X418.65Y155.96
G1X417.17Y157.10
G1X416.82Y157.52
G1X416.56Y158.01
G1X416.41Y158.49
G1X416.37Y158.97
G1X416.44Y159.43
G1X416.64Y159.88
G1X416.98Y160.42
G1X417.37Y160.75
M05
G0X441.58Y187.30
F200;#000000
; gcode_before_path_color
M3S0
G4P0
M03 S1300 ; color: #000000

G1X442.15Y187.49
G1X442.75Y187.56
G1X443.18Y187.49
G1X443.56Y187.29
G1X443.97Y186.88
G1X444.28Y186.35
G1X444.43Y185.86
G1X444.42Y185.30
G1X444.15Y184.59
G1X443.60Y183.98
G1X442.24Y183.18
G1X440.86Y182.51
G1X439.04Y185.89
G1X441.58Y187.30
M05
G0X410.81Y151.55
F200;#000000
; gcode_before_path_color
M3S0
G4P0
M03 S1300 ; color: #000000

G1X410.48Y150.70
G1X410.35Y149.95
G1X410.40Y149.10
G1X410.63Y148.29
G1X410.92Y147.71
G1X411.40Y147.03
G1X412.29Y146.26
G1X412.96Y145.83
G1X414.04Y145.37
G1X414.95Y145.12
G1X415.79Y145.06
G1X416.74Y145.15
G1X417.61Y145.50
G1X418.26Y145.89
G1X418.85Y146.49
G1X419.32Y147.16
G1X419.76Y148.28
G1X419.94Y149.42
G1X419.72Y150.64
G1X419.24Y151.54
G1X418.22Y150.96
G1X418.55Y150.05
G1X418.64Y149.29
G1X418.51Y148.54
G1X418.11Y147.72
G1X417.73Y147.28
G1X417.17Y146.89
G1X416.56Y146.68
G1X415.90Y146.60
G1X415.08Y146.70
G1X414.56Y146.89
G1X416.95Y152.64
G1X415.90Y153.07
G1X414.93Y153.35
G1X414.02Y153.44
G1X413.12Y153.37
G1X412.43Y153.14
G1X411.85Y152.79
G1X411.25Y152.18
G1X410.81Y151.55
M05
G0X403.04Y139.72
F200;#000000
; gcode_before_path_color
M3S0
G4P0
M03 S1300 ; color: #000000

G1X402.88Y139.05
G1X402.92Y138.98
G1X415.59Y135.73
G1X415.96Y137.25
G1X412.81Y138.05
G1X412.10Y139.24
G1X417.01Y141.37
G1X417.43Y143.09
G1X411.26Y140.57
G1X408.40Y144.98
G1X407.95Y143.11
G1X410.91Y138.55
G1X403.28Y140.43
G1X403.04Y139.72
M05
G0X412.85Y151.78
F200;#000000
; gcode_before_path_color
M3S0
G4P0
M03 S1300 ; color: #000000

G1X413.37Y151.94
G1X413.85Y151.97
G1X414.49Y151.89
G1X415.10Y151.70
G1X413.31Y147.45
G1X412.73Y147.85
G1X412.14Y148.43
G1X411.82Y149.02
G1X411.67Y149.64
G1X411.71Y150.30
G1X411.95Y150.93
G1X412.43Y151.52
G1X412.85Y151.78
M05
G0X442.84Y182.01
F200;#000000
; gcode_before_path_color
M3S0
G4P0
M03 S1300 ; color: #000000

G1X444.26Y182.75
G1X444.81Y182.95
G1X445.53Y183.01
G1X446.12Y182.85
G1X446.80Y182.30
G1X447.31Y181.39
G1X447.45Y180.59
G1X447.24Y179.79
G1X446.87Y179.27
G1X446.38Y178.86
G1X443.67Y177.39
G1X441.56Y181.27
G1X442.84Y182.01
M05
G0X450.85Y188.86
F200;#000000
; gcode_before_path_color
M3S0
G4P0
M03 S1300 ; color: #000000

G1X450.44Y188.07
G1X450.22Y187.32
G1X450.13Y186.48
G1X450.20Y185.63
G1X450.45Y184.58
G1X450.84Y183.56
G1X451.31Y182.74
G1X451.87Y182.11
G1X452.51Y181.62
G1X453.19Y181.29
G1X453.94Y181.10
G1X454.80Y181.06
G1X455.63Y181.19
G1X456.47Y181.49
G1X457.25Y181.92
G1X457.82Y182.42
G1X458.42Y183.24
G1X458.76Y184.13
G1X457.63Y184.48
G1X457.10Y183.59
G1X456.47Y182.95
G1X455.62Y182.54
G1X454.64Y182.42
G1X453.78Y182.63
G1X453.13Y183.05
G1X452.62Y183.59
G1X452.15Y184.52
G1X457.98Y186.56
G1X457.86Y187.13
G1X457.39Y188.26
G1X456.94Y189.01
G1X456.44Y189.57
G1X455.79Y190.09
G1X455.23Y190.37
G1X454.46Y190.54
G1X453.68Y190.54
G1X452.83Y190.34
G1X452.05Y189.99
G1X451.37Y189.48
G1X450.85Y188.86
M05
G0X452.55Y188.77
F200;#000000
; gcode_before_path_color
M3S0
G4P0
M03 S1300 ; color: #000000

G1X453.04Y189.04
G1X453.63Y189.19
G1X454.16Y189.20
G1X454.67Y189.07
G1X455.58Y188.32
G1X456.10Y187.33
G1X451.75Y185.81
G1X451.65Y186.66
G1X451.75Y187.53
G1X452.05Y188.23
G1X452.55Y188.77
M05
G0X405.95Y132.20
F200;#000000
; gcode_before_path_color
M3S0
G4P0
M03 S1300 ; color: #000000

G1X405.60Y131.42
G1X405.40Y130.54
G1X405.37Y129.68
G1X405.51Y128.79
G1X405.80Y128.07
G1X406.23Y127.43
G1X406.84Y126.84
G1X407.63Y126.33
G1X408.52Y125.98
G1X409.53Y125.77
G1X410.61Y125.71
G1X411.60Y125.83
G1X412.41Y126.08
G1X413.19Y126.49
G1X413.82Y127.03
G1X414.41Y127.76
G1X414.75Y128.58
G1X414.91Y129.35
G1X414.93Y130.25
G1X414.79Y131.08
G1X414.50Y131.80
G1X414.07Y132.46
G1X413.48Y133.03
G1X412.84Y133.47
G1X411.97Y133.83
G1X410.91Y134.08
G1X409.85Y134.15
G1X408.77Y134.05
G1X407.96Y133.83
G1X407.20Y133.44
G1X406.37Y132.75
G1X405.95Y132.20
M05
G0X407.82Y132.08
F200;#000000
; gcode_before_path_color
M3S0
G4P0
M03 S1300 ; color: #000000

G1X408.82Y132.47
G1X409.96Y132.57
G1X411.23Y132.41
G1X412.30Y132.01
G1X413.23Y131.23
G1X413.53Y130.63
G1X413.63Y130.05
G1X413.62Y129.50
G1X413.51Y128.98
G1X413.28Y128.56
G1X412.86Y128.05
G1X412.42Y127.73
G1X411.75Y127.44
G1X411.08Y127.31
G1X410.22Y127.30
G1X409.24Y127.43
G1X408.47Y127.65
G1X407.85Y127.97
G1X407.35Y128.36
G1X406.96Y128.87
G1X406.73Y129.45
G1X406.66Y130.00
G1X406.73Y130.57
G1X406.93Y131.16
G1X407.40Y131.74
G1X407.82Y132.08
M05
G0X460.21Y190.99
F200;#000000
; gcode_before_path_color
M3S0
G4P0
M03 S1300 ; color: #000000

G1X459.99Y190.30
G1X459.98Y189.65
G1X461.52Y189.97
G1X461.61Y190.51
G1X461.76Y190.82
G1X462.06Y191.15
G1X462.56Y191.47
G1X463.36Y191.73
G1X464.21Y191.72
G1X464.71Y191.52
G1X465.15Y191.11
G1X465.40Y190.63
G1X465.56Y189.96
G1X465.63Y189.55
G1X463.65Y189.19
G1X462.60Y188.86
G1X461.63Y188.33
G1X460.94Y187.61
G1X460.67Y187.10
G1X460.53Y186.64
G1X460.51Y185.66
G1X460.81Y184.73
G1X461.08Y184.34
G1X461.48Y183.95
G1X461.96Y183.65
G1X462.42Y183.48
G1X463.58Y183.36
G1X464.41Y183.49
G1X465.22Y183.82
G1X465.83Y184.27
G1X466.45Y184.97
G1X466.86Y184.09
G1X468.46Y184.40
G1X467.89Y186.05
G1X466.94Y191.05
G1X466.59Y191.80
G1X466.02Y192.43
G1X465.45Y192.79
G1X464.67Y193.02
G1X463.79Y193.06
G1X462.83Y192.92
G1X461.95Y192.61
G1X461.20Y192.17
G1X460.64Y191.62
G1X460.21Y190.99
M05
G0X405.04Y123.77
F200;#000000
; gcode_before_path_color
M3S0
G4P0
M03 S1300 ; color: #000000

G1X405.07Y123.03
G1X405.31Y122.28
G1X405.61Y121.82
G1X406.30Y121.22
G1X405.27Y121.16
G1X405.37Y119.63
G1X414.52Y119.96
G1X414.56Y120.54
G1X414.47Y121.52
G1X407.88Y121.33
G1X407.16Y121.83
G1X406.85Y122.22
G1X406.60Y123.08
G1X406.59Y124.12
G1X405.15Y124.06
G1X405.04Y123.77
M05
G0X462.58Y187.47
F200;#000000
; gcode_before_path_color
M3S0
G4P0
M03 S1300 ; color: #000000

G1X463.05Y187.77
G1X463.68Y188.01
G1X465.83Y188.45
G1X466.09Y186.90
G1X466.06Y186.33
G1X465.56Y185.61
G1X464.77Y185.05
G1X463.87Y184.78
G1X463.05Y184.86
G1X462.39Y185.29
G1X462.18Y185.62
G1X462.03Y186.09
G1X462.02Y186.48
G1X462.11Y186.86
G1X462.29Y187.19
G1X462.58Y187.47
M05
G0X403.62Y114.08
F200;#000000
; gcode_before_path_color
M3S0
G4P0
M03 S1300 ; color: #000000

G1X403.78Y113.30
G1X405.91Y113.56
G1X406.18Y111.95
G1X407.35Y112.08
G1X407.16Y113.73
G1X413.01Y114.52
G1X413.80Y114.74
G1X414.34Y115.05
G1X414.77Y115.53
G1X415.00Y116.14
G1X415.01Y116.85
G1X414.81Y117.75
G1X414.69Y118.11
G1X413.48Y117.94
G1X413.61Y117.15
G1X413.60Y116.75
G1X413.41Y116.38
G1X413.03Y116.16
G1X407.07Y115.33
G1X406.97Y115.38
G1X406.94Y115.53
G1X406.73Y117.03
G1X405.51Y116.86
G1X405.72Y115.19
G1X403.52Y114.86
G1X403.62Y114.08
M05
G0X470.84Y189.47
F200;#000000
; gcode_before_path_color
M3S0
G4P0
M03 S1300 ; color: #000000

G1X470.75Y184.84
G1X472.29Y184.77
G1X472.54Y191.62
G1X473.11Y192.33
G1X473.83Y192.69
G1X474.93Y192.77
G1X475.40Y192.67
G1X475.81Y192.47
G1X476.26Y192.06
G1X476.55Y191.17
G1X476.44Y184.70
G1X476.52Y184.64
G1X477.93Y184.60
G1X478.18Y190.77
G1X478.33Y191.34
G1X478.80Y192.04
G1X479.43Y192.44
G1X480.34Y192.61
G1X481.32Y192.44
G1X481.73Y192.20
G1X481.97Y191.93
G1X482.15Y191.53
G1X482.24Y191.04
G1X482.14Y184.49
G1X483.32Y184.45
G1X483.66Y184.50
G1X483.80Y191.49
G1X483.61Y192.26
G1X483.27Y192.89
G1X482.82Y193.35
G1X482.24Y193.67
G1X481.05Y193.93
G1X479.70Y193.80
G1X478.76Y193.37
G1X477.88Y192.58
G1X477.53Y193.11
G1X477.10Y193.52
G1X476.63Y193.82
G1X476.10Y194.00
G1X475.09Y194.11
G1X474.11Y193.97
G1X473.31Y193.65
G1X472.49Y193.03
G1X472.46Y193.98
G1X471.04Y194.07
G1X470.84Y189.47
M05
G0X404.66Y108.32
F200;#000000
; gcode_before_path_color
M3S0
G4P0
M03 S1300 ; color: #000000

G1X404.31Y107.42
G1X404.14Y106.39
G1X404.22Y105.30
G1X404.51Y104.23
G1X404.93Y103.32
G1X405.51Y102.57
G1X406.38Y101.87
G1X407.16Y101.56
G1X408.23Y101.49
G1X409.20Y101.75
G1X409.78Y102.09
G1X410.56Y103.04
G1X410.84Y103.73
G1X411.07Y104.72
G1X411.29Y107.61
G1X411.47Y108.62
G1X411.62Y109.01
G1X411.87Y109.36
G1X412.17Y109.64
G1X412.51Y109.81
G1X413.39Y109.97
G1X413.84Y109.88
G1X414.29Y109.65
G1X414.62Y109.35
G1X414.94Y108.92
G1X415.39Y107.72
G1X415.53Y106.52
G1X415.45Y105.96
G1X415.28Y105.46
G1X415.05Y105.07
G1X414.71Y104.71
G1X414.35Y104.45
G1X413.82Y104.22
G1X414.29Y102.69
G1X415.21Y103.09
G1X415.83Y103.60
G1X416.38Y104.40
G1X416.73Y105.31
G1X416.87Y106.23
G1X416.83Y107.26
G1X416.63Y108.31
G1X416.25Y109.33
G1X415.79Y110.14
G1X415.22Y110.78
G1X414.52Y111.27
G1X413.84Y111.53
G1X412.80Y111.58
G1X411.78Y111.31
G1X411.10Y110.90
G1X410.43Y110.09
G1X410.11Y109.44
G1X409.84Y108.38
G1X409.63Y105.42
G1X409.48Y104.55
G1X409.30Y104.07
G1X409.05Y103.69
G1X408.74Y103.39
G1X408.41Y103.22
G1X407.93Y103.10
G1X407.48Y103.10
G1X407.07Y103.22
G1X406.68Y103.43
G1X406.34Y103.74
G1X406.02Y104.18
G1X405.63Y105.22
G1X405.52Y106.34
G1X405.72Y107.18
G1X406.30Y107.92
G1X407.24Y108.45
G1X406.83Y110.00
G1X406.23Y109.76
G1X405.61Y109.38
G1X405.05Y108.83
G1X404.66Y108.32
M05

; end of job
M05
M100P0 ; mrbeam_compressor off
